P3
400 225
255
204 226 255
204 226 255
204 226 255
204 226 255
204 226 255
204 226 255
204 226 255
204 226 255
204 226 255
204 226 255
204 226 255
204 226 255
204 226 255
204 226 255
204 226 255
203 226 255
203 226 255
203 226 255
203 226 255
203 226 255
203 226 255
203 226 255
203 226 255
203 225 255
203 225 255
203 225 255
203 225 255
203 225 255
203 225 255
203 225 255
203 225 255
203 225 255
202 225 255
202 225 255
202 225 255
202 225 255
202 225 255
202 225 255
202 225 255
202 225 255
202 225 255
202 225 255
202 225 255
202 225 255
202 225 255
202 225 255
202 225 255
202 225 255
201 225 255
201 225 255
201 225 255
201 225 255
201 224 255
201 224 255
201 224 255
201 224 255
201 224 255
201 224 255
201 224 255
201 224 255
201 224 255
201 224 255
201 224 255
200 224 255
200 224 255
200 224 255
200 224 255
200 224 255
200 224 255
200 224 255
200 224 255
200 224 255
200 224 255
200 224 255
200 224 255
200 224 255
200 224 255
200 224 255
199 224 255
199 224 255
199 223 255
199 223 255
199 223 255
199 223 255
199 223 255
199 223 255
199 223 255
199 223 255
199 223 255
199 223 255
199 223 255
199 223 255
198 223 255
198 223 255
198 223 255
198 223 255
198 223 255
198 223 255
198 223 255
198 223 255
198 223 255
198 223 255
198 223 255
198 223 255
198 223 255
198 223 255
197 223 255
197 222 255
197 222 255
197 222 255
197 222 255
197 222 255
197 222 255
197 222 255
197 222 255
197 222 255
197 222 255
197 222 255
197 222 255
197 222 255
197 222 255
196 222 255
196 222 255
196 222 255
196 222 255
196 222 255
196 222 255
196 222 255
196 222 255
196 222 255
196 222 255
196 222 255
196 222 255
196 222 255
196 222 255
196 221 255
196 221 255
195 221 255
195 221 255
195 221 255
195 221 255
195 221 255
195 221 255
195 221 255
195 221 255
195 221 255
195 221 255
195 221 255
195 221 255
195 221 255
195 221 255
195 221 255
195 221 255
195 221 255
195 221 255
194 221 255
194 221 255
194 221 255
194 221 255
194 221 255
194 221 255
194 221 255
194 221 255
194 221 255
194 221 255
194 221 255
194 221 255
194 221 255
194 221 255
194 221 255
194 221 255
194 221 255
194 221 255
194 221 255
194 221 255
194 221 255
194 221 255
194 220 255
194 220 255
194 220 255
194 220 255
194 220 255
194 220 255
194 220 255
194 220 255
194 220 255
193 220 255
193 220 255
193 220 255
193 220 255
193 220 255
193 220 255
193 220 255
193 220 255
193 220 255
193 220 255
193 220 255
193 220 255
193 220 255
193 220 255
193 220 255
193 220 255
193 220 255
193 220 255
193 220 255
193 220 255
193 220 255
193 220 255
193 220 255
193 220 255
193 220 255
193 220 255
193 220 255
193 220 255
194 220 255
194 220 255
194 220 255
194 220 255
194 220 255
194 220 255
194 220 255
194 220 255
194 221 255
194 221 255
194 221 255
194 221 255
194 221 255
194 221 255
194 221 255
194 221 255
194 221 255
194 221 255
194 221 255
194 221 255
194 221 255
194 221 255
194 221 255
194 221 255
194 221 255
194 221 255
194 221 255
194 221 255
194 221 255
194 221 255
194 221 255
195 221 255
195 221 255
195 221 255
195 221 255
195 221 255
195 221 255
195 221 255
195 221 255
195 221 255
195 221 255
195 221 255
195 221 255
195 221 255
195 221 255
195 221 255
195 221 255
195 221 255
195 221 255
196 221 255
196 221 255
196 222 255
196 222 255
196 222 255
196 222 255
196 222 255
196 222 255
196 222 255
196 222 255
196 222 255
196 222 255
196 222 255
196 222 255
196 222 255
196 222 255
197 222 255
197 222 255
197 222 255
197 222 255
197 222 255
197 222 255
197 222 255
197 222 255
197 222 255
197 222 255
197 222 255
197 222 255
197 222 255
197 222 255
197 223 255
198 223 255
198 223 255
198 223 255
198 223 255
198 223 255
198 223 255
198 223 255
198 223 255
198 223 255
198 223 255
198 223 255
198 223 255
198 223 255
198 223 255
199 223 255
199 223 255
199 223 255
199 223 255
199 223 255
199 223 255
199 223 255
199 223 255
199 223 255
199 223 255
199 223 255
199 223 255
199 224 255
199 224 255
199 224 255
200 224 255
200 224 255
200 224 255
200 224 255
200 224 255
200 224 255
200 224 255
200 224 255
200 224 255
200 224 255
200 224 255
200 224 255
200 224 255
200 224 255
201 224 255
201 224 255
201 224 255
201 224 255
201 224 255
201 224 255
201 224 255
201 224 255
201 224 255
201 224 255
201 225 255
201 225 255
201 225 255
201 225 255
201 225 255
202 225 255
202 225 255
202 225 255
202 225 255
202 225 255
202 225 255
202 225 255
202 225 255
202 225 255
202 225 255
202 225 255
202 225 255
202 225 255
202 225 255
202 225 255
202 225 255
203 225 255
203 225 255
203 225 255
203 225 255
203 225 255
203 225 255
203 225 255
203 225 255
203 225 255
203 226 255
203 226 255
203 226 255
203 226 255
203 226 255
203 226 255
203 226 255
203 226 255
204 226 255
204 226 255
204 226 255
204 226 255
204 226 255
204 226 255
204 226 255
204 226 255
204 226 255
204 226 255
204 226 255
204 226 255
204 226 255
204 226 255
204 226 255
204 226 255
204 226 255
204 226 255
204 226 255
204 226 255
204 226 255
204 226 255
204 226 255
204 226 255
204 226 255
204 226 255
204 226 255
204 226 255
204 226 255
204 226 255
204 226 255
204 226 255
204 226 255
203 226 255
203 226 255
203 226 255
203 226 255
203 226 255
203 226 255
203 226 255
203 225 255
203 225 255
203 225 255
203 225 255
203 225 255
203 225 255
203 225 255
203 225 255
203 225 255
202 225 255
202 225 255
202 225 255
202 225 255
202 225 255
202 225 255
202 225 255
202 225 255
202 225 255
202 225 255
202 225 255
202 225 255
202 225 255
202 225 255
202 225 255
202 225 255
201 225 255
201 225 255
201 225 255
201 225 255
201 225 255
201 224 255
201 224 255
201 224 255
201 224 255
201 224 255
201 224 255
201 224 255
201 224 255
201 224 255
201 224 255
200 224 255
200 224 255
200 224 255
200 224 255
200 224 255
200 224 255
200 224 255
200 224 255
200 224 255
200 224 255
200 224 255
200 224 255
200 224 255
200 224 255
200 224 255
199 224 255
199 224 255
199 223 255
199 223 255
199 223 255
199 223 255
199 223 255
199 223 255
199 223 255
199 223 255
199 223 255
199 223 255
199 223 255
199 223 255
198 223 255
198 223 255
198 223 255
198 223 255
198 223 255
198 223 255
198 223 255
198 223 255
198 223 255
198 223 255
198 223 255
198 223 255
198 223 255
198 223 255
197 223 255
197 222 255
197 222 255
197 222 255
197 222 255
197 222 255
197 222 255
197 222 255
197 222 255
197 222 255
197 222 255
197 222 255
197 222 255
197 222 255
197 222 255
196 222 255
196 222 255
196 222 255
196 222 255
196 222 255
196 222 255
196 222 255
196 222 255
196 222 255
196 222 255
196 222 255
196 222 255
196 222 255
196 222 255
196 222 255
196 221 255
195 221 255
195 221 255
195 221 255
195 221 255
195 221 255
195 221 255
195 221 255
195 221 255
195 221 255
195 221 255
195 221 255
195 221 255
195 221 255
195 221 255
195 221 255
195 221 255
195 221 255
195 221 255
195 221 255
194 221 255
194 221 255
194 221 255
194 221 255
194 221 255
194 221 255
194 221 255
194 221 255
194 221 255
194 221 255
194 221 255
194 221 255
194 221 255
194 221 255
194 221 255
194 221 255
194 221 255
194 221 255
194 221 255
194 221 255
194 221 255
194 221 255
194 221 255
194 221 255
194 221 255
194 220 255
194 220 255
194 220 255
194 220 255
194 220 255
194 220 255
194 220 255
194 220 255
194 220 255
194 220 255
194 220 255
194 220 255
194 220 255
194 220 255
194 220 255
194 220 255
194 220 255
194 220 255
194 220 255
194 220 255
194 220 255
194 220 255
194 220 255
194 220 255
194 220 255
194 220 255
194 220 255
194 220 255
194 220 255
194 220 255
194 220 255
194 220 255
194 220 255
194 220 255
194 221 255
194 221 255
194 221 255
194 221 255
194 221 255
194 221 255
194 221 255
194 221 255
194 221 255
194 221 255
194 221 255
194 221 255
194 221 255
194 221 255
194 221 255
194 221 255
194 221 255
194 221 255
194 221 255
194 221 255
194 221 255
194 221 255
194 221 255
194 221 255
195 221 255
195 221 255
195 221 255
195 221 255
195 221 255
195 221 255
195 221 255
195 221 255
195 221 255
195 221 255
195 221 255
195 221 255
195 221 255
195 221 255
195 221 255
195 221 255
195 221 255
195 221 255
195 221 255
195 221 255
196 221 255
196 222 255
196 222 255
196 222 255
196 222 255
196 222 255
196 222 255
196 222 255
196 222 255
196 222 255
196 222 255
196 222 255
196 222 255
196 222 255
196 222 255
196 222 255
197 222 255
197 222 255
197 222 255
197 222 255
197 222 255
197 222 255
197 222 255
197 222 255
197 222 255
197 222 255
197 222 255
197 222 255
197 222 255
197 222 255
197 223 255
198 223 255
198 223 255
198 223 255
198 223 255
198 223 255
198 223 255
198 223 255
198 223 255
198 223 255
198 223 255
198 223 255
198 223 255
198 223 255
198 223 255
199 223 255
199 223 255
199 223 255
199 223 255
199 223 255
199 223 255
199 223 255
199 223 255
199 223 255
199 223 255
199 223 255
199 223 255
199 224 255
199 224 255
199 224 255
200 224 255
200 224 255
200 224 255
200 224 255
200 224 255
200 224 255
200 224 255
200 224 255
200 224 255
200 224 255
200 224 255
200 224 255
200 224 255
200 224 255
201 224 255
201 224 255
201 224 255
201 224 255
201 224 255
201 224 255
201 224 255
201 224 255
201 224 255
201 224 255
201 225 255
201 225 255
201 225 255
201 225 255
201 225 255
202 225 255
202 225 255
202 225 255
202 225 255
202 225 255
202 225 255
202 225 255
202 225 255
202 225 255
202 225 255
202 225 255
202 225 255
202 225 255
202 225 255
202 225 255
202 225 255
203 225 255
203 225 255
203 225 255
203 225 255
203 225 255
203 225 255
203 225 255
203 225 255
203 225 255
203 226 255
203 226 255
203 226 255
203 226 255
203 226 255
203 226 255
203 226 255
204 226 255
204 226 255
204 226 255
204 226 255
204 226 255
204 226 255
204 226 255
204 226 255
204 226 255
204 226 255
204 226 255
204 226 255
204 226 255
204 226 255
204 226 255
204 226 255
204 226 255
204 226 255
205 226 255
205 226 255
204 226 255
204 226 255
204 226 255
204 226 255
204 226 255
204 226 255
204 226 255
204 226 255
204 226 255
204 226 255
204 226 255
204 226 255
204 226 255
204 226 255
204 226 255
204 226 255
204 226 255
204 226 255
203 226 255
203 226 255
203 226 255
203 226 255
203 226 255
203 226 255
203 226 255
203 225 255
203 225 255
203 225 255
203 225 255
203 225 255
203 225 255
203 225 255
203 225 255
203 225 255
202 225 255
202 225 255
202 225 255
202 225 255
202 225 255
202 225 255
202 225 255
202 225 255
202 225 255
202 225 255
202 225 255
202 225 255
202 225 255
202 225 255
202 225 255
202 225 255
201 225 255
201 225 255
201 225 255
201 225 255
201 225 255
201 224 255
201 224 255
201 224 255
201 224 255
201 224 255
201 224 255
201 224 255
201 224 255
201 224 255
201 224 255
200 224 255
200 224 255
200 224 255
200 224 255
200 224 255
200 224 255
200 224 255
200 224 255
200 224 255
200 224 255
200 224 255
200 224 255
200 224 255
200 224 255
200 224 255
199 224 255
199 224 255
199 223 255
199 223 255
199 223 255
199 223 255
199 223 255
199 223 255
199 223 255
199 223 255
199 223 255
199 223 255
199 223 255
199 223 255
198 223 255
198 223 255
198 223 255
198 223 255
198 223 255
198 223 255
198 223 255
198 223 255
198 223 255
198 223 255
198 223 255
198 223 255
198 223 255
198 223 255
197 223 255
197 222 255
197 222 255
197 222 255
197 222 255
197 222 255
197 222 255
197 222 255
197 222 255
197 222 255
197 222 255
197 222 255
197 222 255
197 222 255
197 222 255
196 222 255
196 222 255
196 222 255
196 222 255
196 222 255
196 222 255
196 222 255
196 222 255
196 222 255
196 222 255
196 222 255
196 222 255
196 222 255
196 222 255
196 222 255
196 221 255
195 221 255
195 221 255
195 221 255
195 221 255
195 221 255
195 221 255
195 221 255
195 221 255
195 221 255
195 221 255
195 221 255
195 221 255
195 221 255
195 221 255
195 221 255
195 221 255
195 221 255
195 221 255
195 221 255
195 221 255
194 221 255
194 221 255
194 221 255
194 221 255
194 221 255
194 221 255
194 221 255
194 221 255
194 221 255
194 221 255
194 221 255
194 221 255
194 221 255
194 221 255
194 221 255
194 221 255
194 221 255
194 221 255
194 221 255
194 221 255
194 221 255
194 221 255
194 221 255
194 221 255
194 221 255
194 221 255
194 221 255
194 221 255
194 221 255
194 221 255
194 221 255
194 220 255
194 220 255
194 220 255
194 220 255
194 220 255
194 220 255
194 220 255
194 220 255
194 220 255
194 220 255
194 220 255
194 220 255
194 220 255
194 220 255
194 220 255
194 220 255
194 221 255
194 221 255
194 221 255
194 221 255
194 221 255
194 221 255
194 221 255
194 221 255
194 221 255
194 221 255
194 221 255
194 221 255
194 221 255
194 221 255
194 221 255
194 221 255
194 221 255
194 221 255
194 221 255
194 221 255
194 221 255
194 221 255
194 221 255
194 221 255
194 221 255
194 221 255
194 221 255
194 221 255
194 221 255
194 221 255
195 221 255
195 221 255
195 221 255
195 221 255
195 221 255
195 221 255
195 221 255
195 221 255
195 221 255
195 221 255
195 221 255
195 221 255
195 221 255
195 221 255
195 221 255
195 221 255
195 221 255
195 221 255
195 221 255
195 221 255
196 221 255
196 221 255
196 222 255
196 222 255
196 222 255
196 222 255
196 222 255
196 222 255
196 222 255
196 222 255
196 222 255
196 222 255
196 222 255
196 222 255
196 222 255
196 222 255
196 222 255
197 222 255
197 222 255
197 222 255
197 222 255
197 222 255
197 222 255
197 222 255
197 222 255
197 222 255
197 222 255
197 222 255
197 222 255
197 222 255
197 222 255
197 223 255
198 223 255
198 223 255
198 223 255
198 223 255
198 223 255
198 223 255
198 223 255
198 223 255
198 223 255
198 223 255
198 223 255
198 223 255
198 223 255
198 223 255
199 223 255
199 223 255
199 223 255
199 223 255
199 223 255
199 223 255
199 223 255
199 223 255
199 223 255
199 223 255
199 223 255
199 223 255
199 224 255
199 224 255
200 224 255
200 224 255
200 224 255
200 224 255
200 224 255
200 224 255
200 224 255
200 224 255
200 224 255
200 224 255
200 224 255
200 224 255
200 224 255
200 224 255
200 224 255
201 224 255
201 224 255
201 224 255
201 224 255
201 224 255
201 224 255
201 224 255
201 224 255
201 224 255
201 224 255
201 225 255
201 225 255
201 225 255
201 225 255
201 225 255
202 225 255
202 225 255
202 225 255
202 225 255
202 225 255
202 225 255
202 225 255
202 225 255
202 225 255
202 225 255
202 225 255
202 225 255
202 225 255
202 225 255
202 225 255
203 225 255
203 225 255
203 225 255
203 225 255
203 225 255
203 225 255
203 225 255
203 225 255
203 225 255
203 225 255
203 226 255
203 226 255
203 226 255
203 226 255
203 226 255
203 226 255
203 226 255
204 226 255
204 226 255
204 226 255
204 226 255
204 226 255
204 226 255
204 226 255
204 226 255
204 226 255
204 226 255
204 226 255
204 226 255
204 226 255
204 226 255
204 226 255
204 226 255
204 226 255
204 226 255
205 226 255
205 226 255
205 226 255
205 226 255
205 226 255
205 226 255
204 226 255
204 226 255
204 226 255
204 226 255
204 226 255
204 226 255
204 226 255
204 226 255
204 226 255
204 226 255
204 226 255
204 226 255
204 226 255
204 226 255
204 226 255
204 226 255
204 226 255
204 226 255
203 226 255
203 226 255
203 226 255
203 226 255
203 226 255
203 226 255
203 226 255
203 226 255
203 225 255
203 225 255
203 225 255
203 225 255
203 225 255
203 225 255
203 225 255
203 225 255
203 225 255
202 225 255
202 225 255
202 225 255
202 225 255
202 225 255
202 225 255
202 225 255
202 225 255
202 225 255
202 225 255
202 225 255
202 225 255
202 225 255
202 225 255
202 225 255
201 225 255
201 225 255
201 225 255
201 225 255
201 225 255
201 224 255
201 224 255
201 224 255
201 224 255
201 224 255
201 224 255
201 224 255
201 224 255
201 224 255
201 224 255
200 224 255
200 224 255
200 224 255
200 224 255
200 224 255
200 224 255
200 224 255
200 224 255
200 224 255
200 224 255
200 224 255
200 224 255
200 224 255
200 224 255
200 224 255
199 224 255
199 224 255
199 223 255
199 223 255
199 223 255
199 223 255
199 223 255
199 223 255
199 223 255
199 223 255
199 223 255
199 223 255
199 223 255
199 223 255
198 223 255
198 223 255
198 223 255
198 223 255
198 223 255
198 223 255
198 223 255
198 223 255
198 223 255
198 223 255
198 223 255
198 223 255
198 223 255
198 223 255
197 223 255
197 222 255
197 222 255
197 222 255
197 222 255
197 222 255
197 222 255
197 222 255
197 222 255
197 222 255
197 222 255
197 222 255
197 222 255
197 222 255
197 222 255
196 222 255
196 222 255
196 222 255
196 222 255
196 222 255
196 222 255
196 222 255
196 222 255
196 222 255
196 222 255
196 222 255
196 222 255
196 222 255
196 222 255
196 222 255
196 221 255
196 221 255
195 221 255
195 221 255
195 221 255
195 221 255
195 221 255
195 221 255
195 221 255
195 221 255
195 221 255
195 221 255
195 221 255
195 221 255
195 221 255
195 221 255
195 221 255
195 221 255
195 221 255
195 221 255
195 221 255
195 221 255
195 221 255
194 221 255
194 221 255
194 221 255
194 221 255
194 221 255
194 221 255
194 221 255
194 221 255
194 221 255
194 221 255
194 221 255
194 221 255
194 221 255
194 221 255
194 221 255
194 221 255
194 221 255
194 221 255
194 221 255
194 221 255
194 221 255
194 221 255
194 221 255
194 221 255
194 221 255
194 221 255
194 221 255
194 221 255
194 221 255
194 221 255
194 221 255
194 221 255
194 221 255
194 221 255
194 221 255
194 221 255
194 221 255
194 221 255
194 221 255
194 221 255
194 221 255
194 221 255
194 221 255
194 221 255
194 221 255
194 221 255
194 221 255
194 221 255
194 221 255
194 221 255
194 221 255
194 221 255
194 221 255
194 221 255
194 221 255
194 221 255
194 221 255
194 221 255
194 221 255
194 221 255
194 221 255
194 221 255
194 221 255
194 221 255
194 221 255
194 221 255
194 221 255
194 221 255
194 221 255
194 221 255
195 221 255
195 221 255
195 221 255
195 221 255
195 221 255
195 221 255
195 221 255
195 221 255
195 221 255
195 221 255
195 221 255
195 221 255
195 221 255
195 221 255
195 221 255
195 221 255
195 221 255
195 221 255
195 221 255
195 221 255
195 221 255
196 221 255
196 221 255
196 222 255
196 222 255
196 222 255
196 222 255
196 222 255
196 222 255
196 222 255
196 222 255
196 222 255
196 222 255
196 222 255
196 222 255
196 222 255
196 222 255
196 222 255
197 222 255
197 222 255
197 222 255
197 222 255
197 222 255
197 222 255
197 222 255
197 222 255
197 222 255
197 222 255
197 222 255
197 222 255
197 222 255
197 222 255
197 223 255
198 223 255
198 223 255
198 223 255
198 223 255
198 223 255
198 223 255
198 223 255
198 223 255
198 223 255
198 223 255
198 223 255
198 223 255
198 223 255
198 223 255
199 223 255
199 223 255
199 223 255
199 223 255
199 223 255
199 223 255
199 223 255
199 223 255
199 223 255
199 223 255
199 223 255
199 223 255
199 224 255
199 224 255
200 224 255
200 224 255
200 224 255
200 224 255
200 224 255
200 224 255
200 224 255
200 224 255
200 224 255
200 224 255
200 224 255
200 224 255
200 224 255
200 224 255
200 224 255
201 224 255
201 224 255
201 224 255
201 224 255
201 224 255
201 224 255
201 224 255
201 224 255
201 224 255
201 224 255
201 225 255
201 225 255
201 225 255
201 225 255
201 225 255
202 225 255
202 225 255
202 225 255
202 225 255
202 225 255
202 225 255
202 225 255
202 225 255
202 225 255
202 225 255
202 225 255
202 225 255
202 225 255
202 225 255
202 225 255
203 225 255
203 225 255
203 225 255
203 225 255
203 225 255
203 225 255
203 225 255
203 225 255
203 225 255
203 226 255
203 226 255
203 226 255
203 226 255
203 226 255
203 226 255
203 226 255
203 226 255
204 226 255
204 226 255
204 226 255
204 226 255
204 226 255
204 226 255
204 226 255
204 226 255
204 226 255
204 226 255
204 226 255
204 226 255
204 226 255
204 226 255
204 226 255
204 226 255
204 226 255
204 226 255
205 226 255
205 226 255
205 226 255
205 226 255
205 226 255
205 226 255
205 226 255
205 226 255
205 226 255
205 226 255
205 226 255
204 226 255
204 226 255
204 226 255
204 226 255
204 226 255
204 226 255
204 226 255
204 226 255
204 226 255
204 226 255
204 226 255
204 226 255
204 226 255
204 226 255
204 226 255
204 226 255
204 226 255
204 226 255
203 226 255
203 226 255
203 226 255
203 226 255
203 226 255
203 226 255
203 226 255
203 225 255
203 225 255
203 225 255
203 225 255
203 225 255
203 225 255
203 225 255
203 225 255
203 225 255
202 225 255
202 225 255
202 225 255
202 225 255
202 225 255
202 225 255
202 225 255
202 225 255
202 225 255
202 225 255
202 225 255
202 225 255
202 225 255
202 225 255
202 225 255
201 225 255
201 225 255
201 225 255
201 225 255
201 225 255
201 224 255
201 224 255
201 224 255
201 224 255
201 224 255
201 224 255
201 224 255
201 224 255
201 224 255
201 224 255
200 224 255
200 224 255
200 224 255
200 224 255
200 224 255
200 224 255
200 224 255
200 224 255
200 224 255
200 224 255
200 224 255
200 224 255
200 224 255
200 224 255
200 224 255
199 224 255
199 224 255
199 223 255
199 223 255
199 223 255
199 223 255
199 223 255
199 223 255
199 223 255
199 223 255
199 223 255
199 223 255
199 223 255
199 223 255
198 223 255
198 223 255
198 223 255
198 223 255
198 223 255
198 223 255
198 223 255
198 223 255
198 223 255
198 223 255
198 223 255
198 223 255
198 223 255
198 223 255
197 223 255
197 222 255
197 222 255
197 222 255
197 222 255
197 222 255
197 222 255
197 222 255
197 222 255
197 222 255
197 222 255
197 222 255
197 222 255
197 222 255
197 222 255
197 222 255
196 222 255
196 222 255
196 222 255
196 222 255
196 222 255
196 222 255
196 222 255
196 222 255
196 222 255
196 222 255
196 222 255
196 222 255
196 222 255
196 222 255
196 222 255
196 221 255
196 221 255
195 221 255
195 221 255
195 221 255
195 221 255
195 221 255
195 221 255
195 221 255
195 221 255
195 221 255
195 221 255
195 221 255
195 221 255
195 221 255
195 221 255
195 221 255
195 221 255
195 221 255
195 221 255
195 221 255
195 221 255
195 221 255
195 221 255
194 221 255
194 221 255
194 221 255
194 221 255
194 221 255
194 221 255
194 221 255
194 221 255
194 221 255
194 221 255
194 221 255
194 221 255
194 221 255
194 221 255
194 221 255
194 221 255
194 221 255
194 221 255
194 221 255
194 221 255
194 221 255
194 221 255
194 221 255
194 221 255
194 221 255
194 221 255
194 221 255
194 221 255
194 221 255
194 221 255
194 221 255
194 221 255
194 221 255
194 221 255
194 221 255
194 221 255
194 221 255
194 221 255
194 221 255
194 221 255
194 221 255
194 221 255
194 221 255
194 221 255
194 221 255
194 221 255
194 221 255
194 221 255
194 221 255
194 221 255
194 221 255
194 221 255
194 221 255
194 221 255
194 221 255
194 221 255
194 221 255
194 221 255
194 221 255
194 221 255
194 221 255
194 221 255
195 221 255
195 221 255
195 221 255
195 221 255
195 221 255
195 221 255
195 221 255
195 221 255
195 221 255
195 221 255
195 221 255
195 221 255
195 221 255
195 221 255
195 221 255
195 221 255
195 221 255
195 221 255
195 221 255
195 221 255
195 221 255
195 221 255
196 221 255
196 221 255
196 222 255
196 222 255
196 222 255
196 222 255
196 222 255
196 222 255
196 222 255
196 222 255
196 222 255
196 222 255
196 222 255
196 222 255
196 222 255
196 222 255
196 222 255
197 222 255
197 222 255
197 222 255
197 222 255
197 222 255
197 222 255
197 222 255
197 222 255
197 222 255
197 222 255
197 222 255
197 222 255
197 222 255
197 222 255
197 222 255
198 223 255
198 223 255
198 223 255
198 223 255
198 223 255
198 223 255
198 223 255
198 223 255
198 223 255
198 223 255
198 223 255
198 223 255
198 223 255
198 223 255
198 223 255
199 223 255
199 223 255
199 223 255
199 223 255
199 223 255
199 223 255
199 223 255
199 223 255
199 223 255
199 223 255
199 223 255
199 223 255
199 224 255
199 224 255
200 224 255
200 224 255
200 224 255
200 224 255
200 224 255
200 224 255
200 224 255
200 224 255
200 224 255
200 224 255
200 224 255
200 224 255
200 224 255
200 224 255
200 224 255
201 224 255
201 224 255
201 224 255
201 224 255
201 224 255
201 224 255
201 224 255
201 224 255
201 224 255
201 224 255
201 225 255
201 225 255
201 225 255
201 225 255
201 225 255
202 225 255
202 225 255
202 225 255
202 225 255
202 225 255
202 225 255
202 225 255
202 225 255
202 225 255
202 225 255
202 225 255
202 225 255
202 225 255
202 225 255
202 225 255
203 225 255
203 225 255
203 225 255
203 225 255
203 225 255
203 225 255
203 225 255
203 225 255
203 225 255
203 226 255
203 226 255
203 226 255
203 226 255
203 226 255
203 226 255
203 226 255
203 226 255
204 226 255
204 226 255
204 226 255
204 226 255
204 226 255
204 226 255
204 226 255
204 226 255
204 226 255
204 226 255
204 226 255
204 226 255
204 226 255
204 226 255
204 226 255
204 226 255
204 226 255
205 226 255
205 226 255
205 226 255
205 226 255
205 226 255
205 226 255
205 226 255
205 227 255
205 227 255
205 226 255
205 226 255
205 226 255
205 226 255
205 226 255
205 226 255
205 226 255
204 226 255
204 226 255
204 226 255
204 226 255
204 226 255
204 226 255
204 226 255
204 226 255
204 226 255
204 226 255
204 226 255
204 226 255
204 226 255
204 226 255
204 226 255
204 226 255
204 226 255
204 226 255
203 226 255
203 226 255
203 226 255
203 226 255
203 226 255
203 226 255
203 226 255
203 225 255
203 225 255
203 225 255
203 225 255
203 225 255
203 225 255
203 225 255
203 225 255
203 225 255
202 225 255
202 225 255
202 225 255
202 225 255
202 225 255
202 225 255
202 225 255
202 225 255
202 225 255
202 225 255
202 225 255
202 225 255
202 225 255
202 225 255
202 225 255
201 225 255
201 225 255
201 225 255
201 225 255
201 225 255
201 224 255
201 224 255
201 224 255
201 224 255
201 224 255
201 224 255
201 224 255
201 224 255
201 224 255
201 224 255
200 224 255
200 224 255
200 224 255
200 224 255
200 224 255
200 224 255
200 224 255
200 224 255
200 224 255
200 224 255
200 224 255
200 224 255
200 224 255
200 224 255
200 224 255
199 224 255
199 224 255
199 223 255
199 223 255
199 223 255
199 223 255
199 223 255
199 223 255
199 223 255
199 223 255
199 223 255
199 223 255
199 223 255
199 223 255
198 223 255
198 223 255
198 223 255
198 223 255
198 223 255
198 223 255
198 223 255
198 223 255
198 223 255
198 223 255
198 223 255
198 223 255
198 223 255
198 223 255
198 223 255
197 222 255
197 222 255
197 222 255
197 222 255
197 222 255
197 222 255
197 222 255
197 222 255
197 222 255
197 222 255
197 222 255
197 222 255
197 222 255
197 222 255
197 222 255
196 222 255
196 222 255
196 222 255
196 222 255
196 222 255
196 222 255
196 222 255
196 222 255
196 222 255
196 222 255
196 222 255
196 222 255
196 222 255
196 222 255
196 222 255
196 222 255
196 221 255
195 221 255
195 221 255
195 221 255
195 221 255
195 221 255
195 221 255
195 221 255
195 221 255
195 221 255
195 221 255
195 221 255
195 221 255
195 221 255
195 221 255
195 221 255
195 221 255
195 221 255
195 221 255
195 221 255
195 221 255
195 221 255
195 221 255
195 221 255
195 221 255
194 221 255
194 221 255
194 221 255
194 221 255
194 221 255
194 221 255
194 221 255
194 221 255
194 221 255
194 221 255
194 221 255
194 221 255
194 221 255
194 221 255
194 221 255
194 221 255
194 221 255
194 221 255
194 221 255
194 221 255
194 221 255
194 221 255
194 221 255
194 221 255
194 221 255
194 221 255
194 221 255
194 221 255
194 221 255
194 221 255
194 221 255
194 221 255
194 221 255
194 221 255
194 221 255
194 221 255
194 221 255
194 221 255
194 221 255
194 221 255
194 221 255
194 221 255
194 221 255
194 221 255
194 221 255
194 221 255
194 221 255
194 221 255
194 221 255
194 221 255
194 221 255
194 221 255
194 221 255
194 221 255
195 221 255
195 221 255
195 221 255
195 221 255
195 221 255
195 221 255
195 221 255
195 221 255
195 221 255
195 221 255
195 221 255
195 221 255
195 221 255
195 221 255
195 221 255
195 221 255
195 221 255
195 221 255
195 221 255
195 221 255
195 221 255
195 221 255
195 221 255
196 221 255
196 221 255
196 222 255
196 222 255
196 222 255
196 222 255
196 222 255
196 222 255
196 222 255
196 222 255
196 222 255
196 222 255
196 222 255
196 222 255
196 222 255
196 222 255
196 222 255
196 222 255
197 222 255
197 222 255
197 222 255
197 222 255
197 222 255
197 222 255
197 222 255
197 222 255
197 222 255
197 222 255
197 222 255
197 222 255
197 222 255
197 222 255
197 222 255
198 223 255
198 223 255
198 223 255
198 223 255
198 223 255
198 223 255
198 223 255
198 223 255
198 223 255
198 223 255
198 223 255
198 223 255
198 223 255
198 223 255
198 223 255
199 223 255
199 223 255
199 223 255
199 223 255
199 223 255
199 223 255
199 223 255
199 223 255
199 223 255
199 223 255
199 223 255
199 223 255
199 224 255
199 224 255
200 224 255
200 224 255
200 224 255
200 224 255
200 224 255
200 224 255
200 224 255
200 224 255
200 224 255
200 224 255
200 224 255
200 224 255
200 224 255
200 224 255
201 224 255
201 224 255
201 224 255
201 224 255
201 224 255
201 224 255
201 224 255
201 224 255
201 224 255
201 224 255
201 224 255
201 225 255
201 225 255
201 225 255
201 225 255
202 225 255
202 225 255
202 225 255
202 225 255
202 225 255
202 225 255
202 225 255
202 225 255
202 225 255
202 225 255
202 225 255
202 225 255
202 225 255
202 225 255
202 225 255
202 225 255
203 225 255
203 225 255
203 225 255
203 225 255
203 225 255
203 225 255
203 225 255
203 225 255
203 225 255
203 226 255
203 226 255
203 226 255
203 226 255
203 226 255
203 226 255
203 226 255
204 226 255
204 226 255
204 226 255
204 226 255
204 226 255
204 226 255
204 226 255
204 226 255
204 226 255
204 226 255
204 226 255
204 226 255
204 226 255
204 226 255
204 226 255
204 226 255
204 226 255
204 226 255
205 226 255
205 226 255
205 226 255
205 226 255
205 226 255
205 226 255
205 226 255
205 227 255
205 227 255
205 227 255
205 227 255
205 227 255
205 227 255
205 226 255
205 226 255
205 226 255
205 226 255
205 226 255
205 226 255
205 226 255
205 226 255
204 226 255
204 226 255
204 226 255
204 226 255
204 226 255
204 226 255
204 226 255
204 226 255
204 226 255
204 226 255
204 226 255
204 226 255
204 226 255
204 226 255
204 226 255
204 226 255
204 226 255
203 226 255
203 226 255
203 226 255
203 226 255
203 226 255
203 226 255
203 226 255
203 225 255
203 225 255
203 225 255
203 225 255
203 225 255
203 225 255
203 225 255
203 225 255
203 225 255
202 225 255
202 225 255
202 225 255
202 225 255
202 225 255
202 225 255
202 225 255
202 225 255
202 225 255
202 225 255
202 225 255
202 225 255
202 225 255
202 225 255
202 225 255
202 225 255
201 225 255
201 225 255
201 225 255
201 225 255
201 224 255
201 224 255
201 224 255
201 224 255
201 224 255
201 224 255
201 224 255
201 224 255
201 224 255
201 224 255
201 224 255
200 224 255
200 224 255
200 224 255
200 224 255
200 224 255
200 224 255
200 224 255
200 224 255
200 224 255
200 224 255
200 224 255
200 224 255
200 224 255
200 224 255
199 224 255
199 224 255
199 223 255
199 223 255
199 223 255
199 223 255
199 223 255
199 223 255
199 223 255
199 223 255
199 223 255
199 223 255
199 223 255
199 223 255
198 223 255
198 223 255
198 223 255
198 223 255
198 223 255
198 223 255
198 223 255
198 223 255
198 223 255
198 223 255
198 223 255
198 223 255
198 223 255
198 223 255
198 223 255
197 222 255
197 222 255
197 222 255
197 222 255
197 222 255
197 222 255
197 222 255
197 222 255
197 222 255
197 222 255
197 222 255
197 222 255
197 222 255
197 222 255
197 222 255
196 222 255
196 222 255
196 222 255
196 222 255
196 222 255
196 222 255
196 222 255
196 222 255
196 222 255
196 222 255
196 222 255
196 222 255
196 222 255
196 222 255
196 222 255
196 222 255
196 221 255
196 221 255
195 221 255
195 221 255
195 221 255
195 221 255
195 221 255
195 221 255
195 221 255
195 221 255
195 221 255
195 221 255
195 221 255
195 221 255
195 221 255
195 221 255
195 221 255
195 221 255
195 221 255
195 221 255
195 221 255
195 221 255
195 221 255
195 221 255
195 221 255
195 221 255
195 221 255
195 221 255
194 221 255
194 221 255
194 221 255
194 221 255
194 221 255
194 221 255
194 221 255
194 221 255
194 221 255
194 221 255
194 221 255
194 221 255
194 221 255
194 221 255
194 221 255
194 221 255
194 221 255
194 221 255
194 221 255
194 221 255
194 221 255
194 221 255
194 221 255
194 221 255
194 221 255
194 221 255
194 221 255
194 221 255
194 221 255
194 221 255
194 221 255
194 221 255
194 221 255
194 221 255
194 221 255
194 221 255
194 221 255
194 221 255
194 221 255
194 221 255
194 221 255
194 221 255
194 221 255
194 221 255
195 221 255
195 221 255
195 221 255
195 221 255
195 221 255
195 221 255
195 221 255
195 221 255
195 221 255
195 221 255
195 221 255
195 221 255
195 221 255
195 221 255
195 221 255
195 221 255
195 221 255
195 221 255
195 221 255
195 221 255
195 221 255
195 221 255
195 221 255
195 221 255
195 221 255
195 221 255
196 221 255
196 222 255
196 222 255
196 222 255
196 222 255
196 222 255
196 222 255
196 222 255
196 222 255
196 222 255
196 222 255
196 222 255
196 222 255
196 222 255
196 222 255
196 222 255
196 222 255
196 222 255
197 222 255
197 222 255
197 222 255
197 222 255
197 222 255
197 222 255
197 222 255
197 222 255
197 222 255
197 222 255
197 222 255
197 222 255
197 222 255
197 222 255
197 222 255
198 223 255
198 223 255
198 223 255
198 223 255
198 223 255
198 223 255
198 223 255
198 223 255
198 223 255
198 223 255
198 223 255
198 223 255
198 223 255
198 223 255
198 223 255
199 223 255
199 223 255
199 223 255
199 223 255
199 223 255
199 223 255
199 223 255
199 223 255
199 223 255
199 223 255
199 223 255
199 223 255
199 224 255
199 224 255
200 224 255
200 224 255
200 224 255
200 224 255
200 224 255
200 224 255
200 224 255
200 224 255
200 224 255
200 224 255
200 224 255
200 224 255
200 224 255
200 224 255
200 224 255
201 224 255
201 224 255
201 224 255
201 224 255
201 224 255
201 224 255
201 224 255
201 224 255
201 224 255
201 224 255
201 225 255
201 225 255
201 225 255
201 225 255
202 225 255
202 225 255
202 225 255
202 225 255
202 225 255
202 225 255
202 225 255
202 225 255
202 225 255
202 225 255
202 225 255
202 225 255
202 225 255
202 225 255
202 225 255
202 225 255
203 225 255
203 225 255
203 225 255
203 225 255
203 225 255
203 225 255
203 225 255
203 225 255
203 225 255
203 226 255
203 226 255
203 226 255
203 226 255
203 226 255
203 226 255
203 226 255
204 226 255
204 226 255
204 226 255
204 226 255
204 226 255
204 226 255
204 226 255
204 226 255
204 226 255
204 226 255
204 226 255
204 226 255
204 226 255
204 226 255
204 226 255
204 226 255
204 226 255
205 226 255
205 226 255
205 226 255
205 226 255
205 226 255
205 226 255
205 226 255
205 226 255
205 227 255
205 227 255
205 227 255
205 227 255
205 227 255
205 227 255
205 227 255
205 227 255
205 227 255
205 227 255
205 227 255
205 226 255
205 226 255
205 226 255
205 226 255
205 226 255
205 226 255
205 226 255
204 226 255
204 226 255
204 226 255
204 226 255
204 226 255
204 226 255
204 226 255
204 226 255
204 226 255
204 226 255
204 226 255
204 226 255
204 226 255
204 226 255
204 226 255
204 226 255
204 226 255
203 226 255
203 226 255
203 226 255
203 226 255
203 226 255
203 226 255
203 226 255
203 226 255
203 225 255
203 225 255
203 225 255
203 225 255
203 225 255
203 225 255
203 225 255
203 225 255
203 225 255
202 225 255
202 225 255
202 225 255
202 225 255
202 225 255
202 225 255
202 225 255
202 225 255
202 225 255
202 225 255
202 225 255
202 225 255
202 225 255
202 225 255
202 225 255
201 225 255
201 225 255
201 225 255
201 225 255
201 224 255
201 224 255
201 224 255
201 224 255
201 224 255
201 224 255
201 224 255
201 224 255
201 224 255
201 224 255
201 224 255
200 224 255
200 224 255
200 224 255
200 224 255
200 224 255
200 224 255
200 224 255
200 224 255
200 224 255
200 224 255
200 224 255
200 224 255
200 224 255
200 224 255
199 224 255
199 224 255
199 223 255
199 223 255
199 223 255
199 223 255
199 223 255
199 223 255
199 223 255
199 223 255
199 223 255
199 223 255
199 223 255
199 223 255
199 223 255
198 223 255
198 223 255
198 223 255
198 223 255
198 223 255
198 223 255
198 223 255
198 223 255
198 223 255
198 223 255
198 223 255
198 223 255
198 223 255
198 223 255
197 223 255
197 222 255
197 222 255
197 222 255
197 222 255
197 222 255
197 222 255
197 222 255
197 222 255
197 222 255
197 222 255
197 222 255
197 222 255
197 222 255
197 222 255
197 222 255
196 222 255
196 222 255
196 222 255
196 222 255
196 222 255
196 222 255
196 222 255
196 222 255
196 222 255
196 222 255
196 222 255
196 222 255
196 222 255
196 222 255
196 222 255
196 222 255
196 222 255
196 221 255
195 221 255
195 221 255
195 221 255
195 221 255
195 221 255
195 221 255
195 221 255
195 221 255
195 221 255
195 221 255
195 221 255
195 221 255
195 221 255
195 221 255
195 221 255
195 221 255
195 221 255
195 221 255
195 221 255
195 221 255
195 221 255
195 221 255
195 221 255
195 221 255
195 221 255
195 221 255
195 221 255
195 221 255
195 221 255
195 221 255
194 221 255
194 221 255
194 221 255
194 221 255
194 221 255
194 221 255
194 221 255
194 221 255
194 221 255
194 221 255
194 221 255
194 221 255
194 221 255
194 221 255
194 221 255
194 221 255
194 221 255
194 221 255
194 221 255
194 221 255
194 221 255
194 221 255
194 221 255
194 221 255
194 221 255
194 221 255
194 221 255
194 221 255
194 221 255
194 221 255
195 221 255
195 221 255
195 221 255
195 221 255
195 221 255
195 221 255
195 221 255
195 221 255
195 221 255
195 221 255
195 221 255
195 221 255
195 221 255
195 221 255
195 221 255
195 221 255
195 221 255
195 221 255
195 221 255
195 221 255
195 221 255
195 221 255
195 221 255
195 221 255
195 221 255
195 221 255
195 221 255
195 221 255
195 221 255
195 221 255
196 221 255
196 222 255
196 222 255
196 222 255
196 222 255
196 222 255
196 222 255
196 222 255
196 222 255
196 222 255
196 222 255
196 222 255
196 222 255
196 222 255
196 222 255
196 222 255
196 222 255
196 222 255
197 222 255
197 222 255
197 222 255
197 222 255
197 222 255
197 222 255
197 222 255
197 222 255
197 222 255
197 222 255
197 222 255
197 222 255
197 222 255
197 222 255
197 222 255
197 222 255
198 223 255
198 223 255
198 223 255
198 223 255
198 223 255
198 223 255
198 223 255
198 223 255
198 223 255
198 223 255
198 223 255
198 223 255
198 223 255
198 223 255
198 223 255
199 223 255
199 223 255
199 223 255
199 223 255
199 223 255
199 223 255
199 223 255
199 223 255
199 223 255
199 223 255
199 223 255
199 223 255
199 224 255
199 224 255
200 224 255
200 224 255
200 224 255
200 224 255
200 224 255
200 224 255
200 224 255
200 224 255
200 224 255
200 224 255
200 224 255
200 224 255
200 224 255
200 224 255
201 224 255
201 224 255
201 224 255
201 224 255
201 224 255
201 224 255
201 224 255
201 224 255
201 224 255
201 224 255
201 224 255
201 225 255
201 225 255
201 225 255
201 225 255
202 225 255
202 225 255
202 225 255
202 225 255
202 225 255
202 225 255
202 225 255
202 225 255
202 225 255
202 225 255
202 225 255
202 225 255
202 225 255
202 225 255
202 225 255
203 225 255
203 225 255
203 225 255
203 225 255
203 225 255
203 225 255
203 225 255
203 225 255
203 225 255
203 226 255
203 226 255
203 226 255
203 226 255
203 226 255
203 226 255
203 226 255
203 226 255
204 226 255
204 226 255
204 226 255
204 226 255
204 226 255
204 226 255
204 226 255
204 226 255
204 226 255
204 226 255
204 226 255
204 226 255
204 226 255
204 226 255
204 226 255
204 226 255
204 226 255
205 226 255
205 226 255
205 226 255
205 226 255
205 226 255
205 226 255
205 226 255
205 227 255
205 227 255
205 227 255
205 227 255
205 227 255
205 227 255
205 227 255
205 227 255
205 227 255
205 227 255
205 227 255
205 227 255
205 227 255
205 227 255
205 227 255
205 227 255
205 226 255
205 226 255
205 226 255
205 226 255
205 226 255
205 226 255
205 226 255
204 226 255
204 226 255
204 226 255
204 226 255
204 226 255
204 226 255
204 226 255
204 226 255
204 226 255
204 226 255
204 226 255
204 226 255
204 226 255
204 226 255
204 226 255
204 226 255
204 226 255
204 226 255
203 226 255
203 226 255
203 226 255
203 226 255
203 226 255
203 226 255
203 226 255
203 225 255
203 225 255
203 225 255
203 225 255
203 225 255
203 225 255
203 225 255
203 225 255
203 225 255
202 225 255
202 225 255
202 225 255
202 225 255
202 225 255
202 225 255
202 225 255
202 225 255
202 225 255
202 225 255
202 225 255
202 225 255
202 225 255
202 225 255
202 225 255
201 225 255
201 225 255
201 225 255
201 225 255
201 225 255
201 224 255
201 224 255
201 224 255
201 224 255
201 224 255
201 224 255
201 224 255
201 224 255
201 224 255
201 224 255
200 224 255
200 224 255
200 224 255
200 224 255
200 224 255
200 224 255
200 224 255
200 224 255
200 224 255
200 224 255
200 224 255
200 224 255
200 224 255
200 224 255
199 224 255
199 224 255
199 224 255
199 223 255
199 223 255
199 223 255
199 223 255
199 223 255
199 223 255
199 223 255
199 223 255
199 223 255
199 223 255
199 223 255
199 223 255
198 223 255
198 223 255
198 223 255
198 223 255
198 223 255
198 223 255
198 223 255
198 223 255
198 223 255
198 223 255
198 223 255
198 223 255
198 223 255
198 223 255
197 223 255
197 222 255
197 222 255
197 222 255
197 222 255
197 222 255
197 222 255
197 222 255
197 222 255
197 222 255
197 222 255
197 222 255
197 222 255
197 222 255
197 222 255
197 222 255
196 222 255
196 222 255
196 222 255
196 222 255
196 222 255
196 222 255
196 222 255
196 222 255
196 222 255
196 222 255
196 222 255
196 222 255
196 222 255
196 222 255
196 222 255
196 222 255
196 222 255
196 222 255
196 221 255
195 221 255
195 221 255
195 221 255
195 221 255
195 221 255
195 221 255
195 221 255
195 221 255
195 221 255
195 221 255
195 221 255
195 221 255
195 221 255
195 221 255
195 221 255
195 221 255
195 221 255
195 221 255
195 221 255
195 221 255
195 221 255
195 221 255
195 221 255
195 221 255
195 221 255
195 221 255
195 221 255
195 221 255
195 221 255
195 221 255
195 221 255
195 221 255
195 221 255
195 221 255
195 221 255
195 221 255
195 221 255
195 221 255
195 221 255
195 221 255
195 221 255
195 221 255
195 221 255
195 221 255
195 221 255
195 221 255
195 221 255
195 221 255
195 221 255
195 221 255
195 221 255
195 221 255
195 221 255
195 221 255
195 221 255
195 221 255
195 221 255
195 221 255
195 221 255
195 221 255
195 221 255
195 221 255
195 221 255
195 221 255
195 221 255
195 221 255
195 221 255
195 221 255
195 221 255
195 221 255
195 221 255
195 221 255
195 221 255
195 221 255
195 221 255
195 221 255
195 221 255
195 221 255
195 221 255
195 221 255
195 221 255
195 221 255
195 221 255
195 221 255
196 221 255
196 222 255
196 222 255
196 222 255
196 222 255
196 222 255
196 222 255
196 222 255
196 222 255
196 222 255
196 222 255
196 222 255
196 222 255
196 222 255
196 222 255
196 222 255
196 222 255
196 222 255
197 222 255
197 222 255
197 222 255
197 222 255
197 222 255
197 222 255
197 222 255
197 222 255
197 222 255
197 222 255
197 222 255
197 222 255
197 222 255
197 222 255
197 222 255
197 222 255
197 223 255
198 223 255
198 223 255
198 223 255
198 223 255
198 223 255
198 223 255
198 223 255
198 223 255
198 223 255
198 223 255
198 223 255
198 223 255
198 223 255
198 223 255
199 223 255
199 223 255
199 223 255
199 223 255
199 223 255
199 223 255
199 223 255
199 223 255
199 223 255
199 223 255
199 223 255
199 223 255
199 224 255
199 224 255
199 224 255
200 224 255
200 224 255
200 224 255
200 224 255
200 224 255
200 224 255
200 224 255
200 224 255
200 224 255
200 224 255
200 224 255
200 224 255
200 224 255
200 224 255
201 224 255
201 224 255
201 224 255
201 224 255
201 224 255
201 224 255
201 224 255
201 224 255
201 224 255
201 224 255
201 225 255
201 225 255
201 225 255
201 225 255
201 225 255
202 225 255
202 225 255
202 225 255
202 225 255
202 225 255
202 225 255
202 225 255
202 225 255
202 225 255
202 225 255
202 225 255
202 225 255
202 225 255
202 225 255
202 225 255
203 225 255
203 225 255
203 225 255
203 225 255
203 225 255
203 225 255
203 225 255
203 225 255
203 225 255
203 226 255
203 226 255
203 226 255
203 226 255
203 226 255
203 226 255
203 226 255
204 226 255
204 226 255
204 226 255
204 226 255
204 226 255
204 226 255
204 226 255
204 226 255
204 226 255
204 226 255
204 226 255
204 226 255
204 226 255
204 226 255
204 226 255
204 226 255
204 226 255
204 226 255
205 226 255
205 226 255
205 226 255
205 226 255
205 226 255
205 226 255
205 226 255
205 227 255
205 227 255
205 227 255
205 227 255
205 227 255
205 227 255
205 227 255
205 227 255
205 227 255
205 227 255
205 227 255
205 227 255
205 227 255
205 227 255
205 227 255
205 227 255
205 227 255
205 227 255
205 227 255
205 227 255
205 227 255
205 226 255
205 226 255
205 226 255
205 226 255
205 226 255
205 226 255
205 226 255
204 226 255
204 226 255
204 226 255
204 226 255
204 226 255
204 226 255
204 226 255
204 226 255
204 226 255
204 226 255
204 226 255
204 226 255
204 226 255
204 226 255
204 226 255
204 226 255
204 226 255
203 226 255
203 226 255
203 226 255
203 226 255
203 226 255
203 226 255
203 226 255
203 225 255
203 225 255
203 225 255
203 225 255
203 225 255
203 225 255
203 225 255
203 225 255
203 225 255
202 225 255
202 225 255
202 225 255
202 225 255
202 225 255
202 225 255
202 225 255
202 225 255
202 225 255
202 225 255
202 225 255
202 225 255
202 225 255
202 225 255
202 225 255
201 225 255
201 225 255
201 225 255
201 225 255
201 225 255
201 224 255
201 224 255
201 224 255
201 224 255
201 224 255
201 224 255
201 224 255
201 224 255
201 224 255
201 224 255
200 224 255
200 224 255
200 224 255
200 224 255
200 224 255
200 224 255
200 224 255
200 224 255
200 224 255
200 224 255
200 224 255
200 224 255
200 224 255
200 224 255
199 224 255
199 224 255
199 224 255
199 223 255
199 223 255
199 223 255
199 223 255
199 223 255
199 223 255
199 223 255
199 223 255
199 223 255
199 223 255
199 223 255
199 223 255
198 223 255
198 223 255
198 223 255
198 223 255
198 223 255
198 223 255
198 223 255
198 223 255
198 223 255
198 223 255
198 223 255
198 223 255
198 223 255
198 223 255
198 223 255
197 222 255
197 222 255
197 222 255
197 222 255
197 222 255
197 222 255
197 222 255
197 222 255
197 222 255
197 222 255
197 222 255
197 222 255
197 222 255
197 222 255
197 222 255
197 222 255
196 222 255
196 222 255
196 222 255
196 222 255
196 222 255
196 222 255
196 222 255
196 222 255
196 222 255
196 222 255
196 222 255
196 222 255
196 222 255
196 222 255
196 222 255
196 222 255
196 222 255
196 222 255
196 221 255
196 221 255
195 221 255
195 221 255
195 221 255
195 221 255
195 221 255
195 221 255
195 221 255
195 221 255
195 221 255
195 221 255
195 221 255
195 221 255
195 221 255
195 221 255
195 221 255
195 221 255
195 221 255
195 221 255
195 221 255
195 221 255
195 221 255
195 221 255
195 221 255
195 221 255
195 221 255
195 221 255
195 221 255
195 221 255
195 221 255
195 221 255
195 221 255
195 221 255
195 221 255
195 221 255
195 221 255
195 221 255
195 221 255
195 221 255
195 221 255
195 221 255
195 221 255
195 221 255
195 221 255
195 221 255
195 221 255
195 221 255
195 221 255
195 221 255
195 221 255
195 221 255
195 221 255
195 221 255
195 221 255
195 221 255
195 221 255
195 221 255
195 221 255
195 221 255
195 221 255
195 221 255
195 221 255
195 221 255
195 221 255
195 221 255
195 221 255
195 221 255
195 221 255
195 221 255
195 221 255
195 221 255
195 221 255
195 221 255
195 221 255
195 221 255
195 221 255
195 221 255
196 221 255
196 221 255
196 222 255
196 222 255
196 222 255
196 222 255
196 222 255
196 222 255
196 222 255
196 222 255
196 222 255
196 222 255
196 222 255
196 222 255
196 222 255
196 222 255
196 222 255
196 222 255
196 222 255
196 222 255
197 222 255
197 222 255
197 222 255
197 222 255
197 222 255
197 222 255
197 222 255
197 222 255
197 222 255
197 222 255
197 222 255
197 222 255
197 222 255
197 222 255
197 222 255
197 222 255
198 223 255
198 223 255
198 223 255
198 223 255
198 223 255
198 223 255
198 223 255
198 223 255
198 223 255
198 223 255
198 223 255
198 223 255
198 223 255
198 223 255
198 223 255
199 223 255
199 223 255
199 223 255
199 223 255
199 223 255
199 223 255
199 223 255
199 223 255
199 223 255
199 223 255
199 223 255
199 223 255
199 224 255
199 224 255
199 224 255
200 224 255
200 224 255
200 224 255
200 224 255
200 224 255
200 224 255
200 224 255
200 224 255
200 224 255
200 224 255
200 224 255
200 224 255
200 224 255
200 224 255
201 224 255
201 224 255
201 224 255
201 224 255
201 224 255
201 224 255
201 224 255
201 224 255
201 224 255
201 224 255
201 225 255
201 225 255
201 225 255
201 225 255
201 225 255
202 225 255
202 225 255
202 225 255
202 225 255
202 225 255
202 225 255
202 225 255
202 225 255
202 225 255
202 225 255
202 225 255
202 225 255
202 225 255
202 225 255
202 225 255
203 225 255
203 225 255
203 225 255
203 225 255
203 225 255
203 225 255
203 225 255
203 225 255
203 225 255
203 226 255
203 226 255
203 226 255
203 226 255
203 226 255
203 226 255
203 226 255
204 226 255
204 226 255
204 226 255
204 226 255
204 226 255
204 226 255
204 226 255
204 226 255
204 226 255
204 226 255
204 226 255
204 226 255
204 226 255
204 226 255
204 226 255
204 226 255
204 226 255
205 226 255
205 226 255
205 226 255
205 226 255
205 226 255
205 226 255
205 226 255
205 227 255
205 227 255
205 227 255
205 227 255
205 227 255
205 227 255
205 227 255
205 227 255
205 227 255
205 227 255
205 227 255
205 227 255
206 227 255
206 227 255
206 227 255
205 227 255
205 227 255
205 227 255
205 227 255
205 227 255
205 227 255
205 227 255
205 227 255
205 227 255
205 227 255
205 227 255
205 226 255
205 226 255
205 226 255
205 226 255
205 226 255
205 226 255
205 226 255
204 226 255
204 226 255
204 226 255
204 226 255
204 226 255
204 226 255
204 226 255
204 226 255
204 226 255
204 226 255
204 226 255
204 226 255
204 226 255
204 226 255
204 226 255
204 226 255
204 226 255
203 226 255
203 226 255
203 226 255
203 226 255
203 226 255
203 226 255
203 226 255
203 226 255
203 225 255
203 225 255
203 225 255
203 225 255
203 225 255
203 225 255
203 225 255
203 225 255
202 225 255
202 225 255
202 225 255
202 225 255
202 225 255
202 225 255
202 225 255
202 225 255
202 225 255
202 225 255
202 225 255
202 225 255
202 225 255
202 225 255
202 225 255
202 225 255
201 225 255
201 225 255
201 225 255
201 225 255
201 224 255
201 224 255
201 224 255
201 224 255
201 224 255
201 224 255
201 224 255
201 224 255
201 224 255
201 224 255
200 224 255
200 224 255
200 224 255
200 224 255
200 224 255
200 224 255
200 224 255
200 224 255
200 224 255
200 224 255
200 224 255
200 224 255
200 224 255
200 224 255
200 224 255
199 224 255
199 224 255
199 223 255
199 223 255
199 223 255
199 223 255
199 223 255
199 223 255
199 223 255
199 223 255
199 223 255
199 223 255
199 223 255
199 223 255
198 223 255
198 223 255
198 223 255
198 223 255
198 223 255
198 223 255
198 223 255
198 223 255
198 223 255
198 223 255
198 223 255
198 223 255
198 223 255
198 223 255
198 223 255
197 223 255
197 222 255
197 222 255
197 222 255
197 222 255
197 222 255
197 222 255
197 222 255
197 222 255
197 222 255
197 222 255
197 222 255
197 222 255
197 222 255
197 222 255
197 222 255
197 222 255
196 222 255
196 222 255
196 222 255
196 222 255
196 222 255
196 222 255
196 222 255
196 222 255
196 222 255
196 222 255
196 222 255
196 222 255
196 222 255
196 222 255
196 222 255
196 222 255
196 222 255
196 222 255
196 221 255
196 221 255
196 221 255
195 221 255
195 221 255
195 221 255
195 221 255
195 221 255
195 221 255
195 221 255
195 221 255
195 221 255
195 221 255
195 221 255
195 221 255
195 221 255
195 221 255
195 221 255
195 221 255
195 221 255
195 221 255
195 221 255
195 221 255
195 221 255
195 221 255
195 221 255
195 221 255
195 221 255
195 221 255
195 221 255
195 221 255
195 221 255
195 221 255
195 221 255
195 221 255
195 221 255
195 221 255
195 221 255
195 221 255
195 221 255
195 221 255
195 221 255
195 221 255
195 221 255
195 221 255
195 221 255
195 221 255
195 221 255
195 221 255
195 221 255
195 221 255
195 221 255
195 221 255
195 221 255
195 221 255
195 221 255
195 221 255
195 221 255
195 221 255
195 221 255
195 221 255
195 221 255
195 221 255
195 221 255
195 221 255
195 221 255
195 221 255
195 221 255
195 221 255
195 221 255
195 221 255
196 221 255
196 221 255
196 221 255
196 222 255
196 222 255
196 222 255
196 222 255
196 222 255
196 222 255
196 222 255
196 222 255
196 222 255
196 222 255
196 222 255
196 222 255
196 222 255
196 222 255
196 222 255
196 222 255
196 222 255
196 222 255
197 222 255
197 222 255
197 222 255
197 222 255
197 222 255
197 222 255
197 222 255
197 222 255
197 222 255
197 222 255
197 222 255
197 222 255
197 222 255
197 222 255
197 222 255
197 222 255
197 223 255
198 223 255
198 223 255
198 223 255
198 223 255
198 223 255
198 223 255
198 223 255
198 223 255
198 223 255
198 223 255
198 223 255
198 223 255
198 223 255
198 223 255
198 223 255
199 223 255
199 223 255
199 223 255
199 223 255
199 223 255
199 223 255
199 223 255
199 223 255
199 223 255
199 223 255
199 223 255
199 223 255
199 224 255
199 224 255
200 224 255
200 224 255
200 224 255
200 224 255
200 224 255
200 224 255
200 224 255
200 224 255
200 224 255
200 224 255
200 224 255
200 224 255
200 224 255
200 224 255
200 224 255
201 224 255
201 224 255
201 224 255
201 224 255
201 224 255
201 224 255
201 224 255
201 224 255
201 224 255
201 224 255
201 225 255
201 225 255
201 225 255
201 225 255
202 225 255
202 225 255
202 225 255
202 225 255
202 225 255
202 225 255
202 225 255
202 225 255
202 225 255
202 225 255
202 225 255
202 225 255
202 225 255
202 225 255
202 225 255
202 225 255
203 225 255
203 225 255
203 225 255
203 225 255
203 225 255
203 225 255
203 225 255
203 225 255
203 226 255
203 226 255
203 226 255
203 226 255
203 226 255
203 226 255
203 226 255
203 226 255
204 226 255
204 226 255
204 226 255
204 226 255
204 226 255
204 226 255
204 226 255
204 226 255
204 226 255
204 226 255
204 226 255
204 226 255
204 226 255
204 226 255
204 226 255
204 226 255
204 226 255
205 226 255
205 226 255
205 226 255
205 226 255
205 226 255
205 226 255
205 226 255
205 227 255
205 227 255
205 227 255
205 227 255
205 227 255
205 227 255
205 227 255
205 227 255
205 227 255
205 227 255
205 227 255
206 227 255
206 227 255
206 227 255
206 227 255
206 227 255
206 227 255
206 227 255
206 227 255
205 227 255
205 227 255
205 227 255
205 227 255
205 227 255
205 227 255
205 227 255
205 227 255
205 227 255
205 227 255
205 227 255
205 226 255
205 226 255
205 226 255
205 226 255
205 226 255
205 226 255
205 226 255
205 226 255
204 226 255
204 226 255
204 226 255
204 226 255
204 226 255
204 226 255
204 226 255
204 226 255
204 226 255
204 226 255
204 226 255
204 226 255
204 226 255
204 226 255
204 226 255
204 226 255
204 226 255
203 226 255
203 226 255
203 226 255
203 226 255
203 226 255
203 226 255
203 226 255
203 225 255
203 225 255
203 225 255
203 225 255
203 225 255
203 225 255
203 225 255
203 225 255
203 225 255
202 225 255
202 225 255
202 225 255
202 225 255
202 225 255
202 225 255
202 225 255
202 225 255
202 225 255
202 225 255
202 225 255
202 225 255
202 225 255
202 225 255
202 225 255
201 225 255
201 225 255
201 225 255
201 225 255
201 224 255
201 224 255
201 224 255
201 224 255
201 224 255
201 224 255
201 224 255
201 224 255
201 224 255
201 224 255
201 224 255
200 224 255
200 224 255
200 224 255
200 224 255
200 224 255
200 224 255
200 224 255
200 224 255
200 224 255
200 224 255
200 224 255
200 224 255
200 224 255
200 224 255
199 224 255
199 224 255
199 223 255
199 223 255
199 223 255
199 223 255
199 223 255
199 223 255
199 223 255
199 223 255
199 223 255
199 223 255
199 223 255
199 223 255
198 223 255
198 223 255
198 223 255
198 223 255
198 223 255
198 223 255
198 223 255
198 223 255
198 223 255
198 223 255
198 223 255
198 223 255
198 223 255
198 223 255
198 223 255
198 223 255
197 222 255
197 222 255
197 222 255
197 222 255
197 222 255
197 222 255
197 222 255
197 222 255
197 222 255
197 222 255
197 222 255
197 222 255
197 222 255
197 222 255
197 222 255
197 222 255
197 222 255
196 222 255
196 222 255
196 222 255
196 222 255
196 222 255
196 222 255
196 222 255
196 222 255
196 222 255
196 222 255
196 222 255
196 222 255
196 222 255
196 222 255
196 222 255
196 222 255
196 222 255
196 222 255
196 222 255
196 222 255
196 221 255
196 221 255
195 221 255
195 221 255
195 221 255
195 221 255
195 221 255
195 221 255
195 221 255
195 221 255
195 221 255
195 221 255
195 221 255
195 221 255
195 221 255
195 221 255
195 221 255
195 221 255
195 221 255
195 221 255
195 221 255
195 221 255
195 221 255
195 221 255
195 221 255
195 221 255
195 221 255
195 221 255
195 221 255
195 221 255
195 221 255
195 221 255
195 221 255
195 221 255
195 221 255
195 221 255
195 221 255
195 221 255
195 221 255
195 221 255
195 221 255
195 221 255
195 221 255
195 221 255
195 221 255
195 221 255
195 221 255
195 221 255
195 221 255
195 221 255
195 221 255
195 221 255
195 221 255
195 221 255
195 221 255
195 221 255
195 221 255
195 221 255
195 221 255
195 221 255
195 221 255
195 221 255
196 221 255
196 221 255
196 222 255
196 222 255
196 222 255
196 222 255
196 222 255
196 222 255
196 222 255
196 222 255
196 222 255
196 222 255
196 222 255
196 222 255
196 222 255
196 222 255
196 222 255
196 222 255
196 222 255
196 222 255
196 222 255
196 222 255
197 222 255
197 222 255
197 222 255
197 222 255
197 222 255
197 222 255
197 222 255
197 222 255
197 222 255
197 222 255
197 222 255
197 222 255
197 222 255
197 222 255
197 222 255
197 222 255
197 222 255
198 223 255
198 223 255
198 223 255
198 223 255
198 223 255
198 223 255
198 223 255
198 223 255
198 223 255
198 223 255
198 223 255
198 223 255
198 223 255
198 223 255
198 223 255
198 223 255
199 223 255
199 223 255
199 223 255
199 223 255
199 223 255
199 223 255
199 223 255
199 223 255
199 223 255
199 223 255
199 223 255
199 223 255
199 224 255
199 224 255
200 224 255
200 224 255
200 224 255
200 224 255
200 224 255
200 224 255
200 224 255
200 224 255
200 224 255
200 224 255
200 224 255
200 224 255
200 224 255
200 224 255
200 224 255
201 224 255
201 224 255
201 224 255
201 224 255
201 224 255
201 224 255
201 224 255
201 224 255
201 224 255
201 224 255
201 225 255
201 225 255
201 225 255
201 225 255
202 225 255
202 225 255
202 225 255
202 225 255
202 225 255
202 225 255
202 225 255
202 225 255
202 225 255
202 225 255
202 225 255
202 225 255
202 225 255
202 225 255
202 225 255
203 225 255
203 225 255
203 225 255
203 225 255
203 225 255
203 225 255
203 225 255
203 225 255
203 225 255
203 226 255
203 226 255
203 226 255
203 226 255
203 226 255
203 226 255
203 226 255
204 226 255
204 226 255
204 226 255
204 226 255
204 226 255
204 226 255
204 226 255
204 226 255
204 226 255
204 226 255
204 226 255
204 226 255
204 226 255
204 226 255
204 226 255
204 226 255
204 226 255
205 226 255
205 226 255
205 226 255
205 226 255
205 226 255
205 226 255
205 226 255
205 227 255
205 227 255
205 227 255
205 227 255
205 227 255
205 227 255
205 227 255
205 227 255
205 227 255
205 227 255
205 227 255
206 227 255
206 227 255
206 227 255
206 227 255
206 227 255
206 227 255
206 227 255
206 227 255
206 227 255
206 227 255
206 227 255
206 227 255
206 227 255
206 227 255
205 227 255
205 227 255
205 227 255
205 227 255
205 227 255
205 227 255
205 227 255
205 227 255
205 227 255
205 227 255
205 227 255
205 226 255
205 226 255
205 226 255
205 226 255
205 226 255
205 226 255
205 226 255
204 226 255
204 226 255
204 226 255
204 226 255
204 226 255
204 226 255
204 226 255
204 226 255
204 226 255
204 226 255
204 226 255
204 226 255
204 226 255
204 226 255
204 226 255
204 226 255
204 226 255
203 226 255
203 226 255
203 226 255
203 226 255
203 226 255
203 226 255
203 226 255
203 225 255
203 225 255
203 225 255
203 225 255
203 225 255
203 225 255
203 225 255
203 225 255
203 225 255
202 225 255
202 225 255
202 225 255
202 225 255
202 225 255
202 225 255
202 225 255
202 225 255
202 225 255
202 225 255
202 225 255
202 225 255
202 225 255
202 225 255
202 225 255
201 225 255
201 225 255
201 225 255
201 225 255
201 224 255
201 224 255
201 224 255
201 224 255
201 224 255
201 224 255
201 224 255
201 224 255
201 224 255
201 224 255
201 224 255
200 224 255
200 224 255
200 224 255
200 224 255
200 224 255
200 224 255
200 224 255
200 224 255
200 224 255
200 224 255
200 224 255
200 224 255
200 224 255
200 224 255
199 224 255
199 224 255
199 223 255
199 223 255
199 223 255
199 223 255
199 223 255
199 223 255
199 223 255
199 223 255
199 223 255
199 223 255
199 223 255
199 223 255
199 223 255
198 223 255
198 223 255
198 223 255
198 223 255
198 223 255
198 223 255
198 223 255
198 223 255
198 223 255
198 223 255
198 223 255
198 223 255
198 223 255
198 223 255
198 223 255
197 223 255
197 222 255
197 222 255
197 222 255
197 222 255
197 222 255
197 222 255
197 222 255
197 222 255
197 222 255
197 222 255
197 222 255
197 222 255
197 222 255
197 222 255
197 222 255
197 222 255
197 222 255
196 222 255
196 222 255
196 222 255
196 222 255
196 222 255
196 222 255
196 222 255
196 222 255
196 222 255
196 222 255
196 222 255
196 222 255
196 222 255
196 222 255
196 222 255
196 222 255
196 222 255
196 222 255
196 222 255
196 222 255
196 222 255
196 221 255
196 221 255
196 221 255
195 221 255
195 221 255
195 221 255
195 221 255
195 221 255
195 221 255
195 221 255
195 221 255
195 221 255
195 221 255
195 221 255
195 221 255
195 221 255
195 221 255
195 221 255
195 221 255
195 221 255
195 221 255
195 221 255
195 221 255
195 221 255
195 221 255
195 221 255
195 221 255
195 221 255
195 221 255
195 221 255
195 221 255
195 221 255
195 221 255
195 221 255
195 221 255
195 221 255
195 221 255
195 221 255
195 221 255
195 221 255
195 221 255
195 221 255
195 221 255
195 221 255
195 221 255
195 221 255
195 221 255
195 221 255
195 221 255
195 221 255
195 221 255
195 221 255
195 221 255
196 221 255
196 221 255
196 221 255
196 222 255
196 222 255
196 222 255
196 222 255
196 222 255
196 222 255
196 222 255
196 222 255
196 222 255
196 222 255
196 222 255
196 222 255
196 222 255
196 222 255
196 222 255
196 222 255
196 222 255
196 222 255
196 222 255
196 222 255
196 222 255
197 222 255
197 222 255
197 222 255
197 222 255
197 222 255
197 222 255
197 222 255
197 222 255
197 222 255
197 222 255
197 222 255
197 222 255
197 222 255
197 222 255
197 222 255
197 222 255
197 222 255
197 223 255
198 223 255
198 223 255
198 223 255
198 223 255
198 223 255
198 223 255
198 223 255
198 223 255
198 223 255
198 223 255
198 223 255
198 223 255
198 223 255
198 223 255
198 223 255
199 223 255
199 223 255
199 223 255
199 223 255
199 223 255
199 223 255
199 223 255
199 223 255
199 223 255
199 223 255
199 223 255
199 223 255
199 223 255
199 224 255
199 224 255
200 224 255
200 224 255
200 224 255
200 224 255
200 224 255
200 224 255
200 224 255
200 224 255
200 224 255
200 224 255
200 224 255
200 224 255
200 224 255
200 224 255
201 224 255
201 224 255
201 224 255
201 224 255
201 224 255
201 224 255
201 224 255
201 224 255
201 224 255
201 224 255
201 224 255
201 225 255
201 225 255
201 225 255
201 225 255
202 225 255
202 225 255
202 225 255
202 225 255
202 225 255
202 225 255
202 225 255
202 225 255
202 225 255
202 225 255
202 225 255
202 225 255
202 225 255
202 225 255
202 225 255
203 225 255
203 225 255
203 225 255
203 225 255
203 225 255
203 225 255
203 225 255
203 225 255
203 225 255
203 226 255
203 226 255
203 226 255
203 226 255
203 226 255
203 226 255
203 226 255
204 226 255
204 226 255
204 226 255
204 226 255
204 226 255
204 226 255
204 226 255
204 226 255
204 226 255
204 226 255
204 226 255
204 226 255
204 226 255
204 226 255
204 226 255
204 226 255
204 226 255
205 226 255
205 226 255
205 226 255
205 226 255
205 226 255
205 226 255
205 226 255
205 227 255
205 227 255
205 227 255
205 227 255
205 227 255
205 227 255
205 227 255
205 227 255
205 227 255
205 227 255
205 227 255
206 227 255
206 227 255
206 227 255
206 227 255
206 227 255
206 227 255
206 227 255
206 227 255
206 227 255
206 227 255
206 227 255
206 227 255
206 227 255
206 227 255
206 227 255
206 227 255
206 227 255
206 227 255
206 227 255
205 227 255
205 227 255
205 227 255
205 227 255
205 227 255
205 227 255
205 227 255
205 227 255
205 227 255
205 227 255
205 227 255
205 226 255
205 226 255
205 226 255
205 226 255
205 226 255
205 226 255
205 226 255
204 226 255
204 226 255
204 226 255
204 226 255
204 226 255
204 226 255
204 226 255
204 226 255
204 226 255
204 226 255
204 226 255
204 226 255
204 226 255
204 226 255
204 226 255
204 226 255
204 226 255
203 226 255
203 226 255
203 226 255
203 226 255
203 226 255
203 226 255
203 226 255
203 225 255
203 225 255
203 225 255
203 225 255
203 225 255
203 225 255
203 225 255
203 225 255
202 225 255
202 225 255
202 225 255
202 225 255
202 225 255
202 225 255
202 225 255
202 225 255
202 225 255
202 225 255
202 225 255
202 225 255
202 225 255
202 225 255
202 225 255
201 225 255
201 225 255
201 225 255
201 225 255
201 225 255
201 224 255
201 224 255
201 224 255
201 224 255
201 224 255
201 224 255
201 224 255
201 224 255
201 224 255
201 224 255
200 224 255
200 224 255
200 224 255
200 224 255
200 224 255
200 224 255
200 224 255
200 224 255
200 224 255
200 224 255
200 224 255
200 224 255
200 224 255
200 224 255
200 224 255
199 224 255
199 224 255
199 223 255
199 223 255
199 223 255
199 223 255
199 223 255
199 223 255
199 223 255
199 223 255
199 223 255
199 223 255
199 223 255
199 223 255
198 223 255
198 223 255
198 223 255
198 223 255
198 223 255
198 223 255
198 223 255
198 223 255
198 223 255
198 223 255
198 223 255
198 223 255
198 223 255
198 223 255
198 223 255
198 223 255
197 222 255
197 222 255
197 222 255
197 222 255
197 222 255
197 222 255
197 222 255
197 222 255
197 222 255
197 222 255
197 222 255
197 222 255
197 222 255
197 222 255
197 222 255
197 222 255
197 222 255
197 222 255
196 222 255
196 222 255
196 222 255
196 222 255
196 222 255
196 222 255
196 222 255
196 222 255
196 222 255
196 222 255
196 222 255
196 222 255
196 222 255
196 222 255
196 222 255
196 222 255
196 222 255
196 222 255
196 222 255
196 222 255
196 222 255
196 222 255
196 222 255
196 221 255
196 221 255
196 221 255
196 221 255
195 221 255
195 221 255
195 221 255
195 221 255
195 221 255
195 221 255
195 221 255
195 221 255
195 221 255
195 221 255
195 221 255
195 221 255
195 221 255
195 221 255
195 221 255
195 221 255
195 221 255
195 221 255
195 221 255
195 221 255
195 221 255
195 221 255
195 221 255
195 221 255
195 221 255
195 221 255
195 221 255
195 221 255
195 221 255
195 221 255
195 221 255
195 221 255
195 221 255
195 221 255
195 221 255
195 221 255
195 221 255
195 221 255
196 221 255
196 221 255
196 221 255
196 222 255
196 222 255
196 222 255
196 222 255
196 222 255
196 222 255
196 222 255
196 222 255
196 222 255
196 222 255
196 222 255
196 222 255
196 222 255
196 222 255
196 222 255
196 222 255
196 222 255
196 222 255
196 222 255
196 222 255
196 222 255
196 222 255
196 222 255
196 222 255
197 222 255
197 222 255
197 222 255
197 222 255
197 222 255
197 222 255
197 222 255
197 222 255
197 222 255
197 222 255
197 222 255
197 222 255
197 222 255
197 222 255
197 222 255
197 222 255
197 222 255
197 222 255
198 223 255
198 223 255
198 223 255
198 223 255
198 223 255
198 223 255
198 223 255
198 223 255
198 223 255
198 223 255
198 223 255
198 223 255
198 223 255
198 223 255
198 223 255
198 223 255
199 223 255
199 223 255
199 223 255
199 223 255
199 223 255
199 223 255
199 223 255
199 223 255
199 223 255
199 223 255
199 223 255
199 223 255
199 224 255
199 224 255
199 224 255
200 224 255
200 224 255
200 224 255
200 224 255
200 224 255
200 224 255
200 224 255
200 224 255
200 224 255
200 224 255
200 224 255
200 224 255
200 224 255
200 224 255
201 224 255
201 224 255
201 224 255
201 224 255
201 224 255
201 224 255
201 224 255
201 224 255
201 224 255
201 224 255
201 225 255
201 225 255
201 225 255
201 225 255
201 225 255
202 225 255
202 225 255
202 225 255
202 225 255
202 225 255
202 225 255
202 225 255
202 225 255
202 225 255
202 225 255
202 225 255
202 225 255
202 225 255
202 225 255
202 225 255
203 225 255
203 225 255
203 225 255
203 225 255
203 225 255
203 225 255
203 225 255
203 225 255
203 226 255
203 226 255
203 226 255
203 226 255
203 226 255
203 226 255
203 226 255
204 226 255
204 226 255
204 226 255
204 226 255
204 226 255
204 226 255
204 226 255
204 226 255
204 226 255
204 226 255
204 226 255
204 226 255
204 226 255
204 226 255
204 226 255
204 226 255
204 226 255
205 226 255
205 226 255
205 226 255
205 226 255
205 226 255
205 226 255
205 226 255
205 227 255
205 227 255
205 227 255
205 227 255
205 227 255
205 227 255
205 227 255
205 227 255
205 227 255
205 227 255
205 227 255
206 227 255
206 227 255
206 227 255
206 227 255
206 227 255
206 227 255
206 227 255
206 227 255
206 227 255
206 227 255
206 227 255
206 227 255
206 227 255
206 227 255
206 227 255
206 227 255
206 227 255
206 227 255
206 227 255
206 227 255
206 227 255
206 227 255
206 227 255
206 227 255
205 227 255
205 227 255
205 227 255
205 227 255
205 227 255
205 227 255
205 227 255
205 227 255
205 227 255
205 227 255
205 227 255
205 226 255
205 226 255
205 226 255
205 226 255
205 226 255
205 226 255
205 226 255
204 226 255
204 226 255
204 226 255
204 226 255
204 226 255
204 226 255
204 226 255
204 226 255
204 226 255
204 226 255
204 226 255
204 226 255
204 226 255
204 226 255
204 226 255
204 226 255
204 226 255
203 226 255
203 226 255
203 226 255
203 226 255
203 226 255
203 226 255
203 226 255
203 225 255
203 225 255
203 225 255
203 225 255
203 225 255
203 225 255
203 225 255
203 225 255
203 225 255
202 225 255
202 225 255
202 225 255
202 225 255
202 225 255
202 225 255
202 225 255
202 225 255
202 225 255
202 225 255
202 225 255
202 225 255
202 225 255
202 225 255
202 225 255
201 225 255
201 225 255
201 225 255
201 225 255
201 224 255
201 224 255
201 224 255
201 224 255
201 224 255
201 224 255
201 224 255
201 224 255
201 224 255
201 224 255
200 224 255
200 224 255
200 224 255
200 224 255
200 224 255
200 224 255
200 224 255
200 224 255
200 224 255
200 224 255
200 224 255
200 224 255
200 224 255
200 224 255
200 224 255
199 224 255
199 224 255
199 223 255
199 223 255
199 223 255
199 223 255
199 223 255
199 223 255
199 223 255
199 223 255
199 223 255
199 223 255
199 223 255
199 223 255
199 223 255
198 223 255
198 223 255
198 223 255
198 223 255
198 223 255
198 223 255
198 223 255
198 223 255
198 223 255
198 223 255
198 223 255
198 223 255
198 223 255
198 223 255
198 223 255
197 223 255
197 222 255
197 222 255
197 222 255
197 222 255
197 222 255
197 222 255
197 222 255
197 222 255
197 222 255
197 222 255
197 222 255
197 222 255
197 222 255
197 222 255
197 222 255
197 222 255
197 222 255
197 222 255
196 222 255
196 222 255
196 222 255
196 222 255
196 222 255
196 222 255
196 222 255
196 222 255
196 222 255
196 222 255
196 222 255
196 222 255
196 222 255
196 222 255
196 222 255
196 222 255
196 222 255
196 222 255
196 222 255
196 222 255
196 222 255
196 222 255
196 222 255
196 222 255
196 222 255
196 222 255
196 222 255
196 221 255
196 221 255
196 221 255
196 221 255
196 221 255
196 221 255
195 221 255
195 221 255
195 221 255
195 221 255
195 221 255
195 221 255
195 221 255
195 221 255
195 221 255
195 221 255
195 221 255
195 221 255
195 221 255
195 221 255
195 221 255
195 221 255
195 221 255
195 221 255
195 221 255
195 221 255
196 221 255
196 221 255
196 221 255
196 221 255
196 221 255
196 221 255
196 222 255
196 222 255
196 222 255
196 222 255
196 222 255
196 222 255
196 222 255
196 222 255
196 222 255
196 222 255
196 222 255
196 222 255
196 222 255
196 222 255
196 222 255
196 222 255
196 222 255
196 222 255
196 222 255
196 222 255
196 222 255
196 222 255
196 222 255
196 222 255
196 222 255
196 222 255
196 222 255
197 222 255
197 222 255
197 222 255
197 222 255
197 222 255
197 222 255
197 222 255
197 222 255
197 222 255
197 222 255
197 222 255
197 222 255
197 222 255
197 222 255
197 222 255
197 222 255
197 222 255
197 222 255
197 223 255
198 223 255
198 223 255
198 223 255
198 223 255
198 223 255
198 223 255
198 223 255
198 223 255
198 223 255
198 223 255
198 223 255
198 223 255
198 223 255
198 223 255
198 223 255
198 223 255
199 223 255
199 223 255
199 223 255
199 223 255
199 223 255
199 223 255
199 223 255
199 223 255
199 223 255
199 223 255
199 223 255
199 223 255
199 224 255
199 224 255
200 224 255
200 224 255
200 224 255
200 224 255
200 224 255
200 224 255
200 224 255
200 224 255
200 224 255
200 224 255
200 224 255
200 224 255
200 224 255
200 224 255
200 224 255
201 224 255
201 224 255
201 224 255
201 224 255
201 224 255
201 224 255
201 224 255
201 224 255
201 224 255
201 224 255
201 225 255
201 225 255
201 225 255
201 225 255
202 225 255
202 225 255
202 225 255
202 225 255
202 225 255
202 225 255
202 225 255
202 225 255
202 225 255
202 225 255
202 225 255
202 225 255
202 225 255
202 225 255
202 225 255
203 225 255
203 225 255
203 225 255
203 225 255
203 225 255
203 225 255
203 225 255
203 225 255
203 225 255
203 226 255
203 226 255
203 226 255
203 226 255
203 226 255
203 226 255
203 226 255
204 226 255
204 226 255
204 226 255
204 226 255
204 226 255
204 226 255
204 226 255
204 226 255
204 226 255
204 226 255
204 226 255
204 226 255
204 226 255
204 226 255
204 226 255
204 226 255
204 226 255
205 226 255
205 226 255
205 226 255
205 226 255
205 226 255
205 226 255
205 226 255
205 227 255
205 227 255
205 227 255
205 227 255
205 227 255
205 227 255
205 227 255
205 227 255
205 227 255
205 227 255
205 227 255
206 227 255
206 227 255
206 227 255
206 227 255
206 227 255
206 227 255
206 227 255
206 227 255
206 227 255
206 227 255
206 227 255
206 227 255
206 227 255
206 227 255
206 227 255
206 227 255
206 227 255
206 227 255
206 227 255
206 227 255
206 227 255
206 227 255
206 227 255
206 227 255
206 227 255
206 227 255
206 227 255
206 227 255
206 227 255
205 227 255
205 227 255
205 227 255
205 227 255
205 227 255
205 227 255
205 227 255
205 227 255
205 227 255
205 227 255
205 227 255
205 226 255
205 226 255
205 226 255
205 226 255
205 226 255
205 226 255
205 226 255
204 226 255
204 226 255
204 226 255
204 226 255
204 226 255
204 226 255
204 226 255
204 226 255
204 226 255
204 226 255
204 226 255
204 226 255
204 226 255
204 226 255
204 226 255
204 226 255
203 226 255
203 226 255
203 226 255
203 226 255
203 226 255
203 226 255
203 226 255
203 225 255
203 225 255
203 225 255
203 225 255
203 225 255
203 225 255
203 225 255
203 225 255
203 225 255
202 225 255
202 225 255
202 225 255
202 225 255
202 225 255
202 225 255
202 225 255
202 225 255
202 225 255
202 225 255
202 225 255
202 225 255
202 225 255
202 225 255
202 225 255
201 225 255
201 225 255
201 225 255
201 225 255
201 224 255
201 224 255
201 224 255
201 224 255
201 224 255
201 224 255
201 224 255
201 224 255
201 224 255
201 224 255
200 224 255
200 224 255
200 224 255
200 224 255
200 224 255
200 224 255
200 224 255
200 224 255
200 224 255
200 224 255
200 224 255
200 224 255
200 224 255
200 224 255
200 224 255
199 224 255
199 224 255
199 223 255
199 223 255
199 223 255
199 223 255
199 223 255
199 223 255
199 223 255
199 223 255
199 223 255
199 223 255
199 223 255
199 223 255
199 223 255
198 223 255
198 223 255
198 223 255
198 223 255
198 223 255
198 223 255
198 223 255
198 223 255
198 223 255
198 223 255
198 223 255
198 223 255
198 223 255
198 223 255
198 223 255
198 223 255
197 223 255
197 222 255
197 222 255
197 222 255
197 222 255
197 222 255
197 222 255
197 222 255
197 222 255
197 222 255
197 222 255
197 222 255
197 222 255
197 222 255
197 222 255
197 222 255
197 222 255
197 222 255
197 222 255
197 222 255
196 222 255
196 222 255
196 222 255
196 222 255
196 222 255
196 222 255
196 222 255
196 222 255
196 222 255
196 222 255
196 222 255
196 222 255
196 222 255
196 222 255
196 222 255
196 222 255
196 222 255
196 222 255
196 222 255
196 222 255
196 222 255
196 222 255
196 222 255
196 222 255
196 222 255
196 222 255
196 222 255
196 222 255
196 222 255
196 222 255
196 222 255
196 222 255
196 222 255
196 222 255
196 222 255
196 222 255
196 222 255
196 222 255
196 222 255
196 222 255
196 222 255
196 222 255
196 222 255
196 222 255
196 222 255
196 222 255
196 222 255
196 222 255
196 222 255
196 222 255
196 222 255
196 222 255
196 222 255
196 222 255
196 222 255
196 222 255
196 222 255
196 222 255
196 222 255
196 222 255
196 222 255
196 222 255
196 222 255
196 222 255
196 222 255
196 222 255
196 222 255
196 222 255
196 222 255
196 222 255
196 222 255
196 222 255
196 222 255
196 222 255
196 222 255
196 222 255
196 222 255
196 222 255
197 222 255
197 222 255
197 222 255
197 222 255
197 222 255
197 222 255
197 222 255
197 222 255
197 222 255
197 222 255
197 222 255
197 222 255
197 222 255
197 222 255
197 222 255
197 222 255
197 222 255
197 222 255
197 222 255
197 223 255
198 223 255
198 223 255
198 223 255
198 223 255
198 223 255
198 223 255
198 223 255
198 223 255
198 223 255
198 223 255
198 223 255
198 223 255
198 223 255
198 223 255
198 223 255
198 223 255
199 223 255
199 223 255
199 223 255
199 223 255
199 223 255
199 223 255
199 223 255
199 223 255
199 223 255
199 223 255
199 223 255
199 223 255
199 224 255
199 224 255
199 224 255
200 224 255
200 224 255
200 224 255
200 224 255
200 224 255
200 224 255
200 224 255
200 224 255
200 224 255
200 224 255
200 224 255
200 224 255
200 224 255
200 224 255
200 224 255
201 224 255
201 224 255
201 224 255
201 224 255
201 224 255
201 224 255
201 224 255
201 224 255
201 224 255
201 224 255
201 225 255
201 225 255
201 225 255
201 225 255
202 225 255
202 225 255
202 225 255
202 225 255
202 225 255
202 225 255
202 225 255
202 225 255
202 225 255
202 225 255
202 225 255
202 225 255
202 225 255
202 225 255
202 225 255
203 225 255
203 225 255
203 225 255
203 225 255
203 225 255
203 225 255
203 225 255
203 225 255
203 225 255
203 226 255
203 226 255
203 226 255
203 226 255
203 226 255
203 226 255
203 226 255
204 226 255
204 226 255
204 226 255
204 226 255
204 226 255
204 226 255
204 226 255
204 226 255
204 226 255
204 226 255
204 226 255
204 226 255
204 226 255
204 226 255
204 226 255
204 226 255
205 226 255
205 226 255
205 226 255
205 226 255
205 226 255
205 226 255
205 226 255
205 227 255
205 227 255
205 227 255
205 227 255
205 227 255
205 227 255
205 227 255
205 227 255
205 227 255
205 227 255
205 227 255
206 227 255
206 227 255
206 227 255
206 227 255
206 227 255
206 227 255
206 227 255
206 227 255
206 227 255
206 227 255
206 227 255
206 227 255
206 227 255
206 227 255
206 227 255
206 227 255
206 227 255
206 227 255
206 227 255
206 227 255
206 227 255
206 227 255
206 227 255
206 227 255
206 227 255
206 227 255
206 227 255
206 227 255
206 227 255
206 227 255
206 227 255
206 227 255
206 227 255
206 227 255
205 227 255
205 227 255
205 227 255
205 227 255
205 227 255
205 227 255
205 227 255
205 227 255
205 227 255
205 227 255
205 227 255
205 226 255
205 226 255
205 226 255
205 226 255
205 226 255
205 226 255
205 226 255
204 226 255
204 226 255
204 226 255
204 226 255
204 226 255
204 226 255
204 226 255
204 226 255
204 226 255
204 226 255
204 226 255
204 226 255
204 226 255
204 226 255
204 226 255
204 226 255
204 226 255
203 226 255
203 226 255
203 226 255
203 226 255
203 226 255
203 226 255
203 226 255
203 225 255
203 225 255
203 225 255
203 225 255
203 225 255
203 225 255
203 225 255
203 225 255
202 225 255
202 225 255
202 225 255
202 225 255
202 225 255
202 225 255
202 225 255
202 225 255
202 225 255
202 225 255
202 225 255
202 225 255
202 225 255
202 225 255
202 225 255
201 225 255
201 225 255
201 225 255
201 225 255
201 225 255
201 224 255
201 224 255
201 224 255
201 224 255
201 224 255
201 224 255
201 224 255
201 224 255
201 224 255
201 224 255
200 224 255
200 224 255
200 224 255
200 224 255
200 224 255
200 224 255
200 224 255
200 224 255
200 224 255
200 224 255
200 224 255
200 224 255
200 224 255
200 224 255
199 224 255
199 224 255
199 224 255
199 223 255
199 223 255
199 223 255
199 223 255
199 223 255
199 223 255
199 223 255
199 223 255
199 223 255
199 223 255
199 223 255
199 223 255
199 223 255
198 223 255
198 223 255
198 223 255
198 223 255
198 223 255
198 223 255
198 223 255
198 223 255
198 223 255
198 223 255
198 223 255
198 223 255
198 223 255
198 223 255
198 223 255
198 223 255
197 223 255
197 222 255
197 222 255
197 222 255
197 222 255
197 222 255
197 222 255
197 222 255
197 222 255
197 222 255
197 222 255
197 222 255
197 222 255
197 222 255
197 222 255
197 222 255
197 222 255
197 222 255
197 222 255
197 222 255
196 222 255
196 222 255
196 222 255
196 222 255
196 222 255
196 222 255
196 222 255
196 222 255
196 222 255
196 222 255
196 222 255
196 222 255
196 222 255
196 222 255
196 222 255
196 222 255
196 222 255
196 222 255
196 222 255
196 222 255
196 222 255
196 222 255
196 222 255
196 222 255
196 222 255
196 222 255
196 222 255
196 222 255
196 222 255
196 222 255
196 222 255
196 222 255
196 222 255
196 222 255
196 222 255
196 222 255
196 222 255
196 222 255
196 222 255
196 222 255
196 222 255
196 222 255
196 222 255
196 222 255
196 222 255
196 222 255
196 222 255
196 222 255
196 222 255
196 222 255
196 222 255
196 222 255
196 222 255
196 222 255
196 222 255
196 222 255
196 222 255
196 222 255
196 222 255
196 222 255
196 222 255
196 222 255
196 222 255
196 222 255
196 222 255
196 222 255
196 222 255
196 222 255
196 222 255
196 222 255
196 222 255
196 222 255
197 222 255
197 222 255
197 222 255
197 222 255
197 222 255
197 222 255
197 222 255
197 222 255
197 222 255
197 222 255
197 222 255
197 222 255
197 222 255
197 222 255
197 222 255
197 222 255
197 222 255
197 222 255
197 222 255
197 223 255
198 223 255
198 223 255
198 223 255
198 223 255
198 223 255
198 223 255
198 223 255
198 223 255
198 223 255
198 223 255
198 223 255
198 223 255
198 223 255
198 223 255
198 223 255
198 223 255
199 223 255
199 223 255
199 223 255
199 223 255
199 223 255
199 223 255
199 223 255
199 223 255
199 223 255
199 223 255
199 223 255
199 223 255
199 223 255
199 224 255
199 224 255
200 224 255
200 224 255
200 224 255
200 224 255
200 224 255
200 224 255
200 224 255
200 224 255
200 224 255
200 224 255
200 224 255
200 224 255
200 224 255
200 224 255
200 224 255
201 224 255
201 224 255
201 224 255
201 224 255
201 224 255
201 224 255
201 224 255
201 224 255
201 224 255
201 224 255
201 225 255
201 225 255
201 225 255
201 225 255
201 225 255
202 225 255
202 225 255
202 225 255
202 225 255
202 225 255
202 225 255
202 225 255
202 225 255
202 225 255
202 225 255
202 225 255
202 225 255
202 225 255
202 225 255
202 225 255
203 225 255
203 225 255
203 225 255
203 225 255
203 225 255
203 225 255
203 225 255
203 225 255
203 226 255
203 226 255
203 226 255
203 226 255
203 226 255
203 226 255
203 226 255
204 226 255
204 226 255
204 226 255
204 226 255
204 226 255
204 226 255
204 226 255
204 226 255
204 226 255
204 226 255
204 226 255
204 226 255
204 226 255
204 226 255
204 226 255
204 226 255
204 226 255
205 226 255
205 226 255
205 226 255
205 226 255
205 226 255
205 226 255
205 226 255
205 227 255
205 227 255
205 227 255
205 227 255
205 227 255
205 227 255
205 227 255
205 227 255
205 227 255
205 227 255
205 227 255
206 227 255
206 227 255
206 227 255
206 227 255
206 227 255
206 227 255
206 227 255
206 227 255
206 227 255
206 227 255
206 227 255
206 227 255
206 227 255
206 227 255
206 227 255
206 227 255
206 227 255
206 227 255
207 227 255
207 227 255
206 227 255
206 227 255
206 227 255
206 227 255
206 227 255
206 227 255
206 227 255
206 227 255
206 227 255
206 227 255
206 227 255
206 227 255
206 227 255
206 227 255
206 227 255
206 227 255
206 227 255
206 227 255
206 227 255
205 227 255
205 227 255
205 227 255
205 227 255
205 227 255
205 227 255
205 227 255
205 227 255
205 227 255
205 227 255
205 227 255
205 226 255
205 226 255
205 226 255
205 226 255
205 226 255
205 226 255
205 226 255
204 226 255
204 226 255
204 226 255
204 226 255
204 226 255
204 226 255
204 226 255
204 226 255
204 226 255
204 226 255
204 226 255
204 226 255
204 226 255
204 226 255
204 226 255
204 226 255
203 226 255
203 226 255
203 226 255
203 226 255
203 226 255
203 226 255
203 226 255
203 225 255
203 225 255
203 225 255
203 225 255
203 225 255
203 225 255
203 225 255
203 225 255
203 225 255
202 225 255
202 225 255
202 225 255
202 225 255
202 225 255
202 225 255
202 225 255
202 225 255
202 225 255
202 225 255
202 225 255
202 225 255
202 225 255
202 225 255
201 225 255
201 225 255
201 225 255
201 225 255
201 225 255
201 224 255
201 224 255
201 224 255
201 224 255
201 224 255
201 224 255
201 224 255
201 224 255
201 224 255
201 224 255
200 224 255
200 224 255
200 224 255
200 224 255
200 224 255
200 224 255
200 224 255
200 224 255
200 224 255
200 224 255
200 224 255
200 224 255
200 224 255
200 224 255
200 224 255
199 224 255
199 224 255
199 223 255
199 223 255
199 223 255
199 223 255
199 223 255
199 223 255
199 223 255
199 223 255
199 223 255
199 223 255
199 223 255
199 223 255
199 223 255
198 223 255
198 223 255
198 223 255
198 223 255
198 223 255
198 223 255
198 223 255
198 223 255
198 223 255
198 223 255
198 223 255
198 223 255
198 223 255
198 223 255
198 223 255
198 223 255
198 223 255
197 223 255
197 222 255
197 222 255
197 222 255
197 222 255
197 222 255
197 222 255
197 222 255
197 222 255
197 222 255
197 222 255
197 222 255
197 222 255
197 222 255
197 222 255
197 222 255
197 222 255
197 222 255
197 222 255
197 222 255
197 222 255
197 222 255
196 222 255
196 222 255
196 222 255
196 222 255
196 222 255
196 222 255
196 222 255
196 222 255
196 222 255
196 222 255
196 222 255
196 222 255
196 222 255
196 222 255
196 222 255
196 222 255
196 222 255
196 222 255
196 222 255
196 222 255
196 222 255
196 222 255
196 222 255
196 222 255
196 222 255
196 222 255
196 222 255
196 222 255
196 222 255
196 222 255
196 222 255
196 222 255
196 222 255
196 222 255
196 222 255
196 222 255
196 222 255
196 222 255
196 222 255
196 222 255
196 222 255
196 222 255
196 222 255
196 222 255
196 222 255
196 222 255
196 222 255
196 222 255
196 222 255
196 222 255
196 222 255
196 222 255
196 222 255
196 222 255
196 222 255
196 222 255
196 222 255
196 222 255
196 222 255
196 222 255
196 222 255
196 222 255
197 222 255
197 222 255
197 222 255
197 222 255
197 222 255
197 222 255
197 222 255
197 222 255
197 222 255
197 222 255
197 222 255
197 222 255
197 222 255
197 222 255
197 222 255
197 222 255
197 222 255
197 222 255
197 222 255
197 222 255
197 222 255
197 223 255
198 223 255
198 223 255
198 223 255
198 223 255
198 223 255
198 223 255
198 223 255
198 223 255
198 223 255
198 223 255
198 223 255
198 223 255
198 223 255
198 223 255
198 223 255
198 223 255
198 223 255
199 223 255
199 223 255
199 223 255
199 223 255
199 223 255
199 223 255
199 223 255
199 223 255
199 223 255
199 223 255
199 223 255
199 223 255
199 223 255
199 224 255
199 224 255
200 224 255
200 224 255
200 224 255
200 224 255
200 224 255
200 224 255
200 224 255
200 224 255
200 224 255
200 224 255
200 224 255
200 224 255
200 224 255
200 224 255
200 224 255
201 224 255
201 224 255
201 224 255
201 224 255
201 224 255
201 224 255
201 224 255
201 224 255
201 224 255
201 224 255
201 225 255
201 225 255
201 225 255
201 225 255
202 225 255
202 225 255
202 225 255
202 225 255
202 225 255
202 225 255
202 225 255
202 225 255
202 225 255
202 225 255
202 225 255
202 225 255
202 225 255
202 225 255
202 225 255
203 225 255
203 225 255
203 225 255
203 225 255
203 225 255
203 225 255
203 225 255
203 225 255
203 225 255
203 226 255
203 226 255
203 226 255
203 226 255
203 226 255
203 226 255
203 226 255
204 226 255
204 226 255
204 226 255
204 226 255
204 226 255
204 226 255
204 226 255
204 226 255
204 226 255
204 226 255
204 226 255
204 226 255
204 226 255
204 226 255
204 226 255
204 226 255
205 226 255
205 226 255
205 226 255
205 226 255
205 226 255
205 226 255
205 226 255
205 227 255
205 227 255
205 227 255
205 227 255
205 227 255
205 227 255
205 227 255
205 227 255
205 227 255
205 227 255
205 227 255
206 227 255
206 227 255
206 227 255
206 227 255
206 227 255
206 227 255
206 227 255
206 227 255
206 227 255
206 227 255
206 227 255
206 227 255
206 227 255
206 227 255
206 227 255
206 227 255
206 227 255
206 227 255
206 227 255
207 227 255
207 227 255
207 227 255
207 227 255
207 227 255
207 227 255
207 227 255
206 227 255
206 227 255
206 227 255
206 227 255
206 227 255
206 227 255
206 227 255
206 227 255
206 227 255
206 227 255
206 227 255
206 227 255
206 227 255
206 227 255
206 227 255
206 227 255
206 227 255
206 227 255
206 227 255
205 227 255
205 227 255
205 227 255
205 227 255
205 227 255
205 227 255
205 227 255
205 227 255
205 227 255
205 227 255
205 226 255
205 226 255
205 226 255
205 226 255
205 226 255
205 226 255
205 226 255
204 226 255
204 226 255
204 226 255
204 226 255
204 226 255
204 226 255
204 226 255
204 226 255
204 226 255
204 226 255
204 226 255
204 226 255
204 226 255
204 226 255
204 226 255
204 226 255
204 226 255
203 226 255
203 226 255
203 226 255
203 226 255
203 226 255
203 226 255
203 225 255
203 225 255
203 225 255
203 225 255
203 225 255
203 225 255
203 225 255
203 225 255
203 225 255
202 225 255
202 225 255
202 225 255
202 225 255
202 225 255
202 225 255
202 225 255
202 225 255
202 225 255
202 225 255
202 225 255
202 225 255
202 225 255
202 225 255
202 225 255
201 225 255
201 225 255
201 225 255
201 225 255
201 224 255
201 224 255
201 224 255
201 224 255
201 224 255
201 224 255
201 224 255
201 224 255
201 224 255
201 224 255
201 224 255
200 224 255
200 224 255
200 224 255
200 224 255
200 224 255
200 224 255
200 224 255
200 224 255
200 224 255
200 224 255
200 224 255
200 224 255
200 224 255
200 224 255
199 224 255
199 224 255
199 224 255
199 223 255
199 223 255
199 223 255
199 223 255
199 223 255
199 223 255
199 223 255
199 223 255
199 223 255
199 223 255
199 223 255
199 223 255
199 223 255
198 223 255
198 223 255
198 223 255
198 223 255
198 223 255
198 223 255
198 223 255
198 223 255
198 223 255
198 223 255
198 223 255
198 223 255
198 223 255
198 223 255
198 223 255
198 223 255
198 223 255
197 223 255
197 222 255
197 222 255
197 222 255
197 222 255
197 222 255
197 222 255
197 222 255
197 222 255
197 222 255
197 222 255
197 222 255
197 222 255
197 222 255
197 222 255
197 222 255
197 222 255
197 222 255
197 222 255
197 222 255
197 222 255
197 222 255
197 222 255
197 222 255
196 222 255
196 222 255
196 222 255
196 222 255
196 222 255
196 222 255
196 222 255
196 222 255
196 222 255
196 222 255
196 222 255
196 222 255
196 222 255
196 222 255
196 222 255
196 222 255
196 222 255
196 222 255
196 222 255
196 222 255
196 222 255
196 222 255
196 222 255
196 222 255
196 222 255
196 222 255
196 222 255
196 222 255
196 222 255
196 222 255
196 222 255
196 222 255
196 222 255
196 222 255
196 222 255
196 222 255
196 222 255
196 222 255
196 222 255
196 222 255
196 222 255
196 222 255
196 222 255
196 222 255
196 222 255
196 222 255
196 222 255
196 222 255
196 222 255
196 222 255
196 222 255
196 222 255
197 222 255
197 222 255
197 222 255
197 222 255
197 222 255
197 222 255
197 222 255
197 222 255
197 222 255
197 222 255
197 222 255
197 222 255
197 222 255
197 222 255
197 222 255
197 222 255
197 222 255
197 222 255
197 222 255
197 222 255
197 222 255
197 222 255
197 222 255
197 223 255
198 223 255
198 223 255
198 223 255
198 223 255
198 223 255
198 223 255
198 223 255
198 223 255
198 223 255
198 223 255
198 223 255
198 223 255
198 223 255
198 223 255
198 223 255
198 223 255
198 223 255
199 223 255
199 223 255
199 223 255
199 223 255
199 223 255
199 223 255
199 223 255
199 223 255
199 223 255
199 223 255
199 223 255
199 223 255
199 223 255
199 224 255
199 224 255
199 224 255
200 224 255
200 224 255
200 224 255
200 224 255
200 224 255
200 224 255
200 224 255
200 224 255
200 224 255
200 224 255
200 224 255
200 224 255
200 224 255
200 224 255
201 224 255
201 224 255
201 224 255
201 224 255
201 224 255
201 224 255
201 224 255
201 224 255
201 224 255
201 224 255
201 224 255
201 225 255
201 225 255
201 225 255
201 225 255
202 225 255
202 225 255
202 225 255
202 225 255
202 225 255
202 225 255
202 225 255
202 225 255
202 225 255
202 225 255
202 225 255
202 225 255
202 225 255
202 225 255
202 225 255
203 225 255
203 225 255
203 225 255
203 225 255
203 225 255
203 225 255
203 225 255
203 225 255
203 225 255
203 226 255
203 226 255
203 226 255
203 226 255
203 226 255
203 226 255
203 226 255
204 226 255
204 226 255
204 226 255
204 226 255
204 226 255
204 226 255
204 226 255
204 226 255
204 226 255
204 226 255
204 226 255
204 226 255
204 226 255
204 226 255
204 226 255
204 226 255
205 226 255
205 226 255
205 226 255
205 226 255
205 226 255
205 226 255
205 226 255
205 227 255
205 227 255
205 227 255
205 227 255
205 227 255
205 227 255
205 227 255
205 227 255
205 227 255
205 227 255
206 227 255
206 227 255
206 227 255
206 227 255
206 227 255
206 227 255
206 227 255
206 227 255
206 227 255
206 227 255
206 227 255
206 227 255
206 227 255
206 227 255
206 227 255
206 227 255
206 227 255
206 227 255
206 227 255
206 227 255
207 227 255
207 227 255
207 227 255
207 227 255
207 228 255
207 228 255
207 227 255
207 227 255
207 227 255
207 227 255
207 227 255
206 227 255
206 227 255
206 227 255
206 227 255
206 227 255
206 227 255
206 227 255
206 227 255
206 227 255
206 227 255
206 227 255
206 227 255
206 227 255
206 227 255
206 227 255
206 227 255
206 227 255
206 227 255
206 227 255
205 227 255
205 227 255
205 227 255
205 227 255
205 227 255
205 227 255
205 227 255
205 227 255
205 227 255
205 227 255
205 227 255
205 226 255
205 226 255
205 226 255
205 226 255
205 226 255
205 226 255
205 226 255
204 226 255
204 226 255
204 226 255
204 226 255
204 226 255
204 226 255
204 226 255
204 226 255
204 226 255
204 226 255
204 226 255
204 226 255
204 226 255
204 226 255
204 226 255
204 226 255
203 226 255
203 226 255
203 226 255
203 226 255
203 226 255
203 226 255
203 226 255
203 225 255
203 225 255
203 225 255
203 225 255
203 225 255
203 225 255
203 225 255
203 225 255
203 225 255
202 225 255
202 225 255
202 225 255
202 225 255
202 225 255
202 225 255
202 225 255
202 225 255
202 225 255
202 225 255
202 225 255
202 225 255
202 225 255
202 225 255
202 225 255
201 225 255
201 225 255
201 225 255
201 225 255
201 224 255
201 224 255
201 224 255
201 224 255
201 224 255
201 224 255
201 224 255
201 224 255
201 224 255
201 224 255
200 224 255
200 224 255
200 224 255
200 224 255
200 224 255
200 224 255
200 224 255
200 224 255
200 224 255
200 224 255
200 224 255
200 224 255
200 224 255
200 224 255
200 224 255
199 224 255
199 224 255
199 223 255
199 223 255
199 223 255
199 223 255
199 223 255
199 223 255
199 223 255
199 223 255
199 223 255
199 223 255
199 223 255
199 223 255
199 223 255
199 223 255
198 223 255
198 223 255
198 223 255
198 223 255
198 223 255
198 223 255
198 223 255
198 223 255
198 223 255
198 223 255
198 223 255
198 223 255
198 223 255
198 223 255
198 223 255
198 223 255
198 223 255
198 223 255
197 222 255
197 222 255
197 222 255
197 222 255
197 222 255
197 222 255
197 222 255
197 222 255
197 222 255
197 222 255
197 222 255
197 222 255
197 222 255
197 222 255
197 222 255
197 222 255
197 222 255
197 222 255
197 222 255
197 222 255
197 222 255
197 222 255
197 222 255
197 222 255
197 222 255
197 222 255
196 222 255
196 222 255
196 222 255
196 222 255
196 222 255
196 222 255
196 222 255
196 222 255
196 222 255
196 222 255
196 222 255
196 222 255
196 222 255
196 222 255
196 222 255
196 222 255
196 222 255
196 222 255
196 222 255
196 222 255
196 222 255
196 222 255
196 222 255
196 222 255
196 222 255
196 222 255
196 222 255
196 222 255
196 222 255
196 222 255
196 222 255
196 222 255
196 222 255
196 222 255
196 222 255
196 222 255
196 222 255
196 222 255
196 222 255
196 222 255
197 222 255
197 222 255
197 222 255
197 222 255
197 222 255
197 222 255
197 222 255
197 222 255
197 222 255
197 222 255
197 222 255
197 222 255
197 222 255
197 222 255
197 222 255
197 222 255
197 222 255
197 222 255
197 222 255
197 222 255
197 222 255
197 222 255
197 222 255
197 222 255
197 222 255
197 222 255
198 223 255
198 223 255
198 223 255
198 223 255
198 223 255
198 223 255
198 223 255
198 223 255
198 223 255
198 223 255
198 223 255
198 223 255
198 223 255
198 223 255
198 223 255
198 223 255
198 223 255
198 223 255
199 223 255
199 223 255
199 223 255
199 223 255
199 223 255
199 223 255
199 223 255
199 223 255
199 223 255
199 223 255
199 223 255
199 223 255
199 223 255
199 223 255
199 224 255
199 224 255
200 224 255
200 224 255
200 224 255
200 224 255
200 224 255
200 224 255
200 224 255
200 224 255
200 224 255
200 224 255
200 224 255
200 224 255
200 224 255
200 224 255
200 224 255
201 224 255
201 224 255
201 224 255
201 224 255
201 224 255
201 224 255
201 224 255
201 224 255
201 224 255
201 224 255
201 225 255
201 225 255
201 225 255
201 225 255
201 225 255
202 225 255
202 225 255
202 225 255
202 225 255
202 225 255
202 225 255
202 225 255
202 225 255
202 225 255
202 225 255
202 225 255
202 225 255
202 225 255
202 225 255
202 225 255
203 225 255
203 225 255
203 225 255
203 225 255
203 225 255
203 225 255
203 225 255
203 225 255
203 226 255
203 226 255
203 226 255
203 226 255
203 226 255
203 226 255
203 226 255
204 226 255
204 226 255
204 226 255
204 226 255
204 226 255
204 226 255
204 226 255
204 226 255
204 226 255
204 226 255
204 226 255
204 226 255
204 226 255
204 226 255
204 226 255
204 226 255
205 226 255
205 226 255
205 226 255
205 226 255
205 226 255
205 226 255
205 226 255
205 227 255
205 227 255
205 227 255
205 227 255
205 227 255
205 227 255
205 227 255
205 227 255
205 227 255
205 227 255
205 227 255
206 227 255
206 227 255
206 227 255
206 227 255
206 227 255
206 227 255
206 227 255
206 227 255
206 227 255
206 227 255
206 227 255
206 227 255
206 227 255
206 227 255
206 227 255
206 227 255
206 227 255
206 227 255
206 227 255
207 227 255
207 227 255
207 227 255
207 227 255
207 228 255
207 228 255
207 228 255
207 228 255
207 228 255
207 228 255
207 228 255
207 228 255
207 227 255
207 227 255
207 227 255
207 227 255
207 227 255
206 227 255
206 227 255
206 227 255
206 227 255
206 227 255
206 227 255
206 227 255
206 227 255
206 227 255
206 227 255
206 227 255
206 227 255
206 227 255
206 227 255
206 227 255
206 227 255
206 227 255
206 227 255
206 227 255
205 227 255
205 227 255
205 227 255
205 227 255
205 227 255
205 227 255
205 227 255
205 227 255
205 227 255
205 227 255
205 227 255
205 226 255
205 226 255
205 226 255
205 226 255
205 226 255
205 226 255
204 226 255
204 226 255
204 226 255
204 226 255
204 226 255
204 226 255
204 226 255
204 226 255
204 226 255
204 226 255
204 226 255
204 226 255
204 226 255
204 226 255
204 226 255
204 226 255
204 226 255
203 226 255
203 226 255
203 226 255
203 226 255
203 226 255
203 226 255
203 226 255
203 225 255
203 225 255
203 225 255
203 225 255
203 225 255
203 225 255
203 225 255
203 225 255
202 225 255
202 225 255
202 225 255
202 225 255
202 225 255
202 225 255
202 225 255
202 225 255
202 225 255
202 225 255
202 225 255
202 225 255
202 225 255
202 225 255
202 225 255
201 225 255
201 225 255
201 225 255
201 225 255
201 224 255
201 224 255
201 224 255
201 224 255
201 224 255
201 224 255
201 224 255
201 224 255
201 224 255
201 224 255
200 224 255
200 224 255
200 224 255
200 224 255
200 224 255
200 224 255
200 224 255
200 224 255
200 224 255
200 224 255
200 224 255
200 224 255
200 224 255
200 224 255
200 224 255
200 224 255
199 224 255
199 224 255
199 223 255
199 223 255
199 223 255
199 223 255
199 223 255
199 223 255
199 223 255
199 223 255
199 223 255
199 223 255
199 223 255
199 223 255
199 223 255
199 223 255
198 223 255
198 223 255
198 223 255
198 223 255
198 223 255
198 223 255
198 223 255
198 223 255
198 223 255
198 223 255
198 223 255
198 223 255
198 223 255
198 223 255
198 223 255
198 223 255
198 223 255
198 223 255
197 223 255
197 222 255
197 222 255
197 222 255
197 222 255
197 222 255
197 222 255
197 222 255
197 222 255
197 222 255
197 222 255
197 222 255
197 222 255
197 222 255
197 222 255
197 222 255
197 222 255
197 222 255
197 222 255
197 222 255
197 222 255
197 222 255
197 222 255
197 222 255
197 222 255
197 222 255
197 222 255
197 222 255
197 222 255
197 222 255
197 222 255
197 222 255
196 222 255
196 222 255
196 222 255
196 222 255
196 222 255
196 222 255
196 222 255
196 222 255
196 222 255
196 222 255
196 222 255
196 222 255
196 222 255
196 222 255
196 222 255
196 222 255
196 222 255
196 222 255
196 222 255
196 222 255
196 222 255
196 222 255
197 222 255
197 222 255
197 222 255
197 222 255
197 222 255
197 222 255
197 222 255
197 222 255
197 222 255
197 222 255
197 222 255
197 222 255
197 222 255
197 222 255
197 222 255
197 222 255
197 222 255
197 222 255
197 222 255
197 222 255
197 222 255
197 222 255
197 222 255
197 222 255
197 222 255
197 222 255
197 222 255
197 222 255
197 222 255
197 222 255
197 222 255
197 223 255
198 223 255
198 223 255
198 223 255
198 223 255
198 223 255
198 223 255
198 223 255
198 223 255
198 223 255
198 223 255
198 223 255
198 223 255
198 223 255
198 223 255
198 223 255
198 223 255
198 223 255
198 223 255
198 223 255
199 223 255
199 223 255
199 223 255
199 223 255
199 223 255
199 223 255
199 223 255
199 223 255
199 223 255
199 223 255
199 223 255
199 223 255
199 223 255
199 224 255
199 224 255
200 224 255
200 224 255
200 224 255
200 224 255
200 224 255
200 224 255
200 224 255
200 224 255
200 224 255
200 224 255
200 224 255
200 224 255
200 224 255
200 224 255
200 224 255
200 224 255
201 224 255
201 224 255
201 224 255
201 224 255
201 224 255
201 224 255
201 224 255
201 224 255
201 224 255
201 224 255
201 225 255
201 225 255
201 225 255
201 225 255
202 225 255
202 225 255
202 225 255
202 225 255
202 225 255
202 225 255
202 225 255
202 225 255
202 225 255
202 225 255
202 225 255
202 225 255
202 225 255
202 225 255
202 225 255
203 225 255
203 225 255
203 225 255
203 225 255
203 225 255
203 225 255
203 225 255
203 225 255
203 226 255
203 226 255
203 226 255
203 226 255
203 226 255
203 226 255
203 226 255
204 226 255
204 226 255
204 226 255
204 226 255
204 226 255
204 226 255
204 226 255
204 226 255
204 226 255
204 226 255
204 226 255
204 226 255
204 226 255
204 226 255
204 226 255
204 226 255
204 226 255
205 226 255
205 226 255
205 226 255
205 226 255
205 226 255
205 226 255
205 227 255
205 227 255
205 227 255
205 227 255
205 227 255
205 227 255
205 227 255
205 227 255
205 227 255
205 227 255
205 227 255
206 227 255
206 227 255
206 227 255
206 227 255
206 227 255
206 227 255
206 227 255
206 227 255
206 227 255
206 227 255
206 227 255
206 227 255
206 227 255
206 227 255
206 227 255
206 227 255
206 227 255
206 227 255
206 227 255
207 227 255
207 227 255
207 227 255
207 227 255
207 227 255
207 228 255
207 228 255
207 228 255
207 228 255
207 228 255
207 228 255
207 228 255
207 228 255
207 228 255
207 228 255
207 228 255
207 228 255
207 228 255
207 227 255
207 227 255
207 227 255
207 227 255
207 227 255
206 227 255
206 227 255
206 227 255
206 227 255
206 227 255
206 227 255
206 227 255
206 227 255
206 227 255
206 227 255
206 227 255
206 227 255
206 227 255
206 227 255
206 227 255
206 227 255
206 227 255
206 227 255
206 227 255
205 227 255
205 227 255
205 227 255
205 227 255
205 227 255
205 227 255
205 227 255
205 227 255
205 227 255
205 227 255
205 226 255
205 226 255
205 226 255
205 226 255
205 226 255
205 226 255
205 226 255
204 226 255
204 226 255
204 226 255
204 226 255
204 226 255
204 226 255
204 226 255
204 226 255
204 226 255
204 226 255
204 226 255
204 226 255
204 226 255
204 226 255
204 226 255
204 226 255
203 226 255
203 226 255
203 226 255
203 226 255
203 226 255
203 226 255
203 226 255
203 225 255
203 225 255
203 225 255
203 225 255
203 225 255
203 225 255
203 225 255
203 225 255
202 225 255
202 225 255
202 225 255
202 225 255
202 225 255
202 225 255
202 225 255
202 225 255
202 225 255
202 225 255
202 225 255
202 225 255
202 225 255
202 225 255
202 225 255
201 225 255
201 225 255
201 225 255
201 225 255
201 225 255
201 224 255
201 224 255
201 224 255
201 224 255
201 224 255
201 224 255
201 224 255
201 224 255
201 224 255
201 224 255
200 224 255
200 224 255
200 224 255
200 224 255
200 224 255
200 224 255
200 224 255
200 224 255
200 224 255
200 224 255
200 224 255
200 224 255
200 224 255
200 224 255
200 224 255
199 224 255
199 224 255
199 224 255
199 223 255
199 223 255
199 223 255
199 223 255
199 223 255
199 223 255
199 223 255
199 223 255
199 223 255
199 223 255
199 223 255
199 223 255
199 223 255
198 223 255
198 223 255
198 223 255
198 223 255
198 223 255
198 223 255
198 223 255
198 223 255
198 223 255
198 223 255
198 223 255
198 223 255
198 223 255
198 223 255
198 223 255
198 223 255
198 223 255
198 223 255
198 223 255
198 223 255
197 223 255
197 222 255
197 222 255
197 222 255
197 222 255
197 222 255
197 222 255
197 222 255
197 222 255
197 222 255
197 222 255
197 222 255
197 222 255
197 222 255
197 222 255
197 222 255
197 222 255
197 222 255
197 222 255
197 222 255
197 222 255
197 222 255
197 222 255
197 222 255
197 222 255
197 222 255
197 222 255
197 222 255
197 222 255
197 222 255
197 222 255
197 222 255
197 222 255
197 222 255
197 222 255
197 222 255
197 222 255
197 222 255
197 222 255
197 222 255
197 222 255
197 222 255
197 222 255
197 222 255
197 222 255
197 222 255
197 222 255
197 222 255
197 222 255
197 222 255
197 222 255
197 222 255
197 222 255
197 222 255
197 222 255
197 222 255
197 222 255
197 222 255
197 222 255
197 222 255
197 222 255
197 222 255
197 222 255
197 222 255
197 222 255
197 222 255
197 222 255
197 222 255
197 222 255
197 222 255
197 222 255
197 222 255
197 222 255
197 222 255
197 222 255
197 222 255
197 222 255
197 223 255
198 223 255
198 223 255
198 223 255
198 223 255
198 223 255
198 223 255
198 223 255
198 223 255
198 223 255
198 223 255
198 223 255
198 223 255
198 223 255
198 223 255
198 223 255
198 223 255
198 223 255
198 223 255
198 223 255
198 223 255
199 223 255
199 223 255
199 223 255
199 223 255
199 223 255
199 223 255
199 223 255
199 223 255
199 223 255
199 223 255
199 223 255
199 223 255
199 223 255
199 224 255
199 224 255
199 224 255
200 224 255
200 224 255
200 224 255
200 224 255
200 224 255
200 224 255
200 224 255
200 224 255
200 224 255
200 224 255
200 224 255
200 224 255
200 224 255
200 224 255
200 224 255
201 224 255
201 224 255
201 224 255
201 224 255
201 224 255
201 224 255
201 224 255
201 224 255
201 224 255
201 224 255
201 225 255
201 225 255
201 225 255
201 225 255
201 225 255
202 225 255
202 225 255
202 225 255
202 225 255
202 225 255
202 225 255
202 225 255
202 225 255
202 225 255
202 225 255
202 225 255
202 225 255
202 225 255
202 225 255
202 225 255
203 225 255
203 225 255
203 225 255
203 225 255
203 225 255
203 225 255
203 225 255
203 225 255
203 226 255
203 226 255
203 226 255
203 226 255
203 226 255
203 226 255
203 226 255
204 226 255
204 226 255
204 226 255
204 226 255
204 226 255
204 226 255
204 226 255
204 226 255
204 226 255
204 226 255
204 226 255
204 226 255
204 226 255
204 226 255
204 226 255
204 226 255
205 226 255
205 226 255
205 226 255
205 226 255
205 226 255
205 226 255
205 226 255
205 227 255
205 227 255
205 227 255
205 227 255
205 227 255
205 227 255
205 227 255
205 227 255
205 227 255
205 227 255
206 227 255
206 227 255
206 227 255
206 227 255
206 227 255
206 227 255
206 227 255
206 227 255
206 227 255
206 227 255
206 227 255
206 227 255
206 227 255
206 227 255
206 227 255
206 227 255
206 227 255
206 227 255
206 227 255
207 227 255
207 227 255
207 227 255
207 227 255
207 227 255
207 228 255
207 228 255
207 228 255
207 228 255
207 228 255
207 228 255
207 228 255
207 228 255
207 228 255
207 228 255
207 228 255
207 228 255
207 228 255
207 228 255
207 228 255
207 228 255
207 228 255
207 228 255
207 228 255
207 227 255
207 227 255
207 227 255
207 227 255
207 227 255
206 227 255
206 227 255
206 227 255
206 227 255
206 227 255
206 227 255
206 227 255
206 227 255
206 227 255
206 227 255
206 227 255
206 227 255
206 227 255
206 227 255
206 227 255
206 227 255
206 227 255
206 227 255
205 227 255
205 227 255
205 227 255
205 227 255
205 227 255
205 227 255
205 227 255
205 227 255
205 227 255
205 227 255
205 227 255
205 226 255
205 226 255
205 226 255
205 226 255
205 226 255
205 226 255
205 226 255
204 226 255
204 226 255
204 226 255
204 226 255
204 226 255
204 226 255
204 226 255
204 226 255
204 226 255
204 226 255
204 226 255
204 226 255
204 226 255
204 226 255
204 226 255
204 226 255
203 226 255
203 226 255
203 226 255
203 226 255
203 226 255
203 226 255
203 225 255
203 225 255
203 225 255
203 225 255
203 225 255
203 225 255
203 225 255
203 225 255
203 225 255
202 225 255
202 225 255
202 225 255
202 225 255
202 225 255
202 225 255
202 225 255
202 225 255
202 225 255
202 225 255
202 225 255
202 225 255
202 225 255
202 225 255
202 225 255
201 225 255
201 225 255
201 225 255
201 225 255
201 224 255
201 224 255
201 224 255
201 224 255
201 224 255
201 224 255
201 224 255
201 224 255
201 224 255
201 224 255
200 224 255
200 224 255
200 224 255
200 224 255
200 224 255
200 224 255
200 224 255
200 224 255
200 224 255
200 224 255
200 224 255
200 224 255
200 224 255
200 224 255
200 224 255
200 224 255
199 224 255
199 224 255
199 223 255
199 223 255
199 223 255
199 223 255
199 223 255
199 223 255
199 223 255
199 223 255
199 223 255
199 223 255
199 223 255
199 223 255
199 223 255
199 223 255
198 223 255
198 223 255
198 223 255
198 223 255
198 223 255
198 223 255
198 223 255
198 223 255
198 223 255
198 223 255
198 223 255
198 223 255
198 223 255
198 223 255
198 223 255
198 223 255
198 223 255
198 223 255
198 223 255
198 223 255
198 223 255
197 223 255
197 222 255
197 222 255
197 222 255
197 222 255
197 222 255
197 222 255
197 222 255
197 222 255
197 222 255
197 222 255
197 222 255
197 222 255
197 222 255
197 222 255
197 222 255
197 222 255
197 222 255
197 222 255
197 222 255
197 222 255
197 222 255
197 222 255
197 222 255
197 222 255
197 222 255
197 222 255
197 222 255
197 222 255
197 222 255
197 222 255
197 222 255
197 222 255
197 222 255
197 222 255
197 222 255
197 222 255
197 222 255
197 222 255
197 222 255
197 222 255
197 222 255
197 222 255
197 222 255
197 222 255
197 222 255
197 222 255
197 222 255
197 222 255
197 222 255
197 222 255
197 222 255
197 222 255
197 222 255
197 222 255
197 222 255
197 222 255
197 222 255
197 222 255
197 222 255
197 222 255
197 222 255
197 222 255
197 222 255
197 222 255
197 222 255
197 222 255
197 222 255
197 222 255
197 223 255
198 223 255
198 223 255
198 223 255
198 223 255
198 223 255
198 223 255
198 223 255
198 223 255
198 223 255
198 223 255
198 223 255
198 223 255
198 223 255
198 223 255
198 223 255
198 223 255
198 223 255
198 223 255
198 223 255
198 223 255
199 223 255
199 223 255
199 223 255
199 223 255
199 223 255
199 223 255
199 223 255
199 223 255
199 223 255
199 223 255
199 223 255
199 223 255
199 223 255
199 223 255
199 223 255
199 224 255
199 224 255
200 224 255
200 224 255
200 224 255
200 224 255
200 224 255
200 224 255
200 224 255
200 224 255
200 224 255
200 224 255
200 224 255
200 224 255
200 224 255
200 224 255
200 224 255
201 224 255
201 224 255
201 224 255
201 224 255
201 224 255
201 224 255
201 224 255
201 224 255
201 224 255
201 224 255
201 224 255
201 225 255
201 225 255
201 225 255
201 225 255
202 225 255
202 225 255
202 225 255
202 225 255
202 225 255
202 225 255
202 225 255
202 225 255
202 225 255
202 225 255
202 225 255
202 225 255
202 225 255
202 225 255
202 225 255
203 225 255
203 225 255
203 225 255
203 225 255
203 225 255
203 225 255
203 225 255
203 225 255
203 225 255
203 226 255
203 226 255
203 226 255
203 226 255
203 226 255
203 226 255
204 226 255
204 226 255
204 226 255
204 226 255
204 226 255
204 226 255
204 226 255
204 226 255
204 226 255
204 226 255
204 226 255
204 226 255
204 226 255
204 226 255
204 226 255
204 226 255
204 226 255
205 226 255
205 226 255
205 226 255
205 226 255
205 226 255
205 226 255
205 227 255
205 227 255
205 227 255
205 227 255
205 227 255
205 227 255
205 227 255
205 227 255
205 227 255
205 227 255
205 227 255
206 227 255
206 227 255
206 227 255
206 227 255
206 227 255
206 227 255
206 227 255
206 227 255
206 227 255
206 227 255
206 227 255
206 227 255
206 227 255
206 227 255
206 227 255
206 227 255
206 227 255
206 227 255
207 227 255
207 227 255
207 227 255
207 227 255
207 227 255
207 228 255
207 228 255
207 228 255
207 228 255
207 228 255
207 228 255
207 228 255
207 228 255
207 228 255
207 228 255
207 228 255
207 228 255
207 228 255
207 228 255
207 228 255
207 228 255
207 228 255
207 228 255
207 228 255
207 228 255
207 228 255
207 228 255
207 228 255
207 228 255
207 228 255
207 227 255
207 227 255
207 227 255
207 227 255
206 227 255
206 227 255
206 227 255
206 227 255
206 227 255
206 227 255
206 227 255
206 227 255
206 227 255
206 227 255
206 227 255
206 227 255
206 227 255
206 227 255
206 227 255
206 227 255
206 227 255
206 227 255
206 227 255
205 227 255
205 227 255
205 227 255
205 227 255
205 227 255
205 227 255
205 227 255
205 227 255
205 227 255
205 227 255
205 226 255
205 226 255
205 226 255
205 226 255
205 226 255
205 226 255
205 226 255
204 226 255
204 226 255
204 226 255
204 226 255
204 226 255
204 226 255
204 226 255
204 226 255
204 226 255
204 226 255
204 226 255
204 226 255
204 226 255
204 226 255
204 226 255
204 226 255
203 226 255
203 226 255
203 226 255
203 226 255
203 226 255
203 226 255
203 226 255
203 225 255
203 225 255
203 225 255
203 225 255
203 225 255
203 225 255
203 225 255
203 225 255
202 225 255
202 225 255
202 225 255
202 225 255
202 225 255
202 225 255
202 225 255
202 225 255
202 225 255
202 225 255
202 225 255
202 225 255
202 225 255
202 225 255
202 225 255
201 225 255
201 225 255
201 225 255
201 225 255
201 225 255
201 224 255
201 224 255
201 224 255
201 224 255
201 224 255
201 224 255
201 224 255
201 224 255
201 224 255
201 224 255
200 224 255
200 224 255
200 224 255
200 224 255
200 224 255
200 224 255
200 224 255
200 224 255
200 224 255
200 224 255
200 224 255
200 224 255
200 224 255
200 224 255
200 224 255
200 224 255
199 224 255
199 224 255
199 223 255
199 223 255
199 223 255
199 223 255
199 223 255
199 223 255
199 223 255
199 223 255
199 223 255
199 223 255
199 223 255
199 223 255
199 223 255
199 223 255
199 223 255
198 223 255
198 223 255
198 223 255
198 223 255
198 223 255
198 223 255
198 223 255
198 223 255
198 223 255
198 223 255
198 223 255
198 223 255
198 223 255
198 223 255
198 223 255
198 223 255
198 223 255
198 223 255
198 223 255
198 223 255
198 223 255
198 223 255
197 223 255
197 222 255
197 222 255
197 222 255
197 222 255
197 222 255
197 222 255
197 222 255
197 222 255
197 222 255
197 222 255
197 222 255
197 222 255
197 222 255
197 222 255
197 222 255
197 222 255
197 222 255
197 222 255
197 222 255
197 222 255
197 222 255
197 222 255
197 222 255
197 222 255
197 222 255
197 222 255
197 222 255
197 222 255
197 222 255
197 222 255
197 222 255
197 222 255
197 222 255
197 222 255
197 222 255
197 222 255
197 222 255
197 222 255
197 222 255
197 222 255
197 222 255
197 222 255
197 222 255
197 222 255
197 222 255
197 222 255
197 222 255
197 222 255
197 222 255
197 222 255
197 222 255
197 222 255
197 222 255
197 222 255
197 222 255
197 222 255
197 222 255
197 222 255
197 223 255
198 223 255
198 223 255
198 223 255
198 223 255
198 223 255
198 223 255
198 223 255
198 223 255
198 223 255
198 223 255
198 223 255
198 223 255
198 223 255
198 223 255
198 223 255
198 223 255
198 223 255
198 223 255
198 223 255
198 223 255
198 223 255
198 223 255
199 223 255
199 223 255
199 223 255
199 223 255
199 223 255
199 223 255
199 223 255
199 223 255
199 223 255
199 223 255
199 223 255
199 223 255
199 223 255
199 223 255
199 223 255
199 224 255
199 224 255
200 224 255
200 224 255
200 224 255
200 224 255
200 224 255
200 224 255
200 224 255
200 224 255
200 224 255
200 224 255
200 224 255
200 224 255
200 224 255
200 224 255
200 224 255
200 224 255
201 224 255
201 224 255
201 224 255
201 224 255
201 224 255
201 224 255
201 224 255
201 224 255
201 224 255
201 224 255
201 225 255
201 225 255
201 225 255
201 225 255
201 225 255
202 225 255
202 225 255
202 225 255
202 225 255
202 225 255
202 225 255
202 225 255
202 225 255
202 225 255
202 225 255
202 225 255
202 225 255
202 225 255
202 225 255
202 225 255
203 225 255
203 225 255
203 225 255
203 225 255
203 225 255
203 225 255
203 225 255
203 225 255
203 226 255
203 226 255
203 226 255
203 226 255
203 226 255
203 226 255
203 226 255
204 226 255
204 226 255
204 226 255
204 226 255
204 226 255
204 226 255
204 226 255
204 226 255
204 226 255
204 226 255
204 226 255
204 226 255
204 226 255
204 226 255
204 226 255
204 226 255
205 226 255
205 226 255
205 226 255
205 226 255
205 226 255
205 226 255
205 226 255
205 227 255
205 227 255
205 227 255
205 227 255
205 227 255
205 227 255
205 227 255
205 227 255
205 227 255
205 227 255
206 227 255
206 227 255
206 227 255
206 227 255
206 227 255
206 227 255
206 227 255
206 227 255
206 227 255
206 227 255
206 227 255
206 227 255
206 227 255
206 227 255
206 227 255
206 227 255
206 227 255
206 227 255
206 227 255
207 227 255
207 227 255
207 227 255
207 227 255
207 228 255
207 228 255
207 228 255
207 228 255
207 228 255
207 228 255
207 228 255
207 228 255
207 228 255
207 228 255
207 228 255
207 228 255
207 228 255
207 228 255
208 228 255
207 228 255
207 228 255
207 228 255
207 228 255
207 228 255
207 228 255
207 228 255
207 228 255
207 228 255
207 228 255
207 228 255
207 228 255
207 228 255
207 228 255
207 228 255
207 228 255
207 227 255
207 227 255
207 227 255
207 227 255
206 227 255
206 227 255
206 227 255
206 227 255
206 227 255
206 227 255
206 227 255
206 227 255
206 227 255
206 227 255
206 227 255
206 227 255
206 227 255
206 227 255
206 227 255
206 227 255
206 227 255
206 227 255
206 227 255
205 227 255
205 227 255
205 227 255
205 227 255
205 227 255
205 227 255
205 227 255
205 227 255
205 227 255
205 227 255
205 226 255
205 226 255
205 226 255
205 226 255
205 226 255
205 226 255
205 226 255
204 226 255
204 226 255
204 226 255
204 226 255
204 226 255
204 226 255
204 226 255
204 226 255
204 226 255
204 226 255
204 226 255
204 226 255
204 226 255
204 226 255
204 226 255
204 226 255
203 226 255
203 226 255
203 226 255
203 226 255
203 226 255
203 226 255
203 226 255
203 225 255
203 225 255
203 225 255
203 225 255
203 225 255
203 225 255
203 225 255
203 225 255
202 225 255
202 225 255
202 225 255
202 225 255
202 225 255
202 225 255
202 225 255
202 225 255
202 225 255
202 225 255
202 225 255
202 225 255
202 225 255
202 225 255
202 225 255
201 225 255
201 225 255
201 225 255
201 225 255
201 224 255
201 224 255
201 224 255
201 224 255
201 224 255
201 224 255
201 224 255
201 224 255
201 224 255
201 224 255
201 224 255
200 224 255
200 224 255
200 224 255
200 224 255
200 224 255
200 224 255
200 224 255
200 224 255
200 224 255
200 224 255
200 224 255
200 224 255
200 224 255
200 224 255
200 224 255
200 224 255
199 224 255
199 224 255
199 223 255
199 223 255
199 223 255
199 223 255
199 223 255
199 223 255
199 223 255
199 223 255
199 223 255
199 223 255
199 223 255
199 223 255
199 223 255
199 223 255
199 223 255
198 223 255
198 223 255
198 223 255
198 223 255
198 223 255
198 223 255
198 223 255
198 223 255
198 223 255
198 223 255
198 223 255
198 223 255
198 223 255
198 223 255
198 223 255
198 223 255
198 223 255
198 223 255
198 223 255
198 223 255
198 223 255
198 223 255
198 223 255
198 223 255
197 223 255
197 222 255
197 222 255
197 222 255
197 222 255
197 222 255
197 222 255
197 222 255
197 222 255
197 222 255
197 222 255
197 222 255
197 222 255
197 222 255
197 222 255
197 222 255
197 222 255
197 222 255
197 222 255
197 222 255
197 222 255
197 222 255
197 222 255
197 222 255
197 222 255
197 222 255
197 222 255
197 222 255
197 222 255
197 222 255
197 222 255
197 222 255
197 222 255
197 222 255
197 222 255
197 222 255
197 222 255
197 222 255
197 222 255
197 222 255
197 222 255
197 222 255
197 222 255
197 222 255
197 222 255
197 222 255
197 222 255
197 222 255
197 222 255
197 223 255
198 223 255
198 223 255
198 223 255
198 223 255
198 223 255
198 223 255
198 223 255
198 223 255
198 223 255
198 223 255
198 223 255
198 223 255
198 223 255
198 223 255
198 223 255
198 223 255
198 223 255
198 223 255
198 223 255
198 223 255
198 223 255
198 223 255
198 223 255
198 223 255
199 223 255
199 223 255
199 223 255
199 223 255
199 223 255
199 223 255
199 223 255
199 223 255
199 223 255
199 223 255
199 223 255
199 223 255
199 223 255
199 223 255
199 223 255
199 224 255
199 224 255
199 224 255
200 224 255
200 224 255
200 224 255
200 224 255
200 224 255
200 224 255
200 224 255
200 224 255
200 224 255
200 224 255
200 224 255
200 224 255
200 224 255
200 224 255
200 224 255
201 224 255
201 224 255
201 224 255
201 224 255
201 224 255
201 224 255
201 224 255
201 224 255
201 224 255
201 224 255
201 224 255
201 225 255
201 225 255
201 225 255
201 225 255
202 225 255
202 225 255
202 225 255
202 225 255
202 225 255
202 225 255
202 225 255
202 225 255
202 225 255
202 225 255
202 225 255
202 225 255
202 225 255
202 225 255
202 225 255
203 225 255
203 225 255
203 225 255
203 225 255
203 225 255
203 225 255
203 225 255
203 225 255
203 226 255
203 226 255
203 226 255
203 226 255
203 226 255
203 226 255
203 226 255
204 226 255
204 226 255
204 226 255
204 226 255
204 226 255
204 226 255
204 226 255
204 226 255
204 226 255
204 226 255
204 226 255
204 226 255
204 226 255
204 226 255
204 226 255
204 226 255
205 226 255
205 226 255
205 226 255
205 226 255
205 226 255
205 226 255
205 226 255
205 227 255
205 227 255
205 227 255
205 227 255
205 227 255
205 227 255
205 227 255
205 227 255
205 227 255
205 227 255
206 227 255
206 227 255
206 227 255
206 227 255
206 227 255
206 227 255
206 227 255
206 227 255
206 227 255
206 227 255
206 227 255
206 227 255
206 227 255
206 227 255
206 227 255
206 227 255
206 227 255
206 227 255
206 227 255
207 227 255
207 227 255
207 227 255
207 227 255
207 227 255
207 228 255
207 228 255
207 228 255
207 228 255
207 228 255
207 228 255
207 228 255
207 228 255
207 228 255
207 228 255
207 228 255
207 228 255
207 228 255
207 228 255
207 228 255
208 228 255
208 228 255
208 228 255
208 228 255
208 228 255
207 228 255
207 228 255
207 228 255
207 228 255
207 228 255
207 228 255
207 228 255
207 228 255
207 228 255
207 228 255
207 228 255
207 228 255
207 228 255
207 228 255
207 228 255
207 227 255
207 227 255
207 227 255
207 227 255
207 227 255
206 227 255
206 227 255
206 227 255
206 227 255
206 227 255
206 227 255
206 227 255
206 227 255
206 227 255
206 227 255
206 227 255
206 227 255
206 227 255
206 227 255
206 227 255
206 227 255
206 227 255
206 227 255
205 227 255
205 227 255
205 227 255
205 227 255
205 227 255
205 227 255
205 227 255
205 227 255
205 227 255
205 227 255
205 227 255
205 226 255
205 226 255
205 226 255
205 226 255
205 226 255
205 226 255
204 226 255
204 226 255
204 226 255
204 226 255
204 226 255
204 226 255
204 226 255
204 226 255
204 226 255
204 226 255
204 226 255
204 226 255
204 226 255
204 226 255
204 226 255
204 226 255
203 226 255
203 226 255
203 226 255
203 226 255
203 226 255
203 226 255
203 226 255
203 225 255
203 225 255
203 225 255
203 225 255
203 225 255
203 225 255
203 225 255
203 225 255
202 225 255
202 225 255
202 225 255
202 225 255
202 225 255
202 225 255
202 225 255
202 225 255
202 225 255
202 225 255
202 225 255
202 225 255
202 225 255
202 225 255
202 225 255
202 225 255
201 225 255
201 225 255
201 225 255
201 225 255
201 224 255
201 224 255
201 224 255
201 224 255
201 224 255
201 224 255
201 224 255
201 224 255
201 224 255
201 224 255
201 224 255
200 224 255
200 224 255
200 224 255
200 224 255
200 224 255
200 224 255
200 224 255
200 224 255
200 224 255
200 224 255
200 224 255
200 224 255
200 224 255
200 224 255
200 224 255
199 224 255
199 224 255
199 224 255
199 223 255
199 223 255
199 223 255
199 223 255
199 223 255
199 223 255
199 223 255
199 223 255
199 223 255
199 223 255
199 223 255
199 223 255
199 223 255
199 223 255
199 223 255
199 223 255
198 223 255
198 223 255
198 223 255
198 223 255
198 223 255
198 223 255
198 223 255
198 223 255
198 223 255
198 223 255
198 223 255
198 223 255
198 223 255
198 223 255
198 223 255
198 223 255
198 223 255
198 223 255
198 223 255
198 223 255
198 223 255
198 223 255
198 223 255
198 223 255
198 223 255
198 223 255
198 223 255
198 223 255
197 223 255
197 222 255
197 222 255
197 222 255
197 222 255
197 222 255
197 222 255
197 222 255
197 222 255
197 222 255
197 222 255
197 222 255
197 222 255
197 222 255
197 222 255
197 222 255
197 222 255
197 222 255
197 222 255
197 222 255
197 222 255
197 222 255
197 222 255
197 222 255
197 222 255
197 222 255
197 222 255
197 222 255
197 222 255
197 222 255
197 222 255
197 222 255
197 222 255
197 223 255
197 223 255
198 223 255
198 223 255
198 223 255
198 223 255
198 223 255
198 223 255
198 223 255
198 223 255
198 223 255
198 223 255
198 223 255
198 223 255
198 223 255
198 223 255
198 223 255
198 223 255
198 223 255
198 223 255
198 223 255
198 223 255
198 223 255
198 223 255
198 223 255
198 223 255
198 223 255
198 223 255
198 223 255
199 223 255
199 223 255
199 223 255
199 223 255
199 223 255
199 223 255
199 223 255
199 223 255
199 223 255
199 223 255
199 223 255
199 223 255
199 223 255
199 223 255
199 223 255
199 223 255
199 224 255
199 224 255
199 224 255
200 224 255
200 224 255
200 224 255
200 224 255
200 224 255
200 224 255
200 224 255
200 224 255
200 224 255
200 224 255
200 224 255
200 224 255
200 224 255
200 224 255
200 224 255
201 224 255
201 224 255
201 224 255
201 224 255
201 224 255
201 224 255
201 224 255
201 224 255
201 224 255
201 224 255
201 224 255
201 225 255
201 225 255
201 225 255
201 225 255
202 225 255
202 225 255
202 225 255
202 225 255
202 225 255
202 225 255
202 225 255
202 225 255
202 225 255
202 225 255
202 225 255
202 225 255
202 225 255
202 225 255
202 225 255
203 225 255
203 225 255
203 225 255
203 225 255
203 225 255
203 225 255
203 225 255
203 225 255
203 225 255
203 226 255
203 226 255
203 226 255
203 226 255
203 226 255
203 226 255
203 226 255
204 226 255
204 226 255
204 226 255
204 226 255
204 226 255
204 226 255
204 226 255
204 226 255
204 226 255
204 226 255
204 226 255
204 226 255
204 226 255
204 226 255
204 226 255
204 226 255
205 226 255
205 226 255
205 226 255
205 226 255
205 226 255
205 226 255
205 227 255
205 227 255
205 227 255
205 227 255
205 227 255
205 227 255
205 227 255
205 227 255
205 227 255
205 227 255
206 227 255
206 227 255
206 227 255
206 227 255
206 227 255
206 227 255
206 227 255
206 227 255
206 227 255
206 227 255
206 227 255
206 227 255
206 227 255
206 227 255
206 227 255
206 227 255
206 227 255
206 227 255
206 227 255
207 227 255
207 227 255
207 227 255
207 227 255
207 227 255
207 228 255
207 228 255
207 228 255
207 228 255
207 228 255
207 228 255
207 228 255
207 228 255
207 228 255
207 228 255
207 228 255
207 228 255
207 228 255
207 228 255
207 228 255
208 228 255
208 228 255
208 228 255
208 228 255
208 228 255
208 228 255
208 228 255
208 228 255
208 228 255
208 228 255
208 228 255
207 228 255
207 228 255
207 228 255
207 228 255
207 228 255
207 228 255
207 228 255
207 228 255
207 228 255
207 228 255
207 228 255
207 228 255
207 228 255
207 228 255
207 228 255
207 228 255
207 227 255
207 227 255
207 227 255
207 227 255
206 227 255
206 227 255
206 227 255
206 227 255
206 227 255
206 227 255
206 227 255
206 227 255
206 227 255
206 227 255
206 227 255
206 227 255
206 227 255
206 227 255
206 227 255
206 227 255
206 227 255
206 227 255
205 227 255
205 227 255
205 227 255
205 227 255
205 227 255
205 227 255
205 227 255
205 227 255
205 227 255
205 227 255
205 226 255
205 226 255
205 226 255
205 226 255
205 226 255
205 226 255
205 226 255
204 226 255
204 226 255
204 226 255
204 226 255
204 226 255
204 226 255
204 226 255
204 226 255
204 226 255
204 226 255
204 226 255
204 226 255
204 226 255
204 226 255
204 226 255
204 226 255
203 226 255
203 226 255
203 226 255
203 226 255
203 226 255
203 226 255
203 226 255
203 225 255
203 225 255
203 225 255
203 225 255
203 225 255
203 225 255
203 225 255
203 225 255
202 225 255
202 225 255
202 225 255
202 225 255
202 225 255
202 225 255
202 225 255
202 225 255
202 225 255
202 225 255
202 225 255
202 225 255
202 225 255
202 225 255
202 225 255
201 225 255
201 225 255
201 225 255
201 225 255
201 225 255
201 224 255
201 224 255
201 224 255
201 224 255
201 224 255
201 224 255
201 224 255
201 224 255
201 224 255
201 224 255
200 224 255
200 224 255
200 224 255
200 224 255
200 224 255
200 224 255
200 224 255
200 224 255
200 224 255
200 224 255
200 224 255
200 224 255
200 224 255
200 224 255
200 224 255
200 224 255
199 224 255
199 224 255
199 224 255
199 223 255
199 223 255
199 223 255
199 223 255
199 223 255
199 223 255
199 223 255
199 223 255
199 223 255
199 223 255
199 223 255
199 223 255
199 223 255
199 223 255
199 223 255
199 223 255
199 223 255
198 223 255
198 223 255
198 223 255
198 223 255
198 223 255
198 223 255
198 223 255
198 223 255
198 223 255
198 223 255
198 223 255
198 223 255
198 223 255
198 223 255
198 223 255
198 223 255
198 223 255
198 223 255
198 223 255
198 223 255
198 223 255
198 223 255
198 223 255
198 223 255
198 223 255
198 223 255
198 223 255
198 223 255
198 223 255
198 223 255
198 223 255
198 223 255
198 223 255
198 223 255
198 223 255
198 223 255
198 223 255
198 223 255
197 223 255
197 223 255
198 223 255
197 223 255
198 223 255
198 223 255
197 223 255
198 223 255
198 223 255
198 223 255
198 223 255
198 223 255
198 223 255
198 223 255
198 223 255
198 223 255
198 223 255
198 223 255
198 223 255
198 223 255
198 223 255
198 223 255
198 223 255
198 223 255
198 223 255
198 223 255
198 223 255
198 223 255
198 223 255
198 223 255
198 223 255
198 223 255
198 223 255
198 223 255
198 223 255
198 223 255
198 223 255
198 223 255
198 223 255
198 223 255
198 223 255
198 223 255
198 223 255
198 223 255
199 223 255
199 223 255
199 223 255
199 223 255
199 223 255
199 223 255
199 223 255
199 223 255
199 223 255
199 223 255
199 223 255
199 223 255
199 223 255
199 223 255
199 223 255
199 223 255
199 223 255
199 224 255
199 224 255
200 224 255
200 224 255
200 224 255
200 224 255
200 224 255
200 224 255
200 224 255
200 224 255
200 224 255
200 224 255
200 224 255
200 224 255
200 224 255
200 224 255
200 224 255
200 224 255
200 224 255
201 224 255
201 224 255
201 224 255
201 224 255
201 224 255
201 224 255
201 224 255
201 224 255
201 224 255
201 224 255
201 225 255
201 225 255
201 225 255
201 225 255
201 225 255
202 225 255
202 225 255
202 225 255
202 225 255
202 225 255
202 225 255
202 225 255
202 225 255
202 225 255
202 225 255
202 225 255
202 225 255
202 225 255
202 225 255
202 225 255
203 225 255
203 225 255
203 225 255
203 225 255
203 225 255
203 225 255
203 225 255
203 225 255
203 226 255
203 226 255
203 226 255
203 226 255
203 226 255
203 226 255
203 226 255
204 226 255
204 226 255
204 226 255
204 226 255
204 226 255
204 226 255
204 226 255
204 226 255
204 226 255
204 226 255
204 226 255
204 226 255
204 226 255
204 226 255
204 226 255
204 226 255
205 226 255
205 226 255
205 226 255
205 226 255
205 226 255
205 226 255
205 226 255
205 227 255
205 227 255
205 227 255
205 227 255
205 227 255
205 227 255
205 227 255
205 227 255
205 227 255
205 227 255
206 227 255
206 227 255
206 227 255
206 227 255
206 227 255
206 227 255
206 227 255
206 227 255
206 227 255
206 227 255
206 227 255
206 227 255
206 227 255
206 227 255
206 227 255
206 227 255
206 227 255
206 227 255
207 227 255
207 227 255
207 227 255
207 227 255
207 227 255
207 228 255
207 228 255
207 228 255
207 228 255
207 228 255
207 228 255
207 228 255
207 228 255
207 228 255
207 228 255
207 228 255
207 228 255
207 228 255
207 228 255
207 228 255
208 228 255
208 228 255
208 228 255
208 228 255
208 228 255
208 228 255
208 228 255
208 228 255
208 228 255
208 228 255
208 228 255
208 228 255
208 228 255
208 228 255
208 228 255
208 228 255
208 228 255
207 228 255
207 228 255
207 228 255
207 228 255
207 228 255
207 228 255
207 228 255
207 228 255
207 228 255
207 228 255
207 228 255
207 228 255
207 228 255
207 228 255
207 228 255
207 227 255
207 227 255
207 227 255
207 227 255
207 227 255
206 227 255
206 227 255
206 227 255
206 227 255
206 227 255
206 227 255
206 227 255
206 227 255
206 227 255
206 227 255
206 227 255
206 227 255
206 227 255
206 227 255
206 227 255
206 227 255
206 227 255
206 227 255
205 227 255
205 227 255
205 227 255
205 227 255
205 227 255
205 227 255
205 227 255
205 227 255
205 227 255
205 227 255
205 226 255
205 226 255
205 226 255
205 226 255
205 226 255
205 226 255
205 226 255
204 226 255
204 226 255
204 226 255
204 226 255
204 226 255
204 226 255
204 226 255
204 226 255
204 226 255
204 226 255
204 226 255
204 226 255
204 226 255
204 226 255
204 226 255
204 226 255
203 226 255
203 226 255
203 226 255
203 226 255
203 226 255
203 226 255
203 225 255
203 225 255
203 225 255
203 225 255
203 225 255
203 225 255
203 225 255
203 225 255
203 225 255
202 225 255
202 225 255
202 225 255
202 225 255
202 225 255
202 225 255
202 225 255
202 225 255
202 225 255
202 225 255
202 225 255
202 225 255
202 225 255
202 225 255
202 225 255
201 225 255
201 225 255
201 225 255
201 225 255
201 224 255
201 224 255
201 224 255
201 224 255
201 224 255
201 224 255
201 224 255
201 224 255
201 224 255
201 224 255
201 224 255
200 224 255
200 224 255
200 224 255
200 224 255
200 224 255
200 224 255
200 224 255
200 224 255
200 224 255
200 224 255
200 224 255
200 224 255
200 224 255
200 224 255
200 224 255
200 224 255
200 224 255
199 224 255
199 224 255
199 224 255
199 223 255
199 223 255
199 223 255
199 223 255
199 223 255
199 223 255
199 223 255
199 223 255
199 223 255
199 223 255
199 223 255
199 223 255
199 223 255
199 223 255
199 223 255
199 223 255
199 223 255
198 223 255
198 223 255
198 223 255
198 223 255
198 223 255
198 223 255
198 223 255
198 223 255
198 223 255
198 223 255
198 223 255
198 223 255
198 223 255
198 223 255
198 223 255
198 223 255
198 223 255
198 223 255
198 223 255
198 223 255
198 223 255
198 223 255
198 223 255
198 223 255
198 223 255
198 223 255
198 223 255
198 223 255
198 223 255
198 223 255
198 223 255
198 223 255
198 223 255
198 223 255
198 223 255
198 223 255
198 223 255
198 223 255
198 223 255
198 223 255
198 223 255
198 223 255
198 223 255
198 223 255
198 223 255
198 223 255
198 223 255
198 223 255
198 223 255
198 223 255
198 223 255
198 223 255
198 223 255
198 223 255
198 223 255
198 223 255
198 223 255
198 223 255
198 223 255
198 223 255
198 223 255
198 223 255
198 223 255
198 223 255
198 223 255
198 223 255
198 223 255
198 223 255
198 223 255
198 223 255
198 223 255
198 223 255
198 223 255
198 223 255
199 223 255
199 223 255
199 223 255
199 223 255
199 223 255
199 223 255
199 223 255
199 223 255
199 223 255
199 223 255
199 223 255
199 223 255
199 223 255
199 223 255
199 223 255
199 223 255
199 223 255
199 224 255
199 224 255
199 224 255
200 224 255
200 224 255
200 224 255
200 224 255
200 224 255
200 224 255
200 224 255
200 224 255
200 224 255
200 224 255
200 224 255
200 224 255
200 224 255
200 224 255
200 224 255
200 224 255
200 224 255
201 224 255
201 224 255
201 224 255
201 224 255
201 224 255
201 224 255
201 224 255
201 224 255
201 224 255
201 224 255
201 224 255
201 225 255
201 225 255
201 225 255
201 225 255
202 225 255
202 225 255
202 225 255
202 225 255
202 225 255
202 225 255
202 225 255
202 225 255
202 225 255
202 225 255
202 225 255
202 225 255
202 225 255
202 225 255
202 225 255
203 225 255
203 225 255
203 225 255
203 225 255
203 225 255
203 225 255
203 225 255
203 225 255
203 225 255
203 226 255
203 226 255
203 226 255
203 226 255
203 226 255
203 226 255
204 226 255
204 226 255
204 226 255
204 226 255
204 226 255
204 226 255
204 226 255
204 226 255
204 226 255
204 226 255
204 226 255
204 226 255
204 226 255
204 226 255
204 226 255
204 226 255
205 226 255
205 226 255
205 226 255
205 226 255
205 226 255
205 226 255
205 226 255
205 227 255
205 227 255
205 227 255
205 227 255
205 227 255
205 227 255
205 227 255
205 227 255
205 227 255
205 227 255
206 227 255
206 227 255
206 227 255
206 227 255
206 227 255
206 227 255
206 227 255
206 227 255
206 227 255
206 227 255
206 227 255
206 227 255
206 227 255
206 227 255
206 227 255
206 227 255
206 227 255
206 227 255
207 227 255
207 227 255
207 227 255
207 227 255
207 227 255
207 228 255
207 228 255
207 228 255
207 228 255
207 228 255
207 228 255
207 228 255
207 228 255
207 228 255
207 228 255
207 228 255
207 228 255
207 228 255
207 228 255
207 228 255
208 228 255
208 228 255
208 228 255
208 228 255
208 228 255
208 228 255
208 228 255
208 228 255
208 228 255
208 228 255
208 228 255
208 228 255
208 228 255
208 228 255
208 228 255
208 228 255
208 228 255
208 228 255
208 228 255
208 228 255
208 228 255
208 228 255
208 228 255
207 228 255
207 228 255
207 228 255
207 228 255
207 228 255
207 228 255
207 228 255
207 228 255
207 228 255
207 228 255
207 228 255
207 228 255
207 228 255
207 228 255
207 228 255
207 227 255
207 227 255
207 227 255
207 227 255
207 227 255
206 227 255
206 227 255
206 227 255
206 227 255
206 227 255
206 227 255
206 227 255
206 227 255
206 227 255
206 227 255
206 227 255
206 227 255
206 227 255
206 227 255
206 227 255
206 227 255
206 227 255
206 227 255
205 227 255
205 227 255
205 227 255
205 227 255
205 227 255
205 227 255
205 227 255
205 227 255
205 227 255
205 227 255
205 226 255
205 226 255
205 226 255
205 226 255
205 226 255
205 226 255
204 226 255
204 226 255
204 226 255
204 226 255
204 226 255
204 226 255
204 226 255
204 226 255
204 226 255
204 226 255
204 226 255
204 226 255
204 226 255
204 226 255
204 226 255
204 226 255
203 226 255
203 226 255
203 226 255
203 226 255
203 226 255
203 226 255
203 226 255
203 225 255
203 225 255
203 225 255
203 225 255
203 225 255
203 225 255
203 225 255
203 225 255
202 225 255
202 225 255
202 225 255
202 225 255
202 225 255
202 225 255
202 225 255
202 225 255
202 225 255
202 225 255
202 225 255
202 225 255
202 225 255
202 225 255
202 225 255
202 225 255
201 225 255
201 225 255
201 225 255
201 225 255
201 224 255
201 224 255
201 224 255
201 224 255
201 224 255
201 224 255
201 224 255
201 224 255
201 224 255
201 224 255
201 224 255
200 224 255
200 224 255
200 224 255
200 224 255
200 224 255
200 224 255
200 224 255
200 224 255
200 224 255
200 224 255
200 224 255
200 224 255
200 224 255
200 224 255
200 224 255
200 224 255
200 224 255
199 224 255
199 224 255
199 224 255
199 223 255
199 223 255
199 223 255
199 223 255
199 223 255
199 223 255
199 223 255
199 223 255
199 223 255
199 223 255
199 223 255
199 223 255
199 223 255
199 223 255
199 223 255
199 223 255
199 223 255
199 223 255
199 223 255
198 223 255
198 223 255
198 223 255
198 223 255
198 223 255
198 223 255
198 223 255
198 223 255
198 223 255
198 223 255
198 223 255
198 223 255
198 223 255
198 223 255
198 223 255
198 223 255
198 223 255
198 223 255
198 223 255
198 223 255
198 223 255
198 223 255
198 223 255
198 223 255
198 223 255
198 223 255
198 223 255
198 223 255
198 223 255
198 223 255
198 223 255
198 223 255
198 223 255
198 223 255
198 223 255
198 223 255
198 223 255
198 223 255
198 223 255
198 223 255
198 223 255
198 223 255
198 223 255
198 223 255
198 223 255
198 223 255
198 223 255
198 223 255
198 223 255
198 223 255
198 223 255
198 223 255
198 223 255
198 223 255
198 223 255
198 223 255
198 223 255
198 223 255
198 223 255
198 223 255
198 223 255
198 223 255
198 223 255
198 223 255
199 223 255
199 223 255
199 223 255
199 223 255
199 223 255
199 223 255
199 223 255
199 223 255
199 223 255
199 223 255
199 223 255
199 223 255
199 223 255
199 223 255
199 223 255
199 223 255
199 223 255
199 223 255
199 223 255
199 224 255
199 224 255
199 224 255
200 224 255
200 224 255
200 224 255
200 224 255
200 224 255
200 224 255
200 224 255
200 224 255
200 224 255
200 224 255
200 224 255
200 224 255
200 224 255
200 224 255
200 224 255
200 224 255
200 224 255
201 224 255
201 224 255
201 224 255
201 224 255
201 224 255
201 224 255
201 224 255
201 224 255
201 224 255
201 224 255
201 224 255
201 225 255
201 225 255
201 225 255
201 225 255
202 225 255
202 225 255
202 225 255
202 225 255
202 225 255
202 225 255
202 225 255
202 225 255
202 225 255
202 225 255
202 225 255
202 225 255
202 225 255
202 225 255
202 225 255
203 225 255
203 225 255
203 225 255
203 225 255
203 225 255
203 225 255
203 225 255
203 225 255
203 225 255
203 226 255
203 226 255
203 226 255
203 226 255
203 226 255
203 226 255
203 226 255
204 226 255
204 226 255
204 226 255
204 226 255
204 226 255
204 226 255
204 226 255
204 226 255
204 226 255
204 226 255
204 226 255
204 226 255
204 226 255
204 226 255
204 226 255
204 226 255
205 226 255
205 226 255
205 226 255
205 226 255
205 226 255
205 226 255
205 227 255
205 227 255
205 227 255
205 227 255
205 227 255
205 227 255
205 227 255
205 227 255
205 227 255
205 227 255
206 227 255
206 227 255
206 227 255
206 227 255
206 227 255
206 227 255
206 227 255
206 227 255
206 227 255
206 227 255
206 227 255
206 227 255
206 227 255
206 227 255
206 227 255
206 227 255
206 227 255
206 227 255
207 227 255
207 227 255
207 227 255
207 227 255
207 227 255
207 228 255
207 228 255
207 228 255
207 228 255
207 228 255
207 228 255
207 228 255
207 228 255
207 228 255
207 228 255
207 228 255
207 228 255
207 228 255
207 228 255
207 228 255
208 228 255
208 228 255
208 228 255
208 228 255
208 228 255
208 228 255
208 228 255
208 228 255
208 228 255
208 228 255
208 228 255
208 228 255
208 228 255
208 228 255
208 228 255
208 228 255
208 228 255
208 228 255
208 228 255
208 228 255
208 228 255
208 228 255
208 228 255
208 228 255
208 228 255
208 228 255
208 228 255
208 228 255
208 228 255
207 228 255
207 228 255
207 228 255
207 228 255
207 228 255
207 228 255
207 228 255
207 228 255
207 228 255
207 228 255
207 228 255
207 228 255
207 228 255
207 228 255
207 228 255
207 227 255
207 227 255
207 227 255
207 227 255
207 227 255
206 227 255
206 227 255
206 227 255
206 227 255
206 227 255
206 227 255
206 227 255
206 227 255
206 227 255
206 227 255
206 227 255
206 227 255
206 227 255
206 227 255
206 227 255
206 227 255
206 227 255
205 227 255
205 227 255
205 227 255
205 227 255
205 227 255
205 227 255
205 227 255
205 227 255
205 227 255
205 227 255
205 227 255
205 226 255
205 226 255
205 226 255
205 226 255
205 226 255
205 226 255
204 226 255
204 226 255
204 226 255
204 226 255
204 226 255
204 226 255
204 226 255
204 226 255
204 226 255
204 226 255
204 226 255
204 226 255
204 226 255
204 226 255
204 226 255
204 226 255
203 226 255
203 226 255
203 226 255
203 226 255
203 226 255
203 226 255
203 226 255
203 225 255
203 225 255
203 225 255
203 225 255
203 225 255
203 225 255
203 225 255
203 225 255
202 225 255
202 225 255
202 225 255
202 225 255
202 225 255
202 225 255
202 225 255
202 225 255
202 225 255
202 225 255
202 225 255
202 225 255
202 225 255
202 225 255
202 225 255
201 225 255
201 225 255
201 225 255
201 225 255
201 225 255
201 224 255
201 224 255
201 224 255
201 224 255
201 224 255
201 224 255
201 224 255
201 224 255
201 224 255
201 224 255
201 224 255
200 224 255
200 224 255
200 224 255
200 224 255
200 224 255
200 224 255
200 224 255
200 224 255
200 224 255
200 224 255
200 224 255
200 224 255
200 224 255
200 224 255
200 224 255
200 224 255
200 224 255
200 224 255
199 224 255
199 224 255
199 224 255
199 223 255
199 223 255
199 223 255
199 223 255
199 223 255
199 223 255
199 223 255
199 223 255
199 223 255
199 223 255
199 223 255
199 223 255
199 223 255
199 223 255
199 223 255
199 223 255
199 223 255
199 223 255
199 223 255
199 223 255
198 223 255
198 223 255
198 223 255
198 223 255
198 223 255
198 223 255
198 223 255
198 223 255
198 223 255
198 223 255
198 223 255
198 223 255
198 223 255
198 223 255
198 223 255
198 223 255
198 223 255
198 223 255
198 223 255
198 223 255
198 223 255
198 223 255
198 223 255
198 223 255
198 223 255
198 223 255
198 223 255
198 223 255
198 223 255
198 223 255
198 223 255
198 223 255
198 223 255
198 223 255
198 223 255
198 223 255
198 223 255
198 223 255
198 223 255
198 223 255
198 223 255
198 223 255
198 223 255
198 223 255
198 223 255
198 223 255
198 223 255
198 223 255
198 223 255
198 223 255
198 223 255
198 223 255
198 223 255
198 223 255
199 223 255
199 223 255
199 223 255
199 223 255
199 223 255
199 223 255
199 223 255
199 223 255
199 223 255
199 223 255
199 223 255
199 223 255
199 223 255
199 223 255
199 223 255
199 223 255
199 223 255
199 223 255
199 223 255
199 223 255
199 224 255
199 224 255
199 224 255
200 224 255
200 224 255
200 224 255
200 224 255
200 224 255
200 224 255
200 224 255
200 224 255
200 224 255
200 224 255
200 224 255
200 224 255
200 224 255
200 224 255
200 224 255
200 224 255
200 224 255
200 224 255
201 224 255
201 224 255
201 224 255
201 224 255
201 224 255
201 224 255
201 224 255
201 224 255
201 224 255
201 224 255
201 224 255
201 225 255
201 225 255
201 225 255
201 225 255
201 225 255
202 225 255
202 225 255
202 225 255
202 225 255
202 225 255
202 225 255
202 225 255
202 225 255
202 225 255
202 225 255
202 225 255
202 225 255
202 225 255
202 225 255
202 225 255
203 225 255
203 225 255
203 225 255
203 225 255
203 225 255
203 225 255
203 225 255
203 225 255
203 226 255
203 226 255
203 226 255
203 226 255
203 226 255
203 226 255
203 226 255
204 226 255
204 226 255
204 226 255
204 226 255
204 226 255
204 226 255
204 226 255
204 226 255
204 226 255
204 226 255
204 226 255
204 226 255
204 226 255
204 226 255
204 226 255
204 226 255
205 226 255
205 226 255
205 226 255
205 226 255
205 226 255
205 226 255
205 227 255
205 227 255
205 227 255
205 227 255
205 227 255
205 227 255
205 227 255
205 227 255
205 227 255
205 227 255
206 227 255
206 227 255
206 227 255
206 227 255
206 227 255
206 227 255
206 227 255
206 227 255
206 227 255
206 227 255
206 227 255
206 227 255
206 227 255
206 227 255
206 227 255
206 227 255
206 227 255
206 227 255
207 227 255
207 227 255
207 227 255
207 227 255
207 227 255
207 228 255
207 228 255
207 228 255
207 228 255
207 228 255
207 228 255
207 228 255
207 228 255
207 228 255
207 228 255
207 228 255
207 228 255
207 228 255
207 228 255
207 228 255
208 228 255
208 228 255
208 228 255
208 228 255
208 228 255
208 228 255
208 228 255
208 228 255
208 228 255
208 228 255
208 228 255
208 228 255
208 228 255
208 228 255
208 228 255
208 228 255
208 228 255
208 228 255
208 228 255
208 228 255
208 228 255
208 228 255
208 228 255
208 228 255
208 228 255
208 228 255
208 228 255
208 228 255
208 228 255
208 228 255
208 228 255
208 228 255
208 228 255
208 228 255
208 228 255
207 228 255
207 228 255
207 228 255
207 228 255
207 228 255
207 228 255
207 228 255
207 228 255
207 228 255
207 228 255
207 228 255
207 228 255
207 228 255
207 228 255
207 228 255
207 227 255
207 227 255
207 227 255
207 227 255
207 227 255
206 227 255
206 227 255
206 227 255
206 227 255
206 227 255
206 227 255
206 227 255
206 227 255
206 227 255
206 227 255
206 227 255
206 227 255
206 227 255
206 227 255
206 227 255
206 227 255
206 227 255
205 227 255
205 227 255
205 227 255
205 227 255
205 227 255
205 227 255
205 227 255
205 227 255
205 227 255
205 227 255
205 226 255
205 226 255
205 226 255
205 226 255
205 226 255
205 226 255
205 226 255
204 226 255
204 226 255
204 226 255
204 226 255
204 226 255
204 226 255
204 226 255
204 226 255
204 226 255
204 226 255
204 226 255
204 226 255
204 226 255
204 226 255
204 226 255
204 226 255
203 226 255
203 226 255
203 226 255
203 226 255
203 226 255
203 226 255
203 225 255
203 225 255
203 225 255
203 225 255
203 225 255
203 225 255
203 225 255
203 225 255
203 225 255
202 225 255
202 225 255
202 225 255
202 225 255
202 225 255
202 225 255
202 225 255
202 225 255
202 225 255
202 225 255
202 225 255
202 225 255
202 225 255
202 225 255
202 225 255
201 225 255
201 225 255
201 225 255
201 225 255
201 225 255
201 224 255
201 224 255
201 224 255
201 224 255
201 224 255
201 224 255
201 224 255
201 224 255
201 224 255
201 224 255
201 224 255
200 224 255
200 224 255
200 224 255
200 224 255
200 224 255
200 224 255
200 224 255
200 224 255
200 224 255
200 224 255
200 224 255
200 224 255
200 224 255
200 224 255
200 224 255
200 224 255
200 224 255
200 224 255
199 224 255
199 224 255
199 224 255
199 224 255
199 223 255
199 223 255
199 223 255
199 223 255
199 223 255
199 223 255
199 223 255
199 223 255
199 223 255
199 223 255
199 223 255
199 223 255
199 223 255
199 223 255
199 223 255
199 223 255
199 223 255
199 223 255
199 223 255
199 223 255
199 223 255
199 223 255
199 223 255
198 223 255
198 223 255
198 223 255
198 223 255
198 223 255
198 223 255
198 223 255
198 223 255
198 223 255
198 223 255
198 223 255
198 223 255
198 223 255
198 223 255
198 223 255
198 223 255
198 223 255
198 223 255
198 223 255
198 223 255
198 223 255
198 223 255
198 223 255
198 223 255
198 223 255
198 223 255
198 223 255
198 223 255
198 223 255
198 223 255
198 223 255
198 223 255
198 223 255
198 223 255
198 223 255
198 223 255
198 223 255
198 223 255
198 223 255
198 223 255
199 223 255
199 223 255
199 223 255
199 223 255
199 223 255
199 223 255
199 223 255
199 223 255
199 223 255
199 223 255
199 223 255
199 223 255
199 223 255
199 223 255
199 223 255
199 223 255
199 223 255
199 223 255
199 223 255
199 223 255
199 223 255
199 223 255
199 223 255
199 224 255
199 224 255
199 224 255
199 224 255
200 224 255
200 224 255
200 224 255
200 224 255
200 224 255
200 224 255
200 224 255
200 224 255
200 224 255
200 224 255
200 224 255
200 224 255
200 224 255
200 224 255
200 224 255
200 224 255
200 224 255
200 224 255
201 224 255
201 224 255
201 224 255
201 224 255
201 224 255
201 224 255
201 224 255
201 224 255
201 224 255
201 224 255
201 224 255
201 225 255
201 225 255
201 225 255
201 225 255
201 225 255
202 225 255
202 225 255
202 225 255
202 225 255
202 225 255
202 225 255
202 225 255
202 225 255
202 225 255
202 225 255
202 225 255
202 225 255
202 225 255
202 225 255
202 225 255
203 225 255
203 225 255
203 225 255
203 225 255
203 225 255
203 225 255
203 225 255
203 225 255
203 225 255
203 226 255
203 226 255
203 226 255
203 226 255
203 226 255
203 226 255
204 226 255
204 226 255
204 226 255
204 226 255
204 226 255
204 226 255
204 226 255
204 226 255
204 226 255
204 226 255
204 226 255
204 226 255
204 226 255
204 226 255
204 226 255
204 226 255
205 226 255
205 226 255
205 226 255
205 226 255
205 226 255
205 226 255
205 226 255
205 227 255
205 227 255
205 227 255
205 227 255
205 227 255
205 227 255
205 227 255
205 227 255
205 227 255
205 227 255
206 227 255
206 227 255
206 227 255
206 227 255
206 227 255
206 227 255
206 227 255
206 227 255
206 227 255
206 227 255
206 227 255
206 227 255
206 227 255
206 227 255
206 227 255
206 227 255
206 227 255
207 227 255
207 227 255
207 227 255
207 227 255
207 227 255
207 228 255
207 228 255
207 228 255
207 228 255
207 228 255
207 228 255
207 228 255
207 228 255
207 228 255
207 228 255
207 228 255
207 228 255
207 228 255
207 228 255
207 228 255
208 228 255
208 228 255
208 228 255
208 228 255
208 228 255
208 228 255
208 228 255
208 228 255
208 228 255
208 228 255
208 228 255
208 228 255
208 228 255
208 228 255
208 228 255
208 228 255
208 228 255
208 228 255
208 228 255
209 228 255
208 228 255
208 228 255
208 228 255
208 228 255
208 228 255
208 228 255
208 228 255
208 228 255
208 228 255
208 228 255
208 228 255
208 228 255
208 228 255
208 228 255
208 228 255
208 228 255
208 228 255
208 228 255
208 228 255
208 228 255
208 228 255
207 228 255
207 228 255
207 228 255
207 228 255
207 228 255
207 228 255
207 228 255
207 228 255
207 228 255
207 228 255
207 228 255
207 228 255
207 228 255
207 228 255
207 228 255
207 227 255
207 227 255
207 227 255
207 227 255
207 227 255
206 227 255
206 227 255
206 227 255
206 227 255
206 227 255
206 227 255
206 227 255
206 227 255
206 227 255
206 227 255
206 227 255
206 227 255
206 227 255
206 227 255
206 227 255
206 227 255
206 227 255
205 227 255
205 227 255
205 227 255
205 227 255
205 227 255
205 227 255
205 227 255
205 227 255
205 227 255
205 227 255
205 226 255
205 226 255
205 226 255
205 226 255
205 226 255
205 226 255
205 226 255
204 226 255
204 226 255
204 226 255
204 226 255
204 226 255
204 226 255
204 226 255
204 226 255
204 226 255
204 226 255
204 226 255
204 226 255
204 226 255
204 226 255
204 226 255
203 226 255
203 226 255
203 226 255
203 226 255
203 226 255
203 226 255
203 226 255
203 225 255
203 225 255
203 225 255
203 225 255
203 225 255
203 225 255
203 225 255
203 225 255
203 225 255
202 225 255
202 225 255
202 225 255
202 225 255
202 225 255
202 225 255
202 225 255
202 225 255
202 225 255
202 225 255
202 225 255
202 225 255
202 225 255
202 225 255
202 225 255
201 225 255
201 225 255
201 225 255
201 225 255
201 225 255
201 224 255
201 224 255
201 224 255
201 224 255
201 224 255
201 224 255
201 224 255
201 224 255
201 224 255
201 224 255
201 224 255
200 224 255
200 224 255
200 224 255
200 224 255
200 224 255
200 224 255
200 224 255
200 224 255
200 224 255
200 224 255
200 224 255
200 224 255
200 224 255
200 224 255
200 224 255
200 224 255
200 224 255
200 224 255
200 224 255
200 224 255
199 224 255
199 224 255
199 224 255
199 223 255
199 223 255
199 223 255
199 223 255
199 223 255
199 223 255
199 223 255
199 223 255
199 223 255
199 223 255
199 223 255
199 223 255
199 223 255
199 223 255
199 223 255
199 223 255
199 223 255
199 223 255
199 223 255
199 223 255
199 223 255
199 223 255
199 223 255
199 223 255
199 223 255
199 223 255
199 223 255
199 223 255
199 223 255
198 223 255
198 223 255
198 223 255
198 223 255
198 223 255
198 223 255
198 223 255
198 223 255
198 223 255
198 223 255
198 223 255
198 223 255
198 223 255
198 223 255
198 223 255
198 223 255
198 223 255
198 223 255
198 223 255
199 223 255
199 223 255
199 223 255
199 223 255
199 223 255
199 223 255
199 223 255
199 223 255
199 223 255
199 223 255
199 223 255
199 223 255
199 223 255
199 223 255
199 223 255
199 223 255
199 223 255
199 223 255
199 223 255
199 223 255
199 223 255
199 223 255
199 223 255
199 223 255
199 223 255
199 223 255
199 223 255
199 223 255
199 223 255
199 223 255
199 224 255
199 224 255
199 224 255
199 224 255
200 224 255
200 224 255
200 224 255
200 224 255
200 224 255
200 224 255
200 224 255
200 224 255
200 224 255
200 224 255
200 224 255
200 224 255
200 224 255
200 224 255
200 224 255
200 224 255
200 224 255
200 224 255
200 224 255
201 224 255
201 224 255
201 224 255
201 224 255
201 224 255
201 224 255
201 224 255
201 224 255
201 224 255
201 224 255
201 224 255
201 225 255
201 225 255
201 225 255
201 225 255
201 225 255
202 225 255
202 225 255
202 225 255
202 225 255
202 225 255
202 225 255
202 225 255
202 225 255
202 225 255
202 225 255
202 225 255
202 225 255
202 225 255
202 225 255
202 225 255
203 225 255
203 225 255
203 225 255
203 225 255
203 225 255
203 225 255
203 225 255
203 225 255
203 225 255
203 226 255
203 226 255
203 226 255
203 226 255
203 226 255
203 226 255
203 226 255
204 226 255
204 226 255
204 226 255
204 226 255
204 226 255
204 226 255
204 226 255
204 226 255
204 226 255
204 226 255
204 226 255
204 226 255
204 226 255
204 226 255
204 226 255
205 226 255
205 226 255
205 226 255
205 226 255
205 226 255
205 226 255
205 226 255
205 227 255
205 227 255
205 227 255
205 227 255
205 227 255
205 227 255
205 227 255
205 227 255
205 227 255
205 227 255
206 227 255
206 227 255
206 227 255
206 227 255
206 227 255
206 227 255
206 227 255
206 227 255
206 227 255
206 227 255
206 227 255
206 227 255
206 227 255
206 227 255
206 227 255
206 227 255
206 227 255
207 227 255
207 227 255
207 227 255
207 227 255
207 227 255
207 228 255
207 228 255
207 228 255
207 228 255
207 228 255
207 228 255
207 228 255
207 228 255
207 228 255
207 228 255
207 228 255
207 228 255
207 228 255
207 228 255
207 228 255
208 228 255
208 228 255
208 228 255
208 228 255
208 228 255
208 228 255
208 228 255
208 228 255
208 228 255
208 228 255
208 228 255
208 228 255
208 228 255
208 228 255
208 228 255
208 228 255
208 228 255
208 228 255
208 228 255
208 228 255
208 228 255
209 228 255
209 229 255
209 229 255
209 228 255
209 228 255
208 228 255
208 228 255
208 228 255
208 228 255
208 228 255
208 228 255
208 228 255
208 228 255
208 228 255
208 228 255
208 228 255
208 228 255
208 228 255
208 228 255
208 228 255
208 228 255
208 228 255
208 228 255
208 228 255
208 228 255
208 228 255
207 228 255
207 228 255
207 228 255
207 228 255
207 228 255
207 228 255
207 228 255
207 228 255
207 228 255
207 228 255
207 228 255
207 228 255
207 228 255
207 228 255
207 228 255
207 227 255
207 227 255
207 227 255
207 227 255
207 227 255
206 227 255
206 227 255
206 227 255
206 227 255
206 227 255
206 227 255
206 227 255
206 227 255
206 227 255
206 227 255
206 227 255
206 227 255
206 227 255
206 227 255
206 227 255
206 227 255
206 227 255
205 227 255
205 227 255
205 227 255
205 227 255
205 227 255
205 227 255
205 227 255
205 227 255
205 227 255
205 227 255
205 226 255
205 226 255
205 226 255
205 226 255
205 226 255
205 226 255
205 226 255
204 226 255
204 226 255
204 226 255
204 226 255
204 226 255
204 226 255
204 226 255
204 226 255
204 226 255
204 226 255
204 226 255
204 226 255
204 226 255
204 226 255
204 226 255
203 226 255
203 226 255
203 226 255
203 226 255
203 226 255
203 226 255
203 226 255
203 225 255
203 225 255
203 225 255
203 225 255
203 225 255
203 225 255
203 225 255
203 225 255
203 225 255
202 225 255
202 225 255
202 225 255
202 225 255
202 225 255
202 225 255
202 225 255
202 225 255
202 225 255
202 225 255
202 225 255
202 225 255
202 225 255
202 225 255
202 225 255
201 225 255
201 225 255
201 225 255
201 225 255
201 225 255
201 224 255
201 224 255
201 224 255
201 224 255
201 224 255
201 224 255
201 224 255
201 224 255
201 224 255
201 224 255
201 224 255
201 224 255
200 224 255
200 224 255
200 224 255
200 224 255
200 224 255
200 224 255
200 224 255
200 224 255
200 224 255
200 224 255
200 224 255
200 224 255
200 224 255
200 224 255
200 224 255
200 224 255
200 224 255
200 224 255
200 224 255
200 224 255
199 224 255
199 224 255
199 224 255
199 224 255
199 223 255
199 223 255
199 223 255
199 223 255
199 223 255
199 223 255
199 223 255
199 223 255
199 223 255
199 223 255
199 223 255
199 223 255
199 223 255
199 223 255
199 223 255
199 223 255
199 223 255
199 223 255
199 223 255
199 223 255
199 223 255
199 223 255
199 223 255
199 223 255
199 223 255
199 223 255
199 223 255
199 223 255
199 223 255
199 223 255
199 223 255
199 223 255
199 223 255
199 223 255
199 223 255
199 223 255
199 223 255
199 223 255
199 223 255
199 223 255
199 223 255
199 223 255
199 223 255
199 223 255
199 223 255
199 223 255
199 223 255
199 223 255
199 223 255
199 223 255
199 223 255
199 223 255
199 223 255
199 223 255
199 223 255
199 223 255
199 223 255
199 223 255
199 223 255
199 223 255
199 223 255
199 223 255
199 223 255
199 223 255
199 223 255
199 223 255
199 223 255
199 223 255
199 224 255
199 224 255
199 224 255
199 224 255
200 224 255
200 224 255
200 224 255
200 224 255
200 224 255
200 224 255
200 224 255
200 224 255
200 224 255
200 224 255
200 224 255
200 224 255
200 224 255
200 224 255
200 224 255
200 224 255
200 224 255
200 224 255
200 224 255
200 224 255
201 224 255
201 224 255
201 224 255
201 224 255
201 224 255
201 224 255
201 224 255
201 224 255
201 224 255
201 224 255
201 224 255
201 224 255
201 225 255
201 225 255
201 225 255
201 225 255
201 225 255
202 225 255
202 225 255
202 225 255
202 225 255
202 225 255
202 225 255
202 225 255
202 225 255
202 225 255
202 225 255
202 225 255
202 225 255
202 225 255
202 225 255
202 225 255
203 225 255
203 225 255
203 225 255
203 225 255
203 225 255
203 225 255
203 225 255
203 225 255
203 225 255
203 226 255
203 226 255
203 226 255
203 226 255
203 226 255
203 226 255
203 226 255
204 226 255
204 226 255
204 226 255
204 226 255
204 226 255
204 226 255
204 226 255
204 226 255
204 226 255
204 226 255
204 226 255
204 226 255
204 226 255
204 226 255
204 226 255
204 226 255
205 226 255
205 226 255
205 226 255
205 226 255
205 226 255
205 226 255
205 227 255
205 227 255
205 227 255
205 227 255
205 227 255
205 227 255
205 227 255
205 227 255
205 227 255
205 227 255
206 227 255
206 227 255
206 227 255
206 227 255
206 227 255
206 227 255
206 227 255
206 227 255
206 227 255
206 227 255
206 227 255
206 227 255
206 227 255
206 227 255
206 227 255
206 227 255
206 227 255
207 227 255
207 227 255
207 227 255
207 227 255
207 227 255
207 228 255
207 228 255
207 228 255
207 228 255
207 228 255
207 228 255
207 228 255
207 228 255
207 228 255
207 228 255
207 228 255
207 228 255
207 228 255
207 228 255
207 228 255
208 228 255
208 228 255
208 228 255
208 228 255
208 228 255
208 228 255
208 228 255
208 228 255
208 228 255
208 228 255
208 228 255
208 228 255
208 228 255
208 228 255
208 228 255
208 228 255
208 228 255
208 228 255
208 228 255
208 228 255
208 228 255
209 228 255
209 228 255
209 229 255
209 229 255
209 229 255
209 229 255
209 229 255
209 229 255
209 229 255
209 229 255
209 228 255
208 228 255
208 228 255
208 228 255
208 228 255
208 228 255
208 228 255
208 228 255
208 228 255
208 228 255
208 228 255
208 228 255
208 228 255
208 228 255
208 228 255
208 228 255
208 228 255
208 228 255
208 228 255
208 228 255
208 228 255
208 228 255
207 228 255
207 228 255
207 228 255
207 228 255
207 228 255
207 228 255
207 228 255
207 228 255
207 228 255
207 228 255
207 228 255
207 228 255
207 228 255
207 228 255
207 228 255
207 227 255
207 227 255
207 227 255
207 227 255
206 227 255
206 227 255
206 227 255
206 227 255
206 227 255
206 227 255
206 227 255
206 227 255
206 227 255
206 227 255
206 227 255
206 227 255
206 227 255
206 227 255
206 227 255
206 227 255
206 227 255
206 227 255
205 227 255
205 227 255
205 227 255
205 227 255
205 227 255
205 227 255
205 227 255
205 227 255
205 227 255
205 227 255
205 226 255
205 226 255
205 226 255
205 226 255
205 226 255
205 226 255
204 226 255
204 226 255
204 226 255
204 226 255
204 226 255
204 226 255
204 226 255
204 226 255
204 226 255
204 226 255
204 226 255
204 226 255
204 226 255
204 226 255
204 226 255
204 226 255
203 226 255
203 226 255
203 226 255
203 226 255
203 226 255
203 226 255
203 226 255
203 225 255
203 225 255
203 225 255
203 225 255
203 225 255
203 225 255
203 225 255
203 225 255
203 225 255
202 225 255
202 225 255
202 225 255
202 225 255
202 225 255
202 225 255
202 225 255
202 225 255
202 225 255
202 225 255
202 225 255
202 225 255
202 225 255
202 225 255
202 225 255
201 225 255
201 225 255
201 225 255
201 225 255
201 225 255
201 224 255
201 224 255
201 224 255
201 224 255
201 224 255
201 224 255
201 224 255
201 224 255
201 224 255
201 224 255
201 224 255
201 224 255
200 224 255
200 224 255
200 224 255
200 224 255
200 224 255
200 224 255
200 224 255
200 224 255
200 224 255
200 224 255
200 224 255
200 224 255
200 224 255
200 224 255
200 224 255
200 224 255
200 224 255
200 224 255
200 224 255
200 224 255
200 224 255
200 224 255
199 224 255
199 224 255
199 224 255
199 224 255
199 223 255
199 223 255
199 223 255
199 223 255
199 223 255
199 223 255
199 223 255
199 223 255
199 223 255
199 223 255
199 223 255
199 223 255
199 223 255
199 223 255
199 223 255
199 223 255
199 223 255
199 223 255
199 223 255
199 223 255
199 223 255
199 223 255
199 223 255
199 223 255
199 223 255
199 223 255
199 223 255
199 223 255
199 223 255
199 223 255
199 223 255
199 223 255
199 223 255
199 223 255
199 223 255
199 223 255
199 223 255
199 223 255
199 223 255
199 223 255
199 223 255
199 223 255
199 223 255
199 223 255
199 223 255
199 223 255
199 223 255
199 223 255
199 223 255
199 223 255
199 223 255
199 223 255
199 223 255
199 223 255
199 223 255
199 223 255
199 223 255
199 223 255
199 224 255
199 224 255
199 224 255
199 224 255
200 224 255
200 224 255
200 224 255
200 224 255
200 224 255
200 224 255
200 224 255
200 224 255
200 224 255
200 224 255
200 224 255
200 224 255
200 224 255
200 224 255
200 224 255
200 224 255
200 224 255
200 224 255
200 224 255
200 224 255
200 224 255
200 224 255
201 224 255
201 224 255
201 224 255
201 224 255
201 224 255
201 224 255
201 224 255
201 224 255
201 224 255
201 224 255
201 224 255
201 224 255
201 225 255
201 225 255
201 225 255
201 225 255
201 225 255
202 225 255
202 225 255
202 225 255
202 225 255
202 225 255
202 225 255
202 225 255
202 225 255
202 225 255
202 225 255
202 225 255
202 225 255
202 225 255
202 225 255
202 225 255
202 225 255
203 225 255
203 225 255
203 225 255
203 225 255
203 225 255
203 225 255
203 225 255
203 225 255
203 226 255
203 226 255
203 226 255
203 226 255
203 226 255
203 226 255
203 226 255
204 226 255
204 226 255
204 226 255
204 226 255
204 226 255
204 226 255
204 226 255
204 226 255
204 226 255
204 226 255
204 226 255
204 226 255
204 226 255
204 226 255
204 226 255
204 226 255
205 226 255
205 226 255
205 226 255
205 226 255
205 226 255
205 226 255
205 227 255
205 227 255
205 227 255
205 227 255
205 227 255
205 227 255
205 227 255
205 227 255
205 227 255
205 227 255
206 227 255
206 227 255
206 227 255
206 227 255
206 227 255
206 227 255
206 227 255
206 227 255
206 227 255
206 227 255
206 227 255
206 227 255
206 227 255
206 227 255
206 227 255
206 227 255
206 227 255
207 227 255
207 227 255
207 227 255
207 227 255
207 227 255
207 228 255
207 228 255
207 228 255
207 228 255
207 228 255
207 228 255
207 228 255
207 228 255
207 228 255
207 228 255
207 228 255
207 228 255
207 228 255
207 228 255
207 228 255
208 228 255
208 228 255
208 228 255
208 228 255
208 228 255
208 228 255
208 228 255
208 228 255
208 228 255
208 228 255
208 228 255
208 228 255
208 228 255
208 228 255
208 228 255
208 228 255
208 228 255
208 228 255
208 228 255
208 228 255
208 228 255
209 228 255
209 229 255
209 229 255
209 229 255
209 229 255
209 229 255
209 229 255
209 229 255
209 229 255
209 229 255
209 229 255
209 229 255
209 229 255
209 229 255
209 229 255
209 229 255
209 228 255
209 228 255
208 228 255
208 228 255
208 228 255
208 228 255
208 228 255
208 228 255
208 228 255
208 228 255
208 228 255
208 228 255
208 228 255
208 228 255
208 228 255
208 228 255
208 228 255
208 228 255
208 228 255
208 228 255
208 228 255
208 228 255
208 228 255
207 228 255
207 228 255
207 228 255
207 228 255
207 228 255
207 228 255
207 228 255
207 228 255
207 228 255
207 228 255
207 228 255
207 228 255
207 228 255
207 228 255
207 227 255
207 227 255
207 227 255
207 227 255
206 227 255
206 227 255
206 227 255
206 227 255
206 227 255
206 227 255
206 227 255
206 227 255
206 227 255
206 227 255
206 227 255
206 227 255
206 227 255
206 227 255
206 227 255
206 227 255
206 227 255
206 227 255
205 227 255
205 227 255
205 227 255
205 227 255
205 227 255
205 227 255
205 227 255
205 227 255
205 227 255
205 227 255
205 226 255
205 226 255
205 226 255
205 226 255
205 226 255
205 226 255
204 226 255
204 226 255
204 226 255
204 226 255
204 226 255
204 226 255
204 226 255
204 226 255
204 226 255
204 226 255
204 226 255
204 226 255
204 226 255
204 226 255
204 226 255
204 226 255
203 226 255
203 226 255
203 226 255
203 226 255
203 226 255
203 226 255
203 226 255
203 225 255
203 225 255
203 225 255
203 225 255
203 225 255
203 225 255
203 225 255
203 225 255
202 225 255
202 225 255
202 225 255
202 225 255
202 225 255
202 225 255
202 225 255
202 225 255
202 225 255
202 225 255
202 225 255
202 225 255
202 225 255
202 225 255
202 225 255
202 225 255
201 225 255
201 225 255
201 225 255
201 225 255
201 225 255
201 224 255
201 224 255
201 224 255
201 224 255
201 224 255
201 224 255
201 224 255
201 224 255
201 224 255
201 224 255
201 224 255
201 224 255
201 224 255
200 224 255
200 224 255
200 224 255
200 224 255
200 224 255
200 224 255
200 224 255
200 224 255
200 224 255
200 224 255
200 224 255
200 224 255
200 224 255
200 224 255
200 224 255
200 224 255
200 224 255
200 224 255
200 224 255
200 224 255
200 224 255
200 224 255
200 224 255
199 224 255
199 224 255
199 224 255
199 224 255
199 224 255
199 224 255
199 223 255
199 223 255
199 223 255
199 223 255
199 223 255
199 223 255
199 223 255
199 223 255
199 223 255
199 223 255
199 223 255
199 223 255
199 223 255
199 223 255
199 223 255
199 223 255
199 223 255
199 223 255
199 223 255
199 223 255
199 223 255
199 223 255
199 223 255
199 223 255
199 223 255
199 223 255
199 223 255
199 223 255
199 223 255
199 223 255
199 223 255
199 223 255
199 223 255
199 223 255
199 223 255
199 223 255
199 223 255
199 223 255
199 223 255
199 223 255
199 223 255
199 223 255
199 223 255
199 223 255
199 224 255
199 224 255
199 224 255
199 224 255
199 224 255
200 224 255
200 224 255
200 224 255
200 224 255
200 224 255
200 224 255
200 224 255
200 224 255
200 224 255
200 224 255
200 224 255
200 224 255
200 224 255
200 224 255
200 224 255
200 224 255
200 224 255
200 224 255
200 224 255
200 224 255
200 224 255
200 224 255
200 224 255
200 224 255
201 224 255
201 224 255
201 224 255
201 224 255
201 224 255
201 224 255
201 224 255
201 224 255
201 224 255
201 224 255
201 224 255
201 224 255
201 225 255
201 225 255
201 225 255
201 225 255
201 225 255
202 225 255
202 225 255
202 225 255
202 225 255
202 225 255
202 225 255
202 225 255
202 225 255
202 225 255
202 225 255
202 225 255
202 225 255
202 225 255
202 225 255
202 225 255
202 225 255
202 225 255
203 225 255
203 225 255
203 225 255
203 225 255
203 225 255
203 225 255
203 225 255
203 225 255
203 226 255
203 226 255
203 226 255
203 226 255
203 226 255
203 226 255
203 226 255
204 226 255
204 226 255
204 226 255
204 226 255
204 226 255
204 226 255
204 226 255
204 226 255
204 226 255
204 226 255
204 226 255
204 226 255
204 226 255
204 226 255
204 226 255
204 226 255
205 226 255
205 226 255
205 226 255
205 226 255
205 226 255
205 226 255
205 227 255
205 227 255
205 227 255
205 227 255
205 227 255
205 227 255
205 227 255
205 227 255
205 227 255
205 227 255
206 227 255
206 227 255
206 227 255
206 227 255
206 227 255
206 227 255
206 227 255
206 227 255
206 227 255
206 227 255
206 227 255
206 227 255
206 227 255
206 227 255
206 227 255
206 227 255
206 227 255
206 227 255
207 227 255
207 227 255
207 227 255
207 227 255
207 228 255
207 228 255
207 228 255
207 228 255
207 228 255
207 228 255
207 228 255
207 228 255
207 228 255
207 228 255
207 228 255
207 228 255
207 228 255
207 228 255
208 228 255
208 228 255
208 228 255
208 228 255
208 228 255
208 228 255
208 228 255
208 228 255
208 228 255
208 228 255
208 228 255
208 228 255
208 228 255
208 228 255
208 228 255
208 228 255
208 228 255
208 228 255
208 228 255
208 228 255
208 228 255
209 228 255
209 228 255
209 229 255
209 229 255
209 229 255
209 229 255
209 229 255
209 229 255
209 229 255
209 229 255
209 229 255
209 229 255
209 229 255
209 229 255
209 229 255
209 229 255
209 229 255
209 229 255
209 229 255
209 229 255
209 229 255
209 229 255
209 229 255
209 228 255
209 228 255
208 228 255
208 228 255
208 228 255
208 228 255
208 228 255
208 228 255
208 228 255
208 228 255
208 228 255
208 228 255
208 228 255
208 228 255
208 228 255
208 228 255
208 228 255
208 228 255
208 228 255
208 228 255
208 228 255
208 228 255
208 228 255
207 228 255
207 228 255
207 228 255
207 228 255
207 228 255
207 228 255
207 228 255
207 228 255
207 228 255
207 228 255
207 228 255
207 228 255
207 228 255
207 228 255
207 227 255
207 227 255
207 227 255
207 227 255
207 227 255
206 227 255
206 227 255
206 227 255
206 227 255
206 227 255
206 227 255
206 227 255
206 227 255
206 227 255
206 227 255
206 227 255
206 227 255
206 227 255
206 227 255
206 227 255
206 227 255
206 227 255
205 227 255
205 227 255
205 227 255
205 227 255
205 227 255
205 227 255
205 227 255
205 227 255
205 227 255
205 227 255
205 226 255
205 226 255
205 226 255
205 226 255
205 226 255
205 226 255
204 226 255
204 226 255
204 226 255
204 226 255
204 226 255
204 226 255
204 226 255
204 226 255
204 226 255
204 226 255
204 226 255
204 226 255
204 226 255
204 226 255
204 226 255
204 226 255
203 226 255
203 226 255
203 226 255
203 226 255
203 226 255
203 226 255
203 226 255
203 225 255
203 225 255
203 225 255
203 225 255
203 225 255
203 225 255
203 225 255
203 225 255
202 225 255
202 225 255
202 225 255
202 225 255
202 225 255
202 225 255
202 225 255
202 225 255
202 225 255
202 225 255
202 225 255
202 225 255
202 225 255
202 225 255
202 225 255
202 225 255
202 225 255
201 225 255
201 225 255
201 225 255
201 225 255
201 225 255
201 224 255
201 224 255
201 224 255
201 224 255
201 224 255
201 224 255
201 224 255
201 224 255
201 224 255
201 224 255
201 224 255
201 224 255
201 224 255
200 224 255
200 224 255
200 224 255
200 224 255
200 224 255
200 224 255
200 224 255
200 224 255
200 224 255
200 224 255
200 224 255
200 224 255
200 224 255
200 224 255
200 224 255
200 224 255
200 224 255
200 224 255
200 224 255
200 224 255
200 224 255
200 224 255
200 224 255
200 224 255
200 224 255
200 224 255
200 224 255
199 224 255
199 224 255
199 224 255
199 224 255
199 224 255
199 224 255
199 224 255
199 224 255
199 223 255
199 223 255
199 223 255
199 223 255
199 223 255
199 223 255
199 223 255
199 223 255
199 223 255
199 223 255
199 223 255
199 223 255
199 223 255
199 223 255
199 223 255
199 223 255
199 223 255
199 223 255
199 223 255
199 223 255
199 223 255
199 223 255
199 223 255
199 223 255
199 224 255
199 224 255
199 224 255
199 224 255
199 224 255
199 224 255
199 224 255
199 224 255
200 224 255
200 224 255
200 224 255
200 224 255
200 224 255
200 224 255
200 224 255
200 224 255
200 224 255
200 224 255
200 224 255
200 224 255
200 224 255
200 224 255
200 224 255
200 224 255
200 224 255
200 224 255
200 224 255
200 224 255
200 224 255
200 224 255
200 224 255
200 224 255
200 224 255
200 224 255
200 224 255
201 224 255
201 224 255
201 224 255
201 224 255
201 224 255
201 224 255
201 224 255
201 224 255
201 224 255
201 224 255
201 224 255
201 224 255
201 224 255
201 225 255
201 225 255
201 225 255
201 225 255
201 225 255
202 225 255
202 225 255
202 225 255
202 225 255
202 225 255
202 225 255
202 225 255
202 225 255
202 225 255
202 225 255
202 225 255
202 225 255
202 225 255
202 225 255
202 225 255
202 225 255
202 225 255
203 225 255
203 225 255
203 225 255
203 225 255
203 225 255
203 225 255
203 225 255
203 225 255
203 226 255
203 226 255
203 226 255
203 226 255
203 226 255
203 226 255
203 226 255
204 226 255
204 226 255
204 226 255
204 226 255
204 226 255
204 226 255
204 226 255
204 226 255
204 226 255
204 226 255
204 226 255
204 226 255
204 226 255
204 226 255
204 226 255
204 226 255
205 226 255
205 226 255
205 226 255
205 226 255
205 226 255
205 226 255
205 227 255
205 227 255
205 227 255
205 227 255
205 227 255
205 227 255
205 227 255
205 227 255
205 227 255
205 227 255
206 227 255
206 227 255
206 227 255
206 227 255
206 227 255
206 227 255
206 227 255
206 227 255
206 227 255
206 227 255
206 227 255
206 227 255
206 227 255
206 227 255
206 227 255
206 227 255
206 227 255
207 227 255
207 227 255
207 227 255
207 227 255
207 227 255
207 228 255
207 228 255
207 228 255
207 228 255
207 228 255
207 228 255
207 228 255
207 228 255
207 228 255
207 228 255
207 228 255
207 228 255
207 228 255
207 228 255
208 228 255
208 228 255
208 228 255
208 228 255
208 228 255
208 228 255
208 228 255
208 228 255
208 228 255
208 228 255
208 228 255
208 228 255
208 228 255
208 228 255
208 228 255
208 228 255
208 228 255
208 228 255
208 228 255
208 228 255
208 228 255
209 228 255
209 228 255
209 229 255
209 229 255
209 229 255
209 229 255
209 229 255
209 229 255
209 229 255
209 229 255
209 229 255
209 229 255
209 229 255
209 229 255
209 229 255
209 229 255
209 229 255
209 229 255
209 229 255
209 229 255
209 229 255
209 229 255
209 229 255
209 229 255
209 229 255
209 229 255
209 229 255
209 229 255
209 229 255
209 229 255
209 228 255
208 228 255
208 228 255
208 228 255
208 228 255
208 228 255
208 228 255
208 228 255
208 228 255
208 228 255
208 228 255
208 228 255
208 228 255
208 228 255
208 228 255
208 228 255
208 228 255
208 228 255
208 228 255
208 228 255
208 228 255
208 228 255
207 228 255
207 228 255
207 228 255
207 228 255
207 228 255
207 228 255
207 228 255
207 228 255
207 228 255
207 228 255
207 228 255
207 228 255
207 228 255
207 228 255
207 227 255
207 227 255
207 227 255
207 227 255
206 227 255
206 227 255
206 227 255
206 227 255
206 227 255
206 227 255
206 227 255
206 227 255
206 227 255
206 227 255
206 227 255
206 227 255
206 227 255
206 227 255
206 227 255
206 227 255
206 227 255
206 227 255
205 227 255
205 227 255
205 227 255
205 227 255
205 227 255
205 227 255
205 227 255
205 227 255
205 227 255
205 227 255
205 226 255
205 226 255
205 226 255
205 226 255
205 226 255
205 226 255
204 226 255
204 226 255
204 226 255
204 226 255
204 226 255
204 226 255
204 226 255
204 226 255
204 226 255
204 226 255
204 226 255
204 226 255
204 226 255
204 226 255
204 226 255
204 226 255
203 226 255
203 226 255
203 226 255
203 226 255
203 226 255
203 226 255
203 226 255
203 225 255
203 225 255
203 225 255
203 225 255
203 225 255
203 225 255
203 225 255
203 225 255
203 225 255
202 225 255
202 225 255
202 225 255
202 225 255
202 225 255
202 225 255
202 225 255
202 225 255
202 225 255
202 225 255
202 225 255
202 225 255
202 225 255
202 225 255
202 225 255
202 225 255
201 225 255
201 225 255
201 225 255
201 225 255
201 225 255
201 225 255
201 224 255
201 224 255
201 224 255
201 224 255
201 224 255
201 224 255
201 224 255
201 224 255
201 224 255
201 224 255
201 224 255
201 224 255
201 224 255
200 224 255
200 224 255
200 224 255
200 224 255
200 224 255
200 224 255
200 224 255
200 224 255
200 224 255
200 224 255
200 224 255
200 224 255
200 224 255
200 224 255
200 224 255
200 224 255
200 224 255
200 224 255
200 224 255
200 224 255
200 224 255
200 224 255
200 224 255
200 224 255
200 224 255
200 224 255
200 224 255
200 224 255
200 224 255
200 224 255
200 224 255
200 224 255
200 224 255
200 224 255
199 224 255
199 224 255
199 224 255
199 224 255
199 224 255
199 224 255
199 224 255
199 224 255
199 224 255
199 224 255
199 224 255
199 224 255
199 224 255
199 224 255
199 224 255
199 224 255
199 224 255
199 224 255
200 224 255
200 224 255
200 224 255
200 224 255
200 224 255
200 224 255
200 224 255
200 224 255
200 224 255
200 224 255
200 224 255
200 224 255
200 224 255
200 224 255
200 224 255
200 224 255
200 224 255
200 224 255
200 224 255
200 224 255
200 224 255
200 224 255
200 224 255
200 224 255
200 224 255
200 224 255
200 224 255
200 224 255
200 224 255
200 224 255
200 224 255
200 224 255
200 224 255
200 224 255
201 224 255
201 224 255
201 224 255
201 224 255
201 224 255
201 224 255
201 224 255
201 224 255
201 224 255
201 224 255
201 224 255
201 224 255
201 224 255
201 224 255
201 225 255
201 225 255
201 225 255
201 225 255
201 225 255
202 225 255
202 225 255
202 225 255
202 225 255
202 225 255
202 225 255
202 225 255
202 225 255
202 225 255
202 225 255
202 225 255
202 225 255
202 225 255
202 225 255
202 225 255
202 225 255
203 225 255
203 225 255
203 225 255
203 225 255
203 225 255
203 225 255
203 225 255
203 225 255
203 225 255
203 226 255
203 226 255
203 226 255
203 226 255
203 226 255
203 226 255
203 226 255
204 226 255
204 226 255
204 226 255
204 226 255
204 226 255
204 226 255
204 226 255
204 226 255
204 226 255
204 226 255
204 226 255
204 226 255
204 226 255
204 226 255
204 226 255
204 226 255
205 226 255
205 226 255
205 226 255
205 226 255
205 226 255
205 226 255
205 227 255
205 227 255
205 227 255
205 227 255
205 227 255
205 227 255
205 227 255
205 227 255
205 227 255
205 227 255
206 227 255
206 227 255
206 227 255
206 227 255
206 227 255
206 227 255
206 227 255
206 227 255
206 227 255
206 227 255
206 227 255
206 227 255
206 227 255
206 227 255
206 227 255
206 227 255
206 227 255
206 227 255
207 227 255
207 227 255
207 227 255
207 227 255
207 228 255
207 228 255
207 228 255
207 228 255
207 228 255
207 228 255
207 228 255
207 228 255
207 228 255
207 228 255
207 228 255
207 228 255
207 228 255
207 228 255
208 228 255
208 228 255
208 228 255
208 228 255
208 228 255
208 228 255
208 228 255
208 228 255
208 228 255
208 228 255
208 228 255
208 228 255
208 228 255
208 228 255
208 228 255
208 228 255
208 228 255
208 228 255
208 228 255
208 228 255
208 228 255
209 228 255
209 229 255
209 229 255
209 229 255
209 229 255
209 229 255
209 229 255
209 229 255
209 229 255
209 229 255
209 229 255
209 229 255
209 229 255
209 229 255
209 229 255
209 229 255
209 229 255
209 229 255
209 229 255
209 229 255
209 229 255
209 229 255
209 229 255
209 229 255
209 229 255
209 229 255
209 229 255
209 229 255
209 229 255
209 229 255
209 229 255
209 229 255
209 229 255
209 229 255
209 229 255
209 229 255
209 228 255
209 228 255
208 228 255
208 228 255
208 228 255
208 228 255
208 228 255
208 228 255
208 228 255
208 228 255
208 228 255
208 228 255
208 228 255
208 228 255
208 228 255
208 228 255
208 228 255
208 228 255
208 228 255
208 228 255
208 228 255
208 228 255
207 228 255
207 228 255
207 228 255
207 228 255
207 228 255
207 228 255
207 228 255
207 228 255
207 228 255
207 228 255
207 228 255
207 228 255
207 228 255
207 228 255
207 227 255
207 227 255
207 227 255
207 227 255
207 227 255
206 227 255
206 227 255
206 227 255
206 227 255
206 227 255
206 227 255
206 227 255
206 227 255
206 227 255
206 227 255
206 227 255
206 227 255
206 227 255
206 227 255
206 227 255
206 227 255
206 227 255
205 227 255
205 227 255
205 227 255
205 227 255
205 227 255
205 227 255
205 227 255
205 227 255
205 227 255
205 227 255
205 226 255
205 226 255
205 226 255
205 226 255
205 226 255
205 226 255
204 226 255
204 226 255
204 226 255
204 226 255
204 226 255
204 226 255
204 226 255
204 226 255
204 226 255
204 226 255
204 226 255
204 226 255
204 226 255
204 226 255
204 226 255
204 226 255
203 226 255
203 226 255
203 226 255
203 226 255
203 226 255
203 226 255
203 226 255
203 225 255
203 225 255
203 225 255
203 225 255
203 225 255
203 225 255
203 225 255
203 225 255
203 225 255
202 225 255
202 225 255
202 225 255
202 225 255
202 225 255
202 225 255
202 225 255
202 225 255
202 225 255
202 225 255
202 225 255
202 225 255
202 225 255
202 225 255
202 225 255
202 225 255
202 225 255
201 225 255
201 225 255
201 225 255
201 225 255
201 225 255
201 224 255
201 224 255
201 224 255
201 224 255
201 224 255
201 224 255
201 224 255
201 224 255
201 224 255
201 224 255
201 224 255
201 224 255
201 224 255
201 224 255
201 224 255
200 224 255
200 224 255
200 224 255
200 224 255
200 224 255
200 224 255
200 224 255
200 224 255
200 224 255
200 224 255
200 224 255
200 224 255
200 224 255
200 224 255
200 224 255
200 224 255
200 224 255
200 224 255
200 224 255
200 224 255
200 224 255
200 224 255
200 224 255
200 224 255
200 224 255
200 224 255
200 224 255
200 224 255
200 224 255
200 224 255
200 224 255
200 224 255
200 224 255
200 224 255
200 224 255
200 224 255
200 224 255
200 224 255
200 224 255
200 224 255
200 224 255
200 224 255
200 224 255
200 224 255
200 224 255
200 224 255
200 224 255
200 224 255
200 224 255
200 224 255
200 224 255
200 224 255
200 224 255
200 224 255
200 224 255
200 224 255
200 224 255
200 224 255
200 224 255
200 224 255
200 224 255
200 224 255
200 224 255
200 224 255
200 224 255
200 224 255
200 224 255
200 224 255
200 224 255
200 224 255
200 224 255
200 224 255
200 224 255
200 224 255
200 224 255
200 224 255
201 224 255
201 224 255
201 224 255
201 224 255
201 224 255
201 224 255
201 224 255
201 224 255
201 224 255
201 224 255
201 224 255
201 224 255
201 224 255
201 224 255
201 224 255
201 225 255
201 225 255
201 225 255
201 225 255
201 225 255
202 225 255
202 225 255
202 225 255
202 225 255
202 225 255
202 225 255
202 225 255
202 225 255
202 225 255
202 225 255
202 225 255
202 225 255
202 225 255
202 225 255
202 225 255
202 225 255
202 225 255
203 225 255
203 225 255
203 225 255
203 225 255
203 225 255
203 225 255
203 225 255
203 225 255
203 225 255
203 226 255
203 226 255
203 226 255
203 226 255
203 226 255
203 226 255
203 226 255
204 226 255
204 226 255
204 226 255
204 226 255
204 226 255
204 226 255
204 226 255
204 226 255
204 226 255
204 226 255
204 226 255
204 226 255
204 226 255
204 226 255
204 226 255
204 226 255
205 226 255
205 226 255
205 226 255
205 226 255
205 226 255
205 226 255
205 226 255
205 227 255
205 227 255
205 227 255
205 227 255
205 227 255
205 227 255
205 227 255
205 227 255
205 227 255
206 227 255
206 227 255
206 227 255
206 227 255
206 227 255
206 227 255
206 227 255
206 227 255
206 227 255
206 227 255
206 227 255
206 227 255
206 227 255
206 227 255
206 227 255
206 227 255
206 227 255
206 227 255
207 227 255
207 227 255
207 227 255
207 227 255
207 228 255
207 228 255
207 228 255
207 228 255
207 228 255
207 228 255
207 228 255
207 228 255
207 228 255
207 228 255
207 228 255
207 228 255
207 228 255
207 228 255
208 228 255
208 228 255
208 228 255
208 228 255
208 228 255
208 228 255
208 228 255
208 228 255
208 228 255
208 228 255
208 228 255
208 228 255
208 228 255
208 228 255
208 228 255
208 228 255
208 228 255
208 228 255
208 228 255
208 228 255
209 228 255
209 228 255
209 229 255
209 229 255
209 229 255
209 229 255
209 229 255
209 229 255
209 229 255
209 229 255
209 229 255
209 229 255
209 229 255
209 229 255
209 229 255
209 229 255
209 229 255
209 229 255
209 229 255
209 229 255
209 229 255
210 229 255
209 229 255
209 229 255
209 229 255
209 229 255
209 229 255
209 229 255
209 229 255
209 229 255
209 229 255
209 229 255
209 229 255
209 229 255
209 229 255
209 229 255
209 229 255
209 229 255
209 229 255
209 229 255
209 229 255
209 229 255
209 229 255
209 229 255
209 228 255
208 228 255
208 228 255
208 228 255
208 228 255
208 228 255
208 228 255
208 228 255
208 228 255
208 228 255
208 228 255
208 228 255
208 228 255
208 228 255
208 228 255
208 228 255
208 228 255
208 228 255
208 228 255
208 228 255
208 228 255
207 228 255
207 228 255
207 228 255
207 228 255
207 228 255
207 228 255
207 228 255
207 228 255
207 228 255
207 228 255
207 228 255
207 228 255
207 228 255
207 228 255
207 227 255
207 227 255
207 227 255
207 227 255
207 227 255
206 227 255
206 227 255
206 227 255
206 227 255
206 227 255
206 227 255
206 227 255
206 227 255
206 227 255
206 227 255
206 227 255
206 227 255
206 227 255
206 227 255
206 227 255
206 227 255
206 227 255
205 227 255
205 227 255
205 227 255
205 227 255
205 227 255
205 227 255
205 227 255
205 227 255
205 227 255
205 227 255
205 226 255
205 226 255
205 226 255
205 226 255
205 226 255
205 226 255
204 226 255
204 226 255
204 226 255
204 226 255
204 226 255
204 226 255
204 226 255
204 226 255
204 226 255
204 226 255
204 226 255
204 226 255
204 226 255
204 226 255
204 226 255
204 226 255
203 226 255
203 226 255
203 226 255
203 226 255
203 226 255
203 226 255
203 226 255
203 225 255
203 225 255
203 225 255
203 225 255
203 225 255
203 225 255
203 225 255
203 225 255
203 225 255
202 225 255
202 225 255
202 225 255
202 225 255
202 225 255
202 225 255
202 225 255
202 225 255
202 225 255
202 225 255
202 225 255
202 225 255
202 225 255
202 225 255
202 225 255
202 225 255
202 225 255
202 225 255
201 225 255
201 225 255
201 225 255
201 225 255
201 225 255
201 224 255
201 224 255
201 224 255
201 224 255
201 224 255
201 224 255
201 224 255
201 224 255
201 224 255
201 224 255
201 224 255
201 224 255
201 224 255
201 224 255
201 224 255
201 224 255
200 224 255
200 224 255
200 224 255
200 224 255
200 224 255
200 224 255
200 224 255
200 224 255
200 224 255
200 224 255
200 224 255
200 224 255
200 224 255
200 224 255
200 224 255
200 224 255
200 224 255
200 224 255
200 224 255
200 224 255
200 224 255
200 224 255
200 224 255
200 224 255
200 224 255
200 224 255
200 224 255
200 224 255
200 224 255
200 224 255
200 224 255
200 224 255
200 224 255
200 224 255
200 224 255
200 224 255
200 224 255
200 224 255
200 224 255
200 224 255
200 224 255
200 224 255
200 224 255
200 224 255
200 224 255
200 224 255
200 224 255
200 224 255
200 224 255
200 224 255
200 224 255
200 224 255
200 224 255
200 224 255
200 224 255
200 224 255
200 224 255
200 224 255
200 224 255
200 224 255
200 224 255
200 224 255
200 224 255
200 224 255
200 224 255
201 224 255
201 224 255
201 224 255
201 224 255
201 224 255
201 224 255
201 224 255
201 224 255
201 224 255
201 224 255
201 224 255
201 224 255
201 224 255
201 224 255
201 224 255
201 224 255
201 224 255
201 225 255
201 225 255
201 225 255
201 225 255
201 225 255
202 225 255
202 225 255
202 225 255
202 225 255
202 225 255
202 225 255
202 225 255
202 225 255
202 225 255
202 225 255
202 225 255
202 225 255
202 225 255
202 225 255
202 225 255
202 225 255
202 225 255
202 225 255
203 225 255
203 225 255
203 225 255
203 225 255
203 225 255
203 225 255
203 225 255
203 225 255
203 225 255
203 226 255
203 226 255
203 226 255
203 226 255
203 226 255
203 226 255
203 226 255
204 226 255
204 226 255
204 226 255
204 226 255
204 226 255
204 226 255
204 226 255
204 226 255
204 226 255
204 226 255
204 226 255
204 226 255
204 226 255
204 226 255
204 226 255
204 226 255
205 226 255
205 226 255
205 226 255
205 226 255
205 226 255
205 226 255
205 227 255
205 227 255
205 227 255
205 227 255
205 227 255
205 227 255
205 227 255
205 227 255
205 227 255
205 227 255
206 227 255
206 227 255
206 227 255
206 227 255
206 227 255
206 227 255
206 227 255
206 227 255
206 227 255
206 227 255
206 227 255
206 227 255
206 227 255
206 227 255
206 227 255
206 227 255
206 227 255
207 227 255
207 227 255
207 227 255
207 227 255
207 227 255
207 228 255
207 228 255
207 228 255
207 228 255
207 228 255
207 228 255
207 228 255
207 228 255
207 228 255
207 228 255
207 228 255
207 228 255
207 228 255
207 228 255
208 228 255
208 228 255
208 228 255
208 228 255
208 228 255
208 228 255
208 228 255
208 228 255
208 228 255
208 228 255
208 228 255
208 228 255
208 228 255
208 228 255
208 228 255
208 228 255
208 228 255
208 228 255
208 228 255
208 228 255
209 228 255
209 228 255
209 229 255
209 229 255
209 229 255
209 229 255
209 229 255
209 229 255
209 229 255
209 229 255
209 229 255
209 229 255
209 229 255
209 229 255
209 229 255
209 229 255
209 229 255
209 229 255
209 229 255
209 229 255
209 229 255
209 229 255
209 229 255
210 229 255
210 229 255
210 229 255
210 229 255
210 229 255
210 229 255
209 229 255
209 229 255
209 229 255
209 229 255
209 229 255
209 229 255
209 229 255
209 229 255
209 229 255
209 229 255
209 229 255
209 229 255
209 229 255
209 229 255
209 229 255
209 229 255
209 229 255
209 229 255
209 229 255
209 229 255
209 229 255
209 228 255
208 228 255
208 228 255
208 228 255
208 228 255
208 228 255
208 228 255
208 228 255
208 228 255
208 228 255
208 228 255
208 228 255
208 228 255
208 228 255
208 228 255
208 228 255
208 228 255
208 228 255
208 228 255
208 228 255
208 228 255
207 228 255
207 228 255
207 228 255
207 228 255
207 228 255
207 228 255
207 228 255
207 228 255
207 228 255
207 228 255
207 228 255
207 228 255
207 228 255
207 228 255
207 227 255
207 227 255
207 227 255
207 227 255
207 227 255
206 227 255
206 227 255
206 227 255
206 227 255
206 227 255
206 227 255
206 227 255
206 227 255
206 227 255
206 227 255
206 227 255
206 227 255
206 227 255
206 227 255
206 227 255
206 227 255
206 227 255
205 227 255
205 227 255
205 227 255
205 227 255
205 227 255
205 227 255
205 227 255
205 227 255
205 227 255
205 227 255
205 226 255
205 226 255
205 226 255
205 226 255
205 226 255
205 226 255
204 226 255
204 226 255
204 226 255
204 226 255
204 226 255
204 226 255
204 226 255
204 226 255
204 226 255
204 226 255
204 226 255
204 226 255
204 226 255
204 226 255
204 226 255
204 226 255
203 226 255
203 226 255
203 226 255
203 226 255
203 226 255
203 226 255
203 226 255
203 225 255
203 225 255
203 225 255
203 225 255
203 225 255
203 225 255
203 225 255
203 225 255
203 225 255
203 225 255
202 225 255
202 225 255
202 225 255
202 225 255
202 225 255
202 225 255
202 225 255
202 225 255
202 225 255
202 225 255
202 225 255
202 225 255
202 225 255
202 225 255
202 225 255
202 225 255
202 225 255
201 225 255
201 225 255
201 225 255
201 225 255
201 225 255
201 225 255
201 225 255
201 224 255
201 224 255
201 224 255
201 224 255
201 224 255
201 224 255
201 224 255
201 224 255
201 224 255
201 224 255
201 224 255
201 224 255
201 224 255
201 224 255
201 224 255
201 224 255
201 224 255
200 224 255
200 224 255
200 224 255
200 224 255
200 224 255
200 224 255
200 224 255
200 224 255
200 224 255
200 224 255
200 224 255
200 224 255
200 224 255
200 224 255
200 224 255
200 224 255
200 224 255
200 224 255
200 224 255
200 224 255
200 224 255
200 224 255
200 224 255
200 224 255
200 224 255
200 224 255
200 224 255
200 224 255
200 224 255
200 224 255
200 224 255
200 224 255
200 224 255
200 224 255
200 224 255
200 224 255
200 224 255
200 224 255
200 224 255
200 224 255
200 224 255
200 224 255
200 224 255
200 224 255
200 224 255
200 224 255
200 224 255
200 224 255
200 224 255
200 224 255
200 224 255
200 224 255
200 224 255
200 224 255
201 224 255
201 224 255
201 224 255
201 224 255
201 224 255
201 224 255
201 224 255
201 224 255
201 224 255
201 224 255
201 224 255
201 224 255
201 224 255
201 224 255
201 224 255
201 224 255
201 224 255
201 225 255
201 225 255
201 225 255
201 225 255
201 225 255
201 225 255
201 225 255
202 225 255
202 225 255
202 225 255
202 225 255
202 225 255
202 225 255
202 225 255
202 225 255
202 225 255
202 225 255
202 225 255
202 225 255
202 225 255
202 225 255
202 225 255
202 225 255
202 225 255
203 225 255
203 225 255
203 225 255
203 225 255
203 225 255
203 225 255
203 225 255
203 225 255
203 225 255
203 225 255
203 226 255
203 226 255
203 226 255
203 226 255
203 226 255
203 226 255
203 226 255
204 226 255
204 226 255
204 226 255
204 226 255
204 226 255
204 226 255
204 226 255
204 226 255
204 226 255
204 226 255
204 226 255
204 226 255
204 226 255
204 226 255
204 226 255
204 226 255
205 226 255
205 226 255
205 226 255
205 226 255
205 226 255
205 226 255
205 227 255
205 227 255
205 227 255
205 227 255
205 227 255
205 227 255
205 227 255
205 227 255
205 227 255
205 227 255
206 227 255
206 227 255
206 227 255
206 227 255
206 227 255
206 227 255
206 227 255
206 227 255
206 227 255
206 227 255
206 227 255
206 227 255
206 227 255
206 227 255
206 227 255
206 227 255
206 227 255
207 227 255
207 227 255
207 227 255
207 227 255
207 228 255
207 228 255
207 228 255
207 228 255
207 228 255
207 228 255
207 228 255
207 228 255
207 228 255
207 228 255
207 228 255
207 228 255
207 228 255
207 228 255
207 228 255
208 228 255
208 228 255
208 228 255
208 228 255
208 228 255
208 228 255
208 228 255
208 228 255
208 228 255
208 228 255
208 228 255
208 228 255
208 228 255
208 228 255
208 228 255
208 228 255
208 228 255
208 228 255
208 228 255
208 228 255
209 228 255
209 229 255
209 229 255
209 229 255
209 229 255
209 229 255
209 229 255
209 229 255
209 229 255
209 229 255
209 229 255
209 229 255
209 229 255
209 229 255
209 229 255
209 229 255
209 229 255
209 229 255
209 229 255
209 229 255
209 229 255
209 229 255
210 229 255
210 229 255
210 229 255
210 229 255
210 229 255
210 229 255
210 229 255
210 229 255
210 229 255
210 229 255
210 229 255
210 229 255
210 229 255
210 229 255
209 229 255
209 229 255
209 229 255
209 229 255
209 229 255
209 229 255
209 229 255
209 229 255
209 229 255
209 229 255
209 229 255
209 229 255
209 229 255
209 229 255
209 229 255
209 229 255
209 229 255
209 229 255
209 229 255
209 229 255
209 228 255
209 228 255
208 228 255
208 228 255
208 228 255
208 228 255
208 228 255
208 228 255
208 228 255
208 228 255
208 228 255
208 228 255
208 228 255
208 228 255
208 228 255
208 228 255
208 228 255
208 228 255
208 228 255
208 228 255
208 228 255
208 228 255
207 228 255
207 228 255
207 228 255
207 228 255
207 228 255
207 228 255
207 228 255
207 228 255
207 228 255
207 228 255
207 228 255
207 228 255
207 228 255
207 228 255
207 227 255
207 227 255
207 227 255
207 227 255
206 227 255
206 227 255
206 227 255
206 227 255
206 227 255
206 227 255
206 227 255
206 227 255
206 227 255
206 227 255
206 227 255
206 227 255
206 227 255
206 227 255
206 227 255
206 227 255
206 227 255
205 227 255
205 227 255
205 227 255
205 227 255
205 227 255
205 227 255
205 227 255
205 227 255
205 227 255
205 227 255
205 226 255
205 226 255
205 226 255
205 226 255
205 226 255
205 226 255
204 226 255
204 226 255
204 226 255
204 226 255
204 226 255
204 226 255
204 226 255
204 226 255
204 226 255
204 226 255
204 226 255
204 226 255
204 226 255
204 226 255
204 226 255
204 226 255
203 226 255
203 226 255
203 226 255
203 226 255
203 226 255
203 226 255
203 226 255
203 226 255
203 225 255
203 225 255
203 225 255
203 225 255
203 225 255
203 225 255
203 225 255
203 225 255
203 225 255
202 225 255
202 225 255
202 225 255
202 225 255
202 225 255
202 225 255
202 225 255
202 225 255
202 225 255
202 225 255
202 225 255
202 225 255
202 225 255
202 225 255
202 225 255
202 225 255
202 225 255
202 225 255
202 225 255
201 225 255
201 225 255
201 225 255
201 225 255
201 225 255
201 225 255
201 224 255
201 224 255
201 224 255
201 224 255
201 224 255
201 224 255
201 224 255
201 224 255
201 224 255
201 224 255
201 224 255
201 224 255
201 224 255
201 224 255
201 224 255
201 224 255
201 224 255
201 224 255
201 224 255
201 224 255
201 224 255
201 224 255
200 224 255
200 224 255
200 224 255
200 224 255
200 224 255
200 224 255
200 224 255
200 224 255
200 224 255
200 224 255
200 224 255
200 224 255
200 224 255
200 224 255
200 224 255
200 224 255
200 224 255
200 224 255
200 224 255
200 224 255
200 224 255
200 224 255
200 224 255
200 224 255
200 224 255
200 224 255
200 224 255
200 224 255
200 224 255
200 224 255
200 224 255
200 224 255
200 224 255
200 224 255
200 224 255
200 224 255
200 224 255
201 224 255
201 224 255
201 224 255
201 224 255
201 224 255
201 224 255
201 224 255
201 224 255
201 224 255
201 224 255
201 224 255
201 224 255
201 224 255
201 224 255
201 224 255
201 224 255
201 224 255
201 224 255
201 224 255
201 224 255
201 224 255
201 225 255
201 225 255
201 225 255
201 225 255
201 225 255
201 225 255
202 225 255
202 225 255
202 225 255
202 225 255
202 225 255
202 225 255
202 225 255
202 225 255
202 225 255
202 225 255
202 225 255
202 225 255
202 225 255
202 225 255
202 225 255
202 225 255
202 225 255
202 225 255
202 225 255
203 225 255
203 225 255
203 225 255
203 225 255
203 225 255
203 225 255
203 225 255
203 225 255
203 225 255
203 226 255
203 226 255
203 226 255
203 226 255
203 226 255
203 226 255
203 226 255
203 226 255
204 226 255
204 226 255
204 226 255
204 226 255
204 226 255
204 226 255
204 226 255
204 226 255
204 226 255
204 226 255
204 226 255
204 226 255
204 226 255
204 226 255
204 226 255
204 226 255
205 226 255
205 226 255
205 226 255
205 226 255
205 226 255
205 226 255
205 227 255
205 227 255
205 227 255
205 227 255
205 227 255
205 227 255
205 227 255
205 227 255
205 227 255
205 227 255
206 227 255
206 227 255
206 227 255
206 227 255
206 227 255
206 227 255
206 227 255
206 227 255
206 227 255
206 227 255
206 227 255
206 227 255
206 227 255
206 227 255
206 227 255
206 227 255
206 227 255
207 227 255
207 227 255
207 227 255
207 227 255
207 228 255
207 228 255
207 228 255
207 228 255
207 228 255
207 228 255
207 228 255
207 228 255
207 228 255
207 228 255
207 228 255
207 228 255
207 228 255
207 228 255
208 228 255
208 228 255
208 228 255
208 228 255
208 228 255
208 228 255
208 228 255
208 228 255
208 228 255
208 228 255
208 228 255
208 228 255
208 228 255
208 228 255
208 228 255
208 228 255
208 228 255
208 228 255
208 228 255
208 228 255
209 228 255
209 228 255
209 229 255
209 229 255
209 229 255
209 229 255
209 229 255
209 229 255
209 229 255
209 229 255
209 229 255
209 229 255
209 229 255
209 229 255
209 229 255
209 229 255
209 229 255
209 229 255
209 229 255
209 229 255
209 229 255
209 229 255
210 229 255
210 229 255
210 229 255
210 229 255
210 229 255
210 229 255
210 229 255
210 229 255
210 229 255
210 229 255
210 229 255
210 229 255
210 229 255
210 229 255
210 229 255
210 229 255
210 229 255
210 229 255
210 229 255
210 229 255
210 229 255
209 229 255
209 229 255
209 229 255
209 229 255
209 229 255
209 229 255
209 229 255
209 229 255
209 229 255
209 229 255
209 229 255
209 229 255
209 229 255
209 229 255
209 229 255
209 229 255
209 229 255
209 229 255
209 229 255
209 229 255
209 229 255
209 228 255
208 228 255
208 228 255
208 228 255
208 228 255
208 228 255
208 228 255
208 228 255
208 228 255
208 228 255
208 228 255
208 228 255
208 228 255
208 228 255
208 228 255
208 228 255
208 228 255
208 228 255
208 228 255
208 228 255
208 228 255
207 228 255
207 228 255
207 228 255
207 228 255
207 228 255
207 228 255
207 228 255
207 228 255
207 228 255
207 228 255
207 228 255
207 228 255
207 228 255
207 228 255
207 227 255
207 227 255
207 227 255
207 227 255
206 227 255
206 227 255
206 227 255
206 227 255
206 227 255
206 227 255
206 227 255
206 227 255
206 227 255
206 227 255
206 227 255
206 227 255
206 227 255
206 227 255
206 227 255
206 227 255
206 227 255
205 227 255
205 227 255
205 227 255
205 227 255
205 227 255
205 227 255
205 227 255
205 227 255
205 227 255
205 227 255
205 226 255
205 226 255
205 226 255
205 226 255
205 226 255
205 226 255
204 226 255
204 226 255
204 226 255
204 226 255
204 226 255
204 226 255
204 226 255
204 226 255
204 226 255
204 226 255
204 226 255
204 226 255
204 226 255
204 226 255
204 226 255
204 226 255
204 226 255
203 226 255
203 226 255
203 226 255
203 226 255
203 226 255
203 226 255
203 226 255
203 225 255
203 225 255
203 225 255
203 225 255
203 225 255
203 225 255
203 225 255
203 225 255
203 225 255
203 225 255
202 225 255
202 225 255
202 225 255
202 225 255
202 225 255
202 225 255
202 225 255
202 225 255
202 225 255
202 225 255
202 225 255
202 225 255
202 225 255
202 225 255
202 225 255
202 225 255
202 225 255
202 225 255
202 225 255
201 225 255
201 225 255
201 225 255
201 225 255
201 225 255
201 225 255
201 225 255
201 225 255
201 224 255
201 224 255
201 224 255
201 224 255
201 224 255
201 224 255
201 224 255
201 224 255
201 224 255
201 224 255
201 224 255
201 224 255
201 224 255
201 224 255
201 224 255
201 224 255
201 224 255
201 224 255
201 224 255
201 224 255
201 224 255
201 224 255
201 224 255
201 224 255
201 224 255
201 224 255
201 224 255
201 224 255
201 224 255
201 224 255
201 224 255
201 224 255
201 224 255
201 224 255
201 224 255
201 224 255
201 224 255
201 224 255
201 224 255
201 224 255
201 224 255
201 224 255
201 224 255
201 224 255
201 224 255
201 224 255
201 224 255
201 224 255
201 224 255
201 224 255
201 224 255
201 224 255
201 224 255
201 224 255
201 224 255
201 224 255
201 224 255
201 224 255
201 224 255
201 224 255
201 224 255
201 224 255
201 224 255
201 224 255
201 224 255
201 224 255
201 224 255
201 224 255
201 225 255
201 225 255
201 225 255
201 225 255
201 225 255
201 225 255
201 225 255
202 225 255
202 225 255
202 225 255
202 225 255
202 225 255
202 225 255
202 225 255
202 225 255
202 225 255
202 225 255
202 225 255
202 225 255
202 225 255
202 225 255
202 225 255
202 225 255
202 225 255
202 225 255
202 225 255
202 225 255
203 225 255
203 225 255
203 225 255
203 225 255
203 225 255
203 225 255
203 225 255
203 225 255
203 225 255
203 225 255
203 226 255
203 226 255
203 226 255
203 226 255
203 226 255
203 226 255
203 226 255
204 226 255
204 226 255
204 226 255
204 226 255
204 226 255
204 226 255
204 226 255
204 226 255
204 226 255
204 226 255
204 226 255
204 226 255
204 226 255
204 226 255
204 226 255
204 226 255
204 226 255
205 226 255
205 226 255
205 226 255
205 226 255
205 226 255
205 226 255
205 227 255
205 227 255
205 227 255
205 227 255
205 227 255
205 227 255
205 227 255
205 227 255
205 227 255
205 227 255
206 227 255
206 227 255
206 227 255
206 227 255
206 227 255
206 227 255
206 227 255
206 227 255
206 227 255
206 227 255
206 227 255
206 227 255
206 227 255
206 227 255
206 227 255
206 227 255
206 227 255
207 227 255
207 227 255
207 227 255
207 227 255
207 228 255
207 228 255
207 228 255
207 228 255
207 228 255
207 228 255
207 228 255
207 228 255
207 228 255
207 228 255
207 228 255
207 228 255
207 228 255
207 228 255
208 228 255
208 228 255
208 228 255
208 228 255
208 228 255
208 228 255
208 228 255
208 228 255
208 228 255
208 228 255
208 228 255
208 228 255
208 228 255
208 228 255
208 228 255
208 228 255
208 228 255
208 228 255
208 228 255
208 228 255
209 228 255
209 229 255
209 229 255
209 229 255
209 229 255
209 229 255
209 229 255
209 229 255
209 229 255
209 229 255
209 229 255
209 229 255
209 229 255
209 229 255
209 229 255
209 229 255
209 229 255
209 229 255
209 229 255
209 229 255
209 229 255
209 229 255
210 229 255
210 229 255
210 229 255
210 229 255
210 229 255
210 229 255
210 229 255
210 229 255
210 229 255
210 229 255
210 229 255
210 229 255
210 229 255
210 229 255
210 229 255
210 229 255
210 229 255
210 229 255
210 229 255
210 229 255
210 229 255
210 229 255
210 229 255
210 229 255
210 229 255
210 229 255
210 229 255
210 229 255
209 229 255
209 229 255
209 229 255
209 229 255
209 229 255
209 229 255
209 229 255
209 229 255
209 229 255
209 229 255
209 229 255
209 229 255
209 229 255
209 229 255
209 229 255
209 229 255
209 229 255
209 229 255
209 229 255
209 229 255
209 228 255
209 228 255
208 228 255
208 228 255
208 228 255
208 228 255
208 228 255
208 228 255
208 228 255
208 228 255
208 228 255
208 228 255
208 228 255
208 228 255
208 228 255
208 228 255
208 228 255
208 228 255
208 228 255
208 228 255
208 228 255
207 228 255
207 228 255
207 228 255
207 228 255
207 228 255
207 228 255
207 228 255
207 228 255
207 228 255
207 228 255
207 228 255
207 228 255
207 228 255
207 228 255
207 227 255
207 227 255
207 227 255
207 227 255
206 227 255
206 227 255
206 227 255
206 227 255
206 227 255
206 227 255
206 227 255
206 227 255
206 227 255
206 227 255
206 227 255
206 227 255
206 227 255
206 227 255
206 227 255
206 227 255
206 227 255
205 227 255
205 227 255
205 227 255
205 227 255
205 227 255
205 227 255
205 227 255
205 227 255
205 227 255
205 227 255
205 226 255
205 226 255
205 226 255
205 226 255
205 226 255
205 226 255
205 226 255
204 226 255
204 226 255
204 226 255
204 226 255
204 226 255
204 226 255
204 226 255
204 226 255
204 226 255
204 226 255
204 226 255
204 226 255
204 226 255
204 226 255
204 226 255
204 226 255
203 226 255
203 226 255
203 226 255
203 226 255
203 226 255
203 226 255
203 226 255
203 226 255
203 225 255
203 225 255
203 225 255
203 225 255
203 225 255
203 225 255
203 225 255
203 225 255
203 225 255
203 225 255
202 225 255
202 225 255
202 225 255
202 225 255
202 225 255
202 225 255
202 225 255
202 225 255
202 225 255
202 225 255
202 225 255
202 225 255
202 225 255
202 225 255
202 225 255
202 225 255
202 225 255
202 225 255
202 225 255
202 225 255
202 225 255
201 225 255
201 225 255
201 225 255
201 225 255
201 225 255
201 225 255
201 225 255
201 225 255
201 224 255
201 224 255
201 224 255
201 224 255
201 224 255
201 224 255
201 224 255
201 224 255
201 224 255
201 224 255
201 224 255
201 224 255
201 224 255
201 224 255
201 224 255
201 224 255
201 224 255
201 224 255
201 224 255
201 224 255
201 224 255
201 224 255
201 224 255
201 224 255
201 224 255
201 224 255
201 224 255
201 224 255
201 224 255
201 224 255
201 224 255
201 224 255
201 224 255
201 224 255
201 224 255
201 224 255
201 224 255
201 224 255
201 224 255
201 224 255
201 224 255
201 224 255
201 224 255
201 224 255
201 224 255
201 224 255
201 224 255
201 224 255
201 224 255
201 224 255
201 224 255
201 224 255
201 224 255
201 224 255
201 224 255
201 224 255
201 225 255
201 225 255
201 225 255
201 225 255
201 225 255
201 225 255
201 225 255
201 225 255
201 225 255
202 225 255
202 225 255
202 225 255
202 225 255
202 225 255
202 225 255
202 225 255
202 225 255
202 225 255
202 225 255
202 225 255
202 225 255
202 225 255
202 225 255
202 225 255
202 225 255
202 225 255
202 225 255
202 225 255
202 225 255
203 225 255
203 225 255
203 225 255
203 225 255
203 225 255
203 225 255
203 225 255
203 225 255
203 225 255
203 225 255
203 226 255
203 226 255
203 226 255
203 226 255
203 226 255
203 226 255
203 226 255
203 226 255
204 226 255
204 226 255
204 226 255
204 226 255
204 226 255
204 226 255
204 226 255
204 226 255
204 226 255
204 226 255
204 226 255
204 226 255
204 226 255
204 226 255
204 226 255
204 226 255
205 226 255
205 226 255
205 226 255
205 226 255
205 226 255
205 226 255
205 226 255
205 227 255
205 227 255
205 227 255
205 227 255
205 227 255
205 227 255
205 227 255
205 227 255
205 227 255
206 227 255
206 227 255
206 227 255
206 227 255
206 227 255
206 227 255
206 227 255
206 227 255
206 227 255
206 227 255
206 227 255
206 227 255
206 227 255
206 227 255
206 227 255
206 227 255
206 227 255
206 227 255
207 227 255
207 227 255
207 227 255
207 227 255
207 228 255
207 228 255
207 228 255
207 228 255
207 228 255
207 228 255
207 228 255
207 228 255
207 228 255
207 228 255
207 228 255
207 228 255
207 228 255
207 228 255
208 228 255
208 228 255
208 228 255
208 228 255
208 228 255
208 228 255
208 228 255
208 228 255
208 228 255
208 228 255
208 228 255
208 228 255
208 228 255
208 228 255
208 228 255
208 228 255
208 228 255
208 228 255
208 228 255
209 228 255
209 228 255
209 229 255
209 229 255
209 229 255
209 229 255
209 229 255
209 229 255
209 229 255
209 229 255
209 229 255
209 229 255
209 229 255
209 229 255
209 229 255
209 229 255
209 229 255
209 229 255
209 229 255
209 229 255
209 229 255
209 229 255
210 229 255
210 229 255
210 229 255
210 229 255
210 229 255
210 229 255
210 229 255
210 229 255
210 229 255
210 229 255
210 229 255
210 229 255
210 229 255
210 229 255
210 229 255
210 229 255
210 229 255
210 229 255
210 229 255
210 229 255
210 229 255
210 229 255
210 229 255
210 229 255
210 229 255
210 229 255
210 229 255
210 229 255
210 229 255
210 229 255
210 229 255
210 229 255
210 229 255
210 229 255
210 229 255
209 229 255
209 229 255
209 229 255
209 229 255
209 229 255
209 229 255
209 229 255
209 229 255
209 229 255
209 229 255
209 229 255
209 229 255
209 229 255
209 229 255
209 229 255
209 229 255
209 229 255
209 229 255
209 229 255
209 229 255
209 229 255
209 228 255
208 228 255
208 228 255
208 228 255
208 228 255
208 228 255
208 228 255
208 228 255
208 228 255
208 228 255
208 228 255
208 228 255
208 228 255
208 228 255
208 228 255
208 228 255
208 228 255
208 228 255
208 228 255
208 228 255
208 228 255
207 228 255
207 228 255
207 228 255
207 228 255
207 228 255
207 228 255
207 228 255
207 228 255
207 228 255
207 228 255
207 228 255
207 228 255
207 228 255
207 227 255
207 227 255
207 227 255
207 227 255
207 227 255
206 227 255
206 227 255
206 227 255
206 227 255
206 227 255
206 227 255
206 227 255
206 227 255
206 227 255
206 227 255
206 227 255
206 227 255
206 227 255
206 227 255
206 227 255
206 227 255
206 227 255
205 227 255
205 227 255
205 227 255
205 227 255
205 227 255
205 227 255
205 227 255
205 227 255
205 227 255
205 226 255
205 226 255
205 226 255
205 226 255
205 226 255
205 226 255
205 226 255
204 226 255
204 226 255
204 226 255
204 226 255
204 226 255
204 226 255
204 226 255
204 226 255
204 226 255
204 226 255
204 226 255
204 226 255
204 226 255
204 226 255
204 226 255
204 226 255
204 226 255
203 226 255
203 226 255
203 226 255
203 226 255
203 226 255
203 226 255
203 226 255
203 225 255
203 225 255
203 225 255
203 225 255
203 225 255
203 225 255
203 225 255
203 225 255
203 225 255
203 225 255
203 225 255
202 225 255
202 225 255
202 225 255
202 225 255
202 225 255
202 225 255
202 225 255
202 225 255
202 225 255
202 225 255
202 225 255
202 225 255
202 225 255
202 225 255
202 225 255
202 225 255
202 225 255
202 225 255
202 225 255
202 225 255
202 225 255
202 225 255
202 225 255
201 225 255
201 225 255
201 225 255
201 225 255
201 225 255
201 225 255
201 225 255
201 225 255
201 225 255
201 225 255
201 224 255
201 224 255
201 224 255
201 224 255
201 224 255
201 224 255
201 224 255
201 224 255
201 224 255
201 224 255
201 224 255
201 224 255
201 224 255
201 224 255
201 224 255
201 224 255
201 224 255
201 224 255
201 224 255
201 224 255
201 224 255
201 224 255
201 224 255
201 224 255
201 224 255
201 224 255
201 224 255
201 224 255
201 224 255
201 224 255
201 224 255
201 224 255
201 224 255
201 224 255
201 224 255
201 224 255
201 224 255
201 224 255
201 224 255
201 224 255
201 225 255
201 225 255
201 225 255
201 225 255
201 225 255
201 225 255
201 225 255
201 225 255
201 225 255
201 225 255
202 225 255
202 225 255
202 225 255
202 225 255
202 225 255
202 225 255
202 225 255
202 225 255
202 225 255
202 225 255
202 225 255
202 225 255
202 225 255
202 225 255
202 225 255
202 225 255
202 225 255
202 225 255
202 225 255
202 225 255
202 225 255
202 225 255
202 225 255
203 225 255
203 225 255
203 225 255
203 225 255
203 225 255
203 225 255
203 225 255
203 225 255
203 225 255
203 225 255
203 226 255
203 226 255
203 226 255
203 226 255
203 226 255
203 226 255
203 226 255
203 226 255
204 226 255
204 226 255
204 226 255
204 226 255
204 226 255
204 226 255
204 226 255
204 226 255
204 226 255
204 226 255
204 226 255
204 226 255
204 226 255
204 226 255
204 226 255
204 226 255
204 226 255
205 226 255
205 226 255
205 226 255
205 226 255
205 226 255
205 226 255
205 226 255
205 227 255
205 227 255
205 227 255
205 227 255
205 227 255
205 227 255
205 227 255
205 227 255
205 227 255
206 227 255
206 227 255
206 227 255
206 227 255
206 227 255
206 227 255
206 227 255
206 227 255
206 227 255
206 227 255
206 227 255
206 227 255
206 227 255
206 227 255
206 227 255
206 227 255
206 227 255
207 227 255
207 227 255
207 227 255
207 227 255
207 227 255
207 228 255
207 228 255
207 228 255
207 228 255
207 228 255
207 228 255
207 228 255
207 228 255
207 228 255
207 228 255
207 228 255
207 228 255
207 228 255
208 228 255
208 228 255
208 228 255
208 228 255
208 228 255
208 228 255
208 228 255
208 228 255
208 228 255
208 228 255
208 228 255
208 228 255
208 228 255
208 228 255
208 228 255
208 228 255
208 228 255
208 228 255
208 228 255
208 228 255
209 228 255
209 229 255
209 229 255
209 229 255
209 229 255
209 229 255
209 229 255
209 229 255
209 229 255
209 229 255
209 229 255
209 229 255
209 229 255
209 229 255
209 229 255
209 229 255
209 229 255
209 229 255
209 229 255
209 229 255
209 229 255
209 229 255
210 229 255
210 229 255
210 229 255
210 229 255
210 229 255
210 229 255
210 229 255
210 229 255
210 229 255
210 229 255
210 229 255
210 229 255
210 229 255
210 229 255
210 229 255
210 229 255
210 229 255
210 229 255
210 229 255
210 230 255
210 229 255
210 229 255
210 229 255
210 229 255
210 229 255
210 229 255
210 229 255
210 229 255
210 229 255
210 229 255
210 229 255
210 229 255
210 229 255
210 229 255
210 229 255
210 229 255
210 229 255
210 229 255
210 229 255
210 229 255
210 229 255
210 229 255
209 229 255
209 229 255
209 229 255
209 229 255
209 229 255
209 229 255
209 229 255
209 229 255
209 229 255
209 229 255
209 229 255
209 229 255
209 229 255
209 229 255
209 229 255
209 229 255
209 229 255
209 229 255
209 229 255
209 229 255
209 228 255
209 228 255
208 228 255
208 228 255
208 228 255
208 228 255
208 228 255
208 228 255
208 228 255
208 228 255
208 228 255
208 228 255
208 228 255
208 228 255
208 228 255
208 228 255
208 228 255
208 228 255
208 228 255
208 228 255
208 228 255
207 228 255
207 228 255
207 228 255
207 228 255
207 228 255
207 228 255
207 228 255
207 228 255
207 228 255
207 228 255
207 228 255
207 228 255
207 228 255
207 228 255
207 227 255
207 227 255
207 227 255
207 227 255
206 227 255
206 227 255
206 227 255
206 227 255
206 227 255
206 227 255
206 227 255
206 227 255
206 227 255
206 227 255
206 227 255
206 227 255
206 227 255
206 227 255
206 227 255
206 227 255
206 227 255
205 227 255
205 227 255
205 227 255
205 227 255
205 227 255
205 227 255
205 227 255
205 227 255
205 227 255
205 227 255
205 226 255
205 226 255
205 226 255
205 226 255
205 226 255
205 226 255
204 226 255
204 226 255
204 226 255
204 226 255
204 226 255
204 226 255
204 226 255
204 226 255
204 226 255
204 226 255
204 226 255
204 226 255
204 226 255
204 226 255
204 226 255
204 226 255
204 226 255
203 226 255
203 226 255
203 226 255
203 226 255
203 226 255
203 226 255
203 226 255
203 226 255
203 225 255
203 225 255
203 225 255
203 225 255
203 225 255
203 225 255
203 225 255
203 225 255
203 225 255
203 225 255
203 225 255
202 225 255
202 225 255
202 225 255
202 225 255
202 225 255
202 225 255
202 225 255
202 225 255
202 225 255
202 225 255
202 225 255
202 225 255
202 225 255
202 225 255
202 225 255
202 225 255
202 225 255
202 225 255
202 225 255
202 225 255
202 225 255
202 225 255
202 225 255
202 225 255
202 225 255
202 225 255
201 225 255
201 225 255
201 225 255
201 225 255
201 225 255
201 225 255
201 225 255
201 225 255
201 225 255
201 225 255
201 225 255
201 225 255
201 225 255
201 225 255
201 225 255
201 225 255
201 225 255
201 224 255
201 224 255
201 224 255
201 224 255
201 224 255
201 224 255
201 224 255
201 224 255
201 224 255
201 224 255
201 224 255
201 224 255
201 225 255
201 225 255
201 225 255
201 225 255
201 225 255
201 225 255
201 225 255
201 225 255
201 225 255
201 225 255
201 225 255
201 225 255
201 225 255
201 225 255
201 225 255
201 225 255
201 225 255
202 225 255
202 225 255
202 225 255
202 225 255
202 225 255
202 225 255
202 225 255
202 225 255
202 225 255
202 225 255
202 225 255
202 225 255
202 225 255
202 225 255
202 225 255
202 225 255
202 225 255
202 225 255
202 225 255
202 225 255
202 225 255
202 225 255
202 225 255
202 225 255
202 225 255
202 225 255
203 225 255
203 225 255
203 225 255
203 225 255
203 225 255
203 225 255
203 225 255
203 225 255
203 225 255
203 225 255
203 225 255
203 226 255
203 226 255
203 226 255
203 226 255
203 226 255
203 226 255
203 226 255
203 226 255
204 226 255
204 226 255
204 226 255
204 226 255
204 226 255
204 226 255
204 226 255
204 226 255
204 226 255
204 226 255
204 226 255
204 226 255
204 226 255
204 226 255
204 226 255
204 226 255
204 226 255
205 226 255
205 226 255
205 226 255
205 226 255
205 226 255
205 226 255
205 227 255
205 227 255
205 227 255
205 227 255
205 227 255
205 227 255
205 227 255
205 227 255
205 227 255
205 227 255
206 227 255
206 227 255
206 227 255
206 227 255
206 227 255
206 227 255
206 227 255
206 227 255
206 227 255
206 227 255
206 227 255
206 227 255
206 227 255
206 227 255
206 227 255
206 227 255
206 227 255
207 227 255
207 227 255
207 227 255
207 227 255
207 228 255
207 228 255
207 228 255
207 228 255
207 228 255
207 228 255
207 228 255
207 228 255
207 228 255
207 228 255
207 228 255
207 228 255
207 228 255
207 228 255
208 228 255
208 228 255
208 228 255
208 228 255
208 228 255
208 228 255
208 228 255
208 228 255
208 228 255
208 228 255
208 228 255
208 228 255
208 228 255
208 228 255
208 228 255
208 228 255
208 228 255
208 228 255
208 228 255
208 228 255
209 228 255
209 229 255
209 229 255
209 229 255
209 229 255
209 229 255
209 229 255
209 229 255
209 229 255
209 229 255
209 229 255
209 229 255
209 229 255
209 229 255
209 229 255
209 229 255
209 229 255
209 229 255
209 229 255
209 229 255
209 229 255
210 229 255
210 229 255
210 229 255
210 229 255
210 229 255
210 229 255
210 229 255
210 229 255
210 229 255
210 229 255
210 229 255
210 229 255
210 229 255
210 229 255
210 229 255
210 229 255
210 229 255
210 229 255
210 229 255
210 229 255
210 229 255
210 229 255
210 230 255
211 230 255
211 230 255
210 230 255
210 230 255
210 230 255
210 229 255
210 229 255
210 229 255
210 229 255
210 229 255
210 229 255
210 229 255
210 229 255
210 229 255
210 229 255
210 229 255
210 229 255
210 229 255
210 229 255
210 229 255
210 229 255
210 229 255
210 229 255
210 229 255
210 229 255
210 229 255
210 229 255
209 229 255
209 229 255
209 229 255
209 229 255
209 229 255
209 229 255
209 229 255
209 229 255
209 229 255
209 229 255
209 229 255
209 229 255
209 229 255
209 229 255
209 229 255
209 229 255
209 229 255
209 229 255
209 229 255
209 229 255
209 228 255
208 228 255
208 228 255
208 228 255
208 228 255
208 228 255
208 228 255
208 228 255
208 228 255
208 228 255
208 228 255
208 228 255
208 228 255
208 228 255
208 228 255
208 228 255
208 228 255
208 228 255
208 228 255
208 228 255
207 228 255
207 228 255
207 228 255
207 228 255
207 228 255
207 228 255
207 228 255
207 228 255
207 228 255
207 228 255
207 228 255
207 228 255
207 228 255
207 228 255
207 227 255
207 227 255
207 227 255
207 227 255
206 227 255
206 227 255
206 227 255
206 227 255
206 227 255
206 227 255
206 227 255
206 227 255
206 227 255
206 227 255
206 227 255
206 227 255
206 227 255
206 227 255
206 227 255
206 227 255
206 227 255
205 227 255
205 227 255
205 227 255
205 227 255
205 227 255
205 227 255
205 227 255
205 227 255
205 227 255
205 227 255
205 226 255
205 226 255
205 226 255
205 226 255
205 226 255
205 226 255
205 226 255
204 226 255
204 226 255
204 226 255
204 226 255
204 226 255
204 226 255
204 226 255
204 226 255
204 226 255
204 226 255
204 226 255
204 226 255
204 226 255
204 226 255
204 226 255
204 226 255
204 226 255
203 226 255
203 226 255
203 226 255
203 226 255
203 226 255
203 226 255
203 226 255
203 226 255
203 225 255
203 225 255
203 225 255
203 225 255
203 225 255
203 225 255
203 225 255
203 225 255
203 225 255
203 225 255
203 225 255
203 225 255
202 225 255
202 225 255
202 225 255
202 225 255
202 225 255
202 225 255
202 225 255
202 225 255
202 225 255
202 225 255
202 225 255
202 225 255
202 225 255
202 225 255
202 225 255
202 225 255
202 225 255
202 225 255
202 225 255
202 225 255
202 225 255
202 225 255
202 225 255
202 225 255
202 225 255
202 225 255
202 225 255
202 225 255
202 225 255
202 225 255
202 225 255
201 225 255
201 225 255
201 225 255
201 225 255
201 225 255
201 225 255
201 225 255
201 225 255
201 225 255
201 225 255
201 225 255
201 225 255
201 225 255
201 225 255
201 225 255
201 225 255
201 225 255
201 225 255
201 225 255
201 225 255
201 225 255
201 225 255
201 225 255
201 225 255
201 225 255
201 225 255
202 225 255
202 225 255
202 225 255
202 225 255
202 225 255
202 225 255
202 225 255
202 225 255
202 225 255
202 225 255
202 225 255
202 225 255
202 225 255
202 225 255
202 225 255
202 225 255
202 225 255
202 225 255
202 225 255
202 225 255
202 225 255
202 225 255
202 225 255
202 225 255
202 225 255
202 225 255
202 225 255
202 225 255
202 225 255
202 225 255
202 225 255
203 225 255
203 225 255
203 225 255
203 225 255
203 225 255
203 225 255
203 225 255
203 225 255
203 225 255
203 225 255
203 225 255
203 225 255
203 226 255
203 226 255
203 226 255
203 226 255
203 226 255
203 226 255
203 226 255
203 226 255
204 226 255
204 226 255
204 226 255
204 226 255
204 226 255
204 226 255
204 226 255
204 226 255
204 226 255
204 226 255
204 226 255
204 226 255
204 226 255
204 226 255
204 226 255
204 226 255
204 226 255
205 226 255
205 226 255
205 226 255
205 226 255
205 226 255
205 226 255
205 226 255
205 227 255
205 227 255
205 227 255
205 227 255
205 227 255
205 227 255
205 227 255
205 227 255
205 227 255
205 227 255
206 227 255
206 227 255
206 227 255
206 227 255
206 227 255
206 227 255
206 227 255
206 227 255
206 227 255
206 227 255
206 227 255
206 227 255
206 227 255
206 227 255
206 227 255
206 227 255
206 227 255
207 227 255
207 227 255
207 227 255
207 227 255
207 228 255
207 228 255
207 228 255
207 228 255
207 228 255
207 228 255
207 228 255
207 228 255
207 228 255
207 228 255
207 228 255
207 228 255
207 228 255
207 228 255
208 228 255
208 228 255
208 228 255
208 228 255
208 228 255
208 228 255
208 228 255
208 228 255
208 228 255
208 228 255
208 228 255
208 228 255
208 228 255
208 228 255
208 228 255
208 228 255
208 228 255
208 228 255
208 228 255
209 228 255
209 228 255
209 229 255
209 229 255
209 229 255
209 229 255
209 229 255
209 229 255
209 229 255
209 229 255
209 229 255
209 229 255
209 229 255
209 229 255
209 229 255
209 229 255
209 229 255
209 229 255
209 229 255
209 229 255
209 229 255
210 229 255
210 229 255
210 229 255
210 229 255
210 229 255
210 229 255
210 229 255
210 229 255
210 229 255
210 229 255
210 229 255
210 229 255
210 229 255
210 229 255
210 229 255
210 229 255
210 229 255
210 229 255
210 229 255
210 229 255
210 229 255
210 229 255
210 230 255
210 230 255
210 230 255
211 230 255
211 230 255
211 230 255
211 230 255
211 230 255
211 230 255
211 230 255
211 230 255
210 230 255
210 230 255
210 230 255
210 229 255
210 229 255
210 229 255
210 229 255
210 229 255
210 229 255
210 229 255
210 229 255
210 229 255
210 229 255
210 229 255
210 229 255
210 229 255
210 229 255
210 229 255
210 229 255
210 229 255
210 229 255
210 229 255
210 229 255
210 229 255
209 229 255
209 229 255
209 229 255
209 229 255
209 229 255
209 229 255
209 229 255
209 229 255
209 229 255
209 229 255
209 229 255
209 229 255
209 229 255
209 229 255
209 229 255
209 229 255
209 229 255
209 229 255
209 229 255
209 229 255
209 228 255
209 228 255
208 228 255
208 228 255
208 228 255
208 228 255
208 228 255
208 228 255
208 228 255
208 228 255
208 228 255
208 228 255
208 228 255
208 228 255
208 228 255
208 228 255
208 228 255
208 228 255
208 228 255
208 228 255
208 228 255
207 228 255
207 228 255
207 228 255
207 228 255
207 228 255
207 228 255
207 228 255
207 228 255
207 228 255
207 228 255
207 228 255
207 228 255
207 228 255
207 228 255
207 227 255
207 227 255
207 227 255
207 227 255
206 227 255
206 227 255
206 227 255
206 227 255
206 227 255
206 227 255
206 227 255
206 227 255
206 227 255
206 227 255
206 227 255
206 227 255
206 227 255
206 227 255
206 227 255
206 227 255
206 227 255
205 227 255
205 227 255
205 227 255
205 227 255
205 227 255
205 227 255
205 227 255
205 227 255
205 227 255
205 227 255
205 226 255
205 226 255
205 226 255
205 226 255
205 226 255
205 226 255
205 226 255
204 226 255
204 226 255
204 226 255
204 226 255
204 226 255
204 226 255
204 226 255
204 226 255
204 226 255
204 226 255
204 226 255
204 226 255
204 226 255
204 226 255
204 226 255
204 226 255
204 226 255
203 226 255
203 226 255
203 226 255
203 226 255
203 226 255
203 226 255
203 226 255
203 226 255
203 226 255
203 225 255
203 225 255
203 225 255
203 225 255
203 225 255
203 225 255
203 225 255
203 225 255
203 225 255
203 225 255
203 225 255
203 225 255
202 225 255
202 225 255
202 225 255
202 225 255
202 225 255
202 225 255
202 225 255
202 225 255
202 225 255
202 225 255
202 225 255
202 225 255
202 225 255
202 225 255
202 225 255
202 225 255
202 225 255
202 225 255
202 225 255
202 225 255
202 225 255
202 225 255
202 225 255
202 225 255
202 225 255
202 225 255
202 225 255
202 225 255
202 225 255
202 225 255
202 225 255
202 225 255
202 225 255
202 225 255
202 225 255
202 225 255
202 225 255
202 225 255
202 225 255
202 225 255
202 225 255
202 225 255
202 225 255
202 225 255
202 225 255
202 225 255
202 225 255
202 225 255
202 225 255
202 225 255
202 225 255
202 225 255
202 225 255
202 225 255
202 225 255
202 225 255
202 225 255
202 225 255
202 225 255
202 225 255
202 225 255
202 225 255
202 225 255
202 225 255
202 225 255
202 225 255
202 225 255
202 225 255
202 225 255
202 225 255
202 225 255
202 225 255
202 225 255
202 225 255
202 225 255
202 225 255
202 225 255
202 225 255
203 225 255
203 225 255
203 225 255
203 225 255
203 225 255
203 225 255
203 225 255
203 225 255
203 225 255
203 225 255
203 225 255
203 225 255
203 226 255
203 226 255
203 226 255
203 226 255
203 226 255
203 226 255
203 226 255
203 226 255
203 226 255
204 226 255
204 226 255
204 226 255
204 226 255
204 226 255
204 226 255
204 226 255
204 226 255
204 226 255
204 226 255
204 226 255
204 226 255
204 226 255
204 226 255
204 226 255
204 226 255
204 226 255
205 226 255
205 226 255
205 226 255
205 226 255
205 226 255
205 226 255
205 226 255
205 227 255
205 227 255
205 227 255
205 227 255
205 227 255
205 227 255
205 227 255
205 227 255
205 227 255
205 227 255
206 227 255
206 227 255
206 227 255
206 227 255
206 227 255
206 227 255
206 227 255
206 227 255
206 227 255
206 227 255
206 227 255
206 227 255
206 227 255
206 227 255
206 227 255
206 227 255
206 227 255
207 227 255
207 227 255
207 227 255
207 227 255
207 227 255
207 228 255
207 228 255
207 228 255
207 228 255
207 228 255
207 228 255
207 228 255
207 228 255
207 228 255
207 228 255
207 228 255
207 228 255
207 228 255
208 228 255
208 228 255
208 228 255
208 228 255
208 228 255
208 228 255
208 228 255
208 228 255
208 228 255
208 228 255
208 228 255
208 228 255
208 228 255
208 228 255
208 228 255
208 228 255
208 228 255
208 228 255
208 228 255
208 228 255
209 228 255
209 229 255
209 229 255
209 229 255
209 229 255
209 229 255
209 229 255
209 229 255
209 229 255
209 229 255
209 229 255
209 229 255
209 229 255
209 229 255
209 229 255
209 229 255
209 229 255
209 229 255
209 229 255
209 229 255
209 229 255
210 229 255
210 229 255
210 229 255
210 229 255
210 229 255
210 229 255
210 229 255
210 229 255
210 229 255
210 229 255
210 229 255
210 229 255
210 229 255
210 229 255
210 229 255
210 229 255
210 229 255
210 229 255
210 229 255
210 229 255
210 229 255
210 230 255
210 230 255
210 230 255
211 230 255
211 230 255
211 230 255
211 230 255
211 230 255
211 230 255
211 230 255
211 230 255
211 230 255
211 230 255
211 230 255
211 230 255
211 230 255
211 230 255
211 230 255
211 230 255
210 230 255
210 230 255
210 230 255
210 229 255
210 229 255
210 229 255
210 229 255
210 229 255
210 229 255
210 229 255
210 229 255
210 229 255
210 229 255
210 229 255
210 229 255
210 229 255
210 229 255
210 229 255
210 229 255
210 229 255
210 229 255
210 229 255
210 229 255
210 229 255
209 229 255
209 229 255
209 229 255
209 229 255
209 229 255
209 229 255
209 229 255
209 229 255
209 229 255
209 229 255
209 229 255
209 229 255
209 229 255
209 229 255
209 229 255
209 229 255
209 229 255
209 229 255
209 229 255
209 229 255
209 228 255
208 228 255
208 228 255
208 228 255
208 228 255
208 228 255
208 228 255
208 228 255
208 228 255
208 228 255
208 228 255
208 228 255
208 228 255
208 228 255
208 228 255
208 228 255
208 228 255
208 228 255
208 228 255
208 228 255
207 228 255
207 228 255
207 228 255
207 228 255
207 228 255
207 228 255
207 228 255
207 228 255
207 228 255
207 228 255
207 228 255
207 228 255
207 228 255
207 228 255
207 227 255
207 227 255
207 227 255
207 227 255
206 227 255
206 227 255
206 227 255
206 227 255
206 227 255
206 227 255
206 227 255
206 227 255
206 227 255
206 227 255
206 227 255
206 227 255
206 227 255
206 227 255
206 227 255
206 227 255
206 227 255
205 227 255
205 227 255
205 227 255
205 227 255
205 227 255
205 227 255
205 227 255
205 227 255
205 227 255
205 227 255
205 226 255
205 226 255
205 226 255
205 226 255
205 226 255
205 226 255
205 226 255
204 226 255
204 226 255
204 226 255
204 226 255
204 226 255
204 226 255
204 226 255
204 226 255
204 226 255
204 226 255
204 226 255
204 226 255
204 226 255
204 226 255
204 226 255
204 226 255
204 226 255
204 226 255
203 226 255
203 226 255
203 226 255
203 226 255
203 226 255
203 226 255
203 226 255
203 226 255
203 226 255
203 225 255
203 225 255
203 225 255
203 225 255
203 225 255
203 225 255
203 225 255
203 225 255
203 225 255
203 225 255
203 225 255
203 225 255
203 225 255
203 225 255
202 225 255
202 225 255
202 225 255
202 225 255
202 225 255
202 225 255
202 225 255
202 225 255
202 225 255
202 225 255
202 225 255
202 225 255
202 225 255
202 225 255
202 225 255
202 225 255
202 225 255
202 225 255
202 225 255
202 225 255
202 225 255
202 225 255
202 225 255
202 225 255
202 225 255
202 225 255
202 225 255
202 225 255
202 225 255
202 225 255
202 225 255
202 225 255
202 225 255
202 225 255
202 225 255
202 225 255
202 225 255
202 225 255
202 225 255
202 225 255
202 225 255
202 225 255
202 225 255
202 225 255
202 225 255
202 225 255
202 225 255
202 225 255
202 225 255
202 225 255
202 225 255
202 225 255
202 225 255
202 225 255
202 225 255
202 225 255
202 225 255
202 225 255
202 225 255
202 225 255
202 225 255
202 225 255
202 225 255
202 225 255
202 225 255
202 225 255
203 225 255
203 225 255
203 225 255
203 225 255
203 225 255
203 225 255
203 225 255
203 225 255
203 225 255
203 225 255
203 225 255
203 225 255
203 225 255
203 226 255
203 226 255
203 226 255
203 226 255
203 226 255
203 226 255
203 226 255
203 226 255
203 226 255
203 226 255
204 226 255
204 226 255
204 226 255
204 226 255
204 226 255
204 226 255
204 226 255
204 226 255
204 226 255
204 226 255
204 226 255
204 226 255
204 226 255
204 226 255
204 226 255
204 226 255
204 226 255
204 226 255
205 226 255
205 226 255
205 226 255
205 226 255
205 226 255
205 226 255
205 226 255
205 227 255
205 227 255
205 227 255
205 227 255
205 227 255
205 227 255
205 227 255
205 227 255
205 227 255
205 227 255
206 227 255
206 227 255
206 227 255
206 227 255
206 227 255
206 227 255
206 227 255
206 227 255
206 227 255
206 227 255
206 227 255
206 227 255
206 227 255
206 227 255
206 227 255
206 227 255
206 227 255
207 227 255
207 227 255
207 227 255
207 227 255
207 228 255
207 228 255
207 228 255
207 228 255
207 228 255
207 228 255
207 228 255
207 228 255
207 228 255
207 228 255
207 228 255
207 228 255
207 228 255
207 228 255
208 228 255
208 228 255
208 228 255
208 228 255
208 228 255
208 228 255
208 228 255
208 228 255
208 228 255
208 228 255
208 228 255
208 228 255
205 225 252
205 224 249
204 222 245
194 211 230
193 208 224
184 198 213
185 199 213
178 191 200
189 203 217
173 184 189
170 182 190
167 177 179
171 183 193
178 187 189
186 199 211
176 189 198
179 193 207
188 202 217
181 194 204
191 206 223
199 216 239
198 215 237
201 218 240
209 229 255
209 229 255
209 229 255
209 229 255
209 229 255
210 229 255
210 229 255
210 229 255
210 229 255
210 229 255
210 229 255
210 229 255
210 229 255
210 229 255
210 229 255
210 229 255
210 229 255
210 229 255
210 229 255
210 229 255
210 229 255
210 229 255
210 229 255
210 229 255
210 229 255
210 229 255
210 230 255
210 230 255
210 230 255
211 230 255
211 230 255
211 230 255
211 230 255
211 230 255
211 230 255
211 230 255
211 230 255
211 230 255
211 230 255
211 230 255
211 230 255
211 230 255
211 230 255
211 230 255
211 230 255
211 230 255
211 230 255
211 230 255
211 230 255
211 230 255
211 230 255
211 230 255
211 230 255
210 230 255
210 230 255
210 230 255
210 229 255
210 229 255
210 229 255
210 229 255
210 229 255
210 229 255
210 229 255
210 229 255
210 229 255
210 229 255
210 229 255
210 229 255
210 229 255
210 229 255
210 229 255
210 229 255
210 229 255
210 229 255
210 229 255
210 229 255
210 229 255
209 229 255
209 229 255
209 229 255
209 229 255
209 229 255
209 229 255
209 229 255
209 229 255
209 229 255
209 229 255
209 229 255
209 229 255
209 229 255
209 229 255
209 229 255
209 229 255
209 229 255
209 229 255
209 229 255
209 228 255
209 228 255
208 228 255
208 228 255
208 228 255
208 228 255
208 228 255
208 228 255
208 228 255
208 228 255
208 228 255
208 228 255
208 228 255
208 228 255
208 228 255
208 228 255
208 228 255
208 228 255
208 228 255
208 228 255
208 228 255
207 228 255
207 228 255
207 228 255
207 228 255
207 228 255
207 228 255
207 228 255
207 228 255
207 228 255
207 228 255
207 228 255
207 228 255
207 228 255
207 227 255
207 227 255
207 227 255
207 227 255
207 227 255
206 227 255
206 227 255
206 227 255
206 227 255
206 227 255
206 227 255
206 227 255
206 227 255
206 227 255
206 227 255
206 227 255
206 227 255
206 227 255
206 227 255
206 227 255
206 227 255
206 227 255
205 227 255
205 227 255
205 227 255
205 227 255
205 227 255
205 227 255
205 227 255
205 227 255
205 227 255
205 227 255
205 226 255
205 226 255
205 226 255
205 226 255
205 226 255
205 226 255
205 226 255
204 226 255
204 226 255
204 226 255
204 226 255
204 226 255
204 226 255
204 226 255
204 226 255
204 226 255
204 226 255
204 226 255
204 226 255
204 226 255
204 226 255
204 226 255
204 226 255
204 226 255
204 226 255
204 226 255
203 226 255
203 226 255
203 226 255
203 226 255
203 226 255
203 226 255
203 226 255
203 226 255
203 226 255
203 226 255
203 225 255
203 225 255
203 225 255
203 225 255
203 225 255
203 225 255
203 225 255
203 225 255
203 225 255
203 225 255
203 225 255
203 225 255
203 225 255
203 225 255
203 225 255
202 225 255
202 225 255
202 225 255
202 225 255
202 225 255
202 225 255
202 225 255
202 225 255
202 225 255
202 225 255
202 225 255
202 225 255
202 225 255
202 225 255
202 225 255
202 225 255
202 225 255
202 225 255
202 225 255
202 225 255
202 225 255
202 225 255
202 225 255
202 225 255
202 225 255
202 225 255
202 225 255
202 225 255
202 225 255
202 225 255
202 225 255
202 225 255
202 225 255
202 225 255
202 225 255
202 225 255
202 225 255
202 225 255
202 225 255
202 225 255
202 225 255
202 225 255
202 225 255
202 225 255
202 225 255
202 225 255
202 225 255
202 225 255
202 225 255
202 225 255
202 225 255
202 225 255
203 225 255
203 225 255
203 225 255
203 225 255
203 225 255
203 225 255
203 225 255
203 225 255
203 225 255
203 225 255
203 225 255
203 225 255
203 225 255
203 225 255
203 225 255
203 225 255
203 226 255
203 226 255
203 226 255
203 226 255
203 226 255
203 226 255
203 226 255
203 226 255
203 226 255
204 226 255
204 226 255
204 226 255
204 226 255
204 226 255
204 226 255
204 226 255
204 226 255
204 226 255
204 226 255
204 226 255
204 226 255
204 226 255
204 226 255
204 226 255
204 226 255
204 226 255
204 226 255
204 226 255
205 226 255
205 226 255
205 226 255
205 226 255
205 226 255
205 226 255
205 226 255
205 227 255
205 227 255
205 227 255
205 227 255
205 227 255
205 227 255
205 227 255
205 227 255
205 227 255
205 227 255
206 227 255
206 227 255
206 227 255
206 227 255
206 227 255
206 227 255
206 227 255
206 227 255
206 227 255
206 227 255
206 227 255
206 227 255
206 227 255
206 227 255
206 227 255
206 227 255
206 227 255
206 227 255
207 227 255
207 227 255
207 227 255
207 227 255
207 228 255
207 228 255
207 228 255
207 228 255
207 228 255
207 228 255
207 228 255
207 228 255
207 228 255
207 228 255
207 228 255
207 228 255
207 228 255
208 228 255
208 228 255
208 228 255
208 228 255
208 228 255
208 228 255
208 228 255
205 225 250
199 217 238
182 196 206
174 187 197
168 179 181
153 160 154
145 149 132
145 148 126
132 132 99
127 125 84
119 117 78
128 125 83
123 120 80
132 130 86
134 131 87
136 134 89
134 132 88
134 131 87
136 134 89
132 129 86
134 131 87
135 133 88
131 129 85
126 125 83
122 120 80
133 130 86
134 132 87
127 124 81
127 125 83
136 133 87
129 127 84
129 126 81
131 127 85
140 139 104
145 149 133
148 151 134
162 168 161
175 184 182
178 189 193
189 202 214
197 213 232
209 228 252
210 229 255
210 229 255
210 229 255
210 229 255
210 229 255
210 229 255
210 229 255
210 229 255
210 229 255
210 229 255
210 229 255
210 229 255
210 230 255
210 230 255
210 230 255
211 230 255
211 230 255
211 230 255
211 230 255
211 230 255
211 230 255
211 230 255
211 230 255
211 230 255
211 230 255
211 230 255
211 230 255
211 230 255
211 230 255
211 230 255
211 230 255
211 230 255
211 230 255
211 230 255
211 230 255
211 230 255
211 230 255
211 230 255
211 230 255
211 230 255
211 230 255
211 230 255
211 230 255
211 230 255
211 230 255
211 230 255
211 230 255
210 230 255
210 230 255
210 230 255
210 229 255
210 229 255
210 229 255
210 229 255
210 229 255
210 229 255
210 229 255
210 229 255
210 229 255
210 229 255
210 229 255
210 229 255
210 229 255
210 229 255
210 229 255
210 229 255
210 229 255
210 229 255
210 229 255
210 229 255
210 229 255
209 229 255
209 229 255
209 229 255
209 229 255
209 229 255
209 229 255
209 229 255
209 229 255
209 229 255
209 229 255
209 229 255
209 229 255
209 229 255
209 229 255
209 229 255
209 229 255
209 229 255
209 229 255
209 229 255
209 228 255
208 228 255
208 228 255
208 228 255
208 228 255
208 228 255
208 228 255
208 228 255
208 228 255
208 228 255
208 228 255
208 228 255
208 228 255
208 228 255
208 228 255
208 228 255
208 228 255
208 228 255
208 228 255
208 228 255
207 228 255
207 228 255
207 228 255
207 228 255
207 228 255
207 228 255
207 228 255
207 228 255
207 228 255
207 228 255
207 228 255
207 228 255
207 228 255
207 228 255
207 227 255
207 227 255
207 227 255
207 227 255
206 227 255
206 227 255
206 227 255
206 227 255
206 227 255
206 227 255
206 227 255
206 227 255
206 227 255
206 227 255
206 227 255
206 227 255
206 227 255
206 227 255
206 227 255
206 227 255
206 227 255
205 227 255
205 227 255
205 227 255
205 227 255
205 227 255
205 227 255
205 227 255
205 227 255
205 227 255
205 227 255
205 227 255
205 226 255
205 226 255
205 226 255
205 226 255
205 226 255
205 226 255
205 226 255
204 226 255
204 226 255
204 226 255
204 226 255
204 226 255
204 226 255
204 226 255
204 226 255
204 226 255
204 226 255
204 226 255
204 226 255
204 226 255
204 226 255
204 226 255
204 226 255
204 226 255
204 226 255
204 226 255
204 226 255
203 226 255
203 226 255
203 226 255
203 226 255
203 226 255
203 226 255
203 226 255
203 226 255
203 226 255
203 226 255
203 225 255
203 225 255
203 225 255
203 225 255
203 225 255
203 225 255
203 225 255
203 225 255
203 225 255
203 225 255
203 225 255
203 225 255
203 225 255
203 225 255
203 225 255
203 225 255
203 225 255
203 225 255
203 225 255
203 225 255
203 225 255
202 225 255
202 225 255
202 225 255
202 225 255
202 225 255
202 225 255
202 225 255
202 225 255
202 225 255
202 225 255
202 225 255
202 225 255
202 225 255
202 225 255
202 225 255
202 225 255
202 225 255
202 225 255
202 225 255
202 225 255
202 225 255
202 225 255
202 225 255
202 225 255
202 225 255
202 225 255
202 225 255
202 225 255
202 225 255
202 225 255
202 225 255
203 225 255
203 225 255
203 225 255
203 225 255
203 225 255
203 225 255
203 225 255
203 225 255
203 225 255
203 225 255
203 225 255
203 225 255
203 225 255
203 225 255
203 225 255
203 225 255
203 225 255
203 225 255
203 225 255
203 225 255
203 226 255
203 226 255
203 226 255
203 226 255
203 226 255
203 226 255
203 226 255
203 226 255
203 226 255
203 226 255
204 226 255
204 226 255
204 226 255
204 226 255
204 226 255
204 226 255
204 226 255
204 226 255
204 226 255
204 226 255
204 226 255
204 226 255
204 226 255
204 226 255
204 226 255
204 226 255
204 226 255
204 226 255
204 226 255
204 226 255
205 226 255
205 226 255
205 226 255
205 226 255
205 226 255
205 226 255
205 226 255
205 227 255
205 227 255
205 227 255
205 227 255
205 227 255
205 227 255
205 227 255
205 227 255
205 227 255
205 227 255
205 227 255
206 227 255
206 227 255
206 227 255
206 227 255
206 227 255
206 227 255
206 227 255
206 227 255
206 227 255
206 227 255
206 227 255
206 227 255
206 227 255
206 227 255
206 227 255
206 227 255
206 227 255
207 227 255
207 227 255
207 227 255
207 227 255
207 228 255
207 228 255
207 228 255
207 228 255
207 228 255
207 228 255
207 228 255
207 228 255
207 228 255
207 228 255
207 228 255
207 228 255
207 228 255
207 228 255
208 228 255
208 228 255
208 228 255
208 228 255
200 219 243
182 197 213
179 194 209
153 161 159
151 156 145
130 130 102
121 119 80
118 116 77
133 131 87
133 131 87
137 135 90
127 124 83
134 132 88
127 125 84
135 133 89
132 131 88
134 132 88
137 135 90
135 133 89
135 134 89
142 140 94
140 138 93
130 128 85
138 136 90
139 137 92
138 136 90
130 128 85
146 143 95
140 138 91
137 134 90
135 132 88
146 143 95
128 125 82
132 130 87
142 139 93
138 136 88
137 135 90
136 133 87
132 129 85
141 137 91
131 128 84
138 134 89
135 132 87
133 129 84
139 136 90
137 134 86
130 127 84
135 131 89
129 129 103
152 155 137
166 174 173
175 187 194
193 208 224
201 219 242
210 229 255
210 229 255
210 230 255
210 230 255
210 230 255
211 230 255
211 230 255
211 230 255
211 230 255
211 230 255
211 230 255
211 230 255
211 230 255
211 230 255
211 230 255
211 230 255
211 230 255
211 230 255
211 230 255
211 230 255
211 230 255
211 230 255
211 230 255
211 230 255
211 230 255
211 230 255
211 230 255
211 230 255
211 230 255
211 230 255
211 230 255
211 230 255
211 230 255
211 230 255
211 230 255
211 230 255
211 230 255
211 230 255
211 230 255
211 230 255
211 230 255
211 230 255
211 230 255
211 230 255
211 230 255
210 230 255
210 230 255
210 230 255
210 229 255
210 229 255
210 229 255
210 229 255
210 229 255
210 229 255
210 229 255
210 229 255
210 229 255
210 229 255
210 229 255
210 229 255
210 229 255
210 229 255
210 229 255
210 229 255
210 229 255
210 229 255
210 229 255
210 229 255
209 229 255
209 229 255
209 229 255
209 229 255
209 229 255
209 229 255
209 229 255
209 229 255
209 229 255
209 229 255
209 229 255
209 229 255
209 229 255
209 229 255
209 229 255
209 229 255
209 229 255
209 229 255
209 229 255
209 229 255
209 228 255
208 228 255
208 228 255
208 228 255
208 228 255
208 228 255
208 228 255
208 228 255
208 228 255
208 228 255
208 228 255
208 228 255
208 228 255
208 228 255
208 228 255
208 228 255
208 228 255
208 228 255
208 228 255
208 228 255
207 228 255
207 228 255
207 228 255
207 228 255
207 228 255
207 228 255
207 228 255
207 228 255
207 228 255
207 228 255
207 228 255
207 228 255
207 228 255
207 227 255
207 227 255
207 227 255
207 227 255
207 227 255
206 227 255
206 227 255
206 227 255
206 227 255
206 227 255
206 227 255
206 227 255
206 227 255
206 227 255
206 227 255
206 227 255
206 227 255
206 227 255
206 227 255
206 227 255
206 227 255
206 227 255
205 227 255
205 227 255
205 227 255
205 227 255
205 227 255
205 227 255
205 227 255
205 227 255
205 227 255
205 227 255
205 227 255
205 226 255
205 226 255
205 226 255
205 226 255
205 226 255
205 226 255
205 226 255
204 226 255
204 226 255
204 226 255
204 226 255
204 226 255
204 226 255
204 226 255
204 226 255
204 226 255
204 226 255
204 226 255
204 226 255
204 226 255
204 226 255
204 226 255
204 226 255
204 226 255
204 226 255
204 226 255
204 226 255
204 226 255
203 226 255
203 226 255
203 226 255
203 226 255
203 226 255
203 226 255
203 226 255
203 226 255
203 226 255
203 226 255
203 226 255
203 226 255
203 225 255
203 225 255
203 225 255
203 225 255
203 225 255
203 225 255
203 225 255
203 225 255
203 225 255
203 225 255
203 225 255
203 225 255
203 225 255
203 225 255
203 225 255
203 225 255
203 225 255
203 225 255
203 225 255
203 225 255
203 225 255
203 225 255
203 225 255
203 225 255
203 225 255
203 225 255
203 225 255
203 225 255
203 225 255
203 225 255
203 225 255
203 225 255
203 225 255
203 225 255
203 225 255
203 225 255
203 225 255
203 225 255
203 225 255
203 225 255
203 225 255
203 225 255
203 225 255
203 225 255
203 225 255
203 225 255
203 225 255
203 225 255
203 225 255
203 225 255
203 225 255
203 225 255
203 225 255
203 225 255
203 225 255
203 225 255
203 225 255
203 225 255
203 226 255
203 226 255
203 226 255
203 226 255
203 226 255
203 226 255
203 226 255
203 226 255
203 226 255
203 226 255
203 226 255
203 226 255
204 226 255
204 226 255
204 226 255
204 226 255
204 226 255
204 226 255
204 226 255
204 226 255
204 226 255
204 226 255
204 226 255
204 226 255
204 226 255
204 226 255
204 226 255
204 226 255
204 226 255
204 226 255
204 226 255
204 226 255
204 226 255
205 226 255
205 226 255
205 226 255
205 226 255
205 226 255
205 226 255
205 226 255
205 227 255
205 227 255
205 227 255
205 227 255
205 227 255
205 227 255
205 227 255
205 227 255
205 227 255
205 227 255
205 227 255
206 227 255
206 227 255
206 227 255
206 227 255
206 227 255
206 227 255
206 227 255
206 227 255
206 227 255
206 227 255
206 227 255
206 227 255
206 227 255
206 227 255
206 227 255
206 227 255
206 227 255
207 227 255
207 227 255
207 227 255
207 227 255
207 228 255
207 228 255
207 228 255
207 228 255
207 228 255
207 228 255
207 228 255
207 228 255
207 228 255
207 228 255
207 228 255
207 228 255
207 228 255
207 228 255
208 228 255
208 228 255
208 228 255
203 222 246
185 201 217
177 190 201
165 170 157
151 152 122
131 127 84
136 134 90
140 138 93
131 130 87
127 126 84
136 135 90
136 134 90
139 137 91
137 135 90
125 124 83
130 128 85
130 128 86
132 130 87
134 132 87
144 142 95
135 133 88
135 133 89
137 134 90
132 130 87
131 129 86
137 135 90
135 133 89
137 135 90
140 138 93
130 128 85
130 129 86
135 133 89
139 136 91
135 133 88
129 127 84
129 126 84
141 139 93
144 143 95
140 138 92
147 144 95
138 134 89
137 135 89
133 130 86
126 123 81
129 126 84
144 140 92
134 131 87
137 134 89
142 139 90
134 130 83
132 129 85
132 128 84
130 127 84
136 133 87
137 133 87
133 130 85
138 134 88
120 117 74
130 128 85
135 135 112
147 150 134
172 183 191
187 199 206
205 222 242
211 230 255
211 230 255
211 230 255
211 230 255
211 230 255
211 230 255
211 230 255
211 230 255
211 230 255
211 230 255
211 230 255
211 230 255
211 230 255
211 230 255
211 230 255
211 230 255
211 230 255
211 230 255
211 230 255
211 230 255
211 230 255
211 230 255
211 230 255
211 230 255
211 230 255
211 230 255
211 230 255
211 230 255
211 230 255
211 230 255
211 230 255
211 230 255
211 230 255
211 230 255
211 230 255
211 230 255
211 230 255
211 230 255
211 230 255
211 230 255
211 230 255
211 230 255
211 230 255
211 230 255
211 230 255
210 230 255
210 229 255
210 229 255
210 229 255
210 229 255
210 229 255
210 229 255
210 229 255
210 229 255
210 229 255
210 229 255
210 229 255
210 229 255
210 229 255
210 229 255
210 229 255
210 229 255
210 229 255
210 229 255
210 229 255
210 229 255
210 229 255
209 229 255
209 229 255
209 229 255
209 229 255
209 229 255
209 229 255
209 229 255
209 229 255
209 229 255
209 229 255
209 229 255
209 229 255
209 229 255
209 229 255
209 229 255
209 229 255
209 229 255
209 229 255
209 229 255
209 228 255
209 228 255
208 228 255
208 228 255
208 228 255
208 228 255
208 228 255
208 228 255
208 228 255
208 228 255
208 228 255
208 228 255
208 228 255
208 228 255
208 228 255
208 228 255
208 228 255
208 228 255
208 228 255
208 228 255
207 228 255
207 228 255
207 228 255
207 228 255
207 228 255
207 228 255
207 228 255
207 228 255
207 228 255
207 228 255
207 228 255
207 228 255
207 228 255
207 228 255
207 227 255
207 227 255
207 227 255
207 227 255
206 227 255
206 227 255
206 227 255
206 227 255
206 227 255
206 227 255
206 227 255
206 227 255
206 227 255
206 227 255
206 227 255
206 227 255
206 227 255
206 227 255
206 227 255
206 227 255
206 227 255
206 227 255
205 227 255
205 227 255
205 227 255
205 227 255
205 227 255
205 227 255
205 227 255
205 227 255
205 227 255
205 227 255
205 227 255
205 226 255
205 226 255
205 226 255
205 226 255
205 226 255
205 226 255
205 226 255
205 226 255
204 226 255
204 226 255
204 226 255
204 226 255
204 226 255
204 226 255
204 226 255
204 226 255
204 226 255
204 226 255
204 226 255
204 226 255
204 226 255
204 226 255
204 226 255
204 226 255
204 226 255
204 226 255
204 226 255
204 226 255
204 226 255
204 226 255
203 226 255
203 226 255
203 226 255
203 226 255
203 226 255
203 226 255
203 226 255
203 226 255
203 226 255
203 226 255
203 226 255
203 226 255
203 226 255
203 226 255
203 226 255
203 225 255
203 225 255
203 225 255
203 225 255
203 225 255
203 225 255
203 225 255
203 225 255
203 225 255
203 225 255
203 225 255
203 225 255
203 225 255
203 225 255
203 225 255
203 225 255
203 225 255
203 225 255
203 225 255
203 225 255
203 225 255
203 225 255
203 225 255
203 225 255
203 225 255
203 225 255
203 225 255
203 225 255
203 225 255
203 225 255
203 225 255
203 225 255
203 225 255
203 225 255
203 225 255
203 225 255
203 225 255
203 225 255
203 225 255
203 225 255
203 226 255
203 226 255
203 226 255
203 226 255
203 226 255
203 226 255
203 226 255
203 226 255
203 226 255
203 226 255
203 226 255
203 226 255
203 226 255
203 226 255
203 226 255
204 226 255
204 226 255
204 226 255
204 226 255
204 226 255
204 226 255
204 226 255
204 226 255
204 226 255
204 226 255
204 226 255
204 226 255
204 226 255
204 226 255
204 226 255
204 226 255
204 226 255
204 226 255
204 226 255
204 226 255
204 226 255
204 226 255
204 226 255
205 226 255
205 226 255
205 226 255
205 226 255
205 226 255
205 226 255
205 226 255
205 227 255
205 227 255
205 227 255
205 227 255
205 227 255
205 227 255
205 227 255
205 227 255
205 227 255
205 227 255
205 227 255
206 227 255
206 227 255
206 227 255
206 227 255
206 227 255
206 227 255
206 227 255
206 227 255
206 227 255
206 227 255
206 227 255
206 227 255
206 227 255
206 227 255
206 227 255
206 227 255
206 227 255
206 227 255
207 227 255
207 227 255
207 227 255
207 227 255
207 228 255
207 228 255
207 228 255
207 228 255
207 228 255
207 228 255
207 228 255
207 228 255
207 228 255
207 228 255
207 228 255
207 228 255
207 228 255
207 228 255
208 228 255
208 228 255
202 220 244
186 202 219
157 165 162
157 161 141
127 125 83
124 122 81
140 138 92
130 129 86
128 126 84
140 138 93
140 138 93
132 131 88
131 129 87
140 139 93
133 131 87
139 137 92
131 130 87
136 135 90
143 141 94
134 133 90
140 138 93
147 144 96
141 141 95
134 133 89
134 132 88
139 137 91
145 143 96
140 138 93
125 124 83
145 143 95
140 139 93
127 126 84
147 144 95
133 131 87
139 136 90
143 140 93
125 123 82
137 136 91
136 133 88
141 138 92
143 141 93
133 131 87
133 132 87
138 136 90
138 136 90
145 142 94
134 132 87
148 145 96
151 148 98
149 146 95
145 142 94
137 134 89
135 132 87
128 126 84
134 131 87
139 136 89
129 126 84
133 129 84
142 140 92
137 134 87
132 130 85
131 128 84
137 134 87
134 131 85
124 121 79
124 121 79
137 134 87
139 134 83
139 140 115
167 172 160
180 192 202
201 216 235
211 230 255
211 230 255
211 230 255
211 230 255
211 230 255
211 230 255
211 230 255
211 230 255
211 230 255
211 230 255
211 230 255
211 230 255
211 230 255
211 230 255
212 230 255
212 230 255
212 230 255
212 230 255
211 230 255
211 230 255
211 230 255
211 230 255
211 230 255
211 230 255
211 230 255
211 230 255
211 230 255
211 230 255
211 230 255
211 230 255
211 230 255
211 230 255
211 230 255
211 230 255
211 230 255
211 230 255
211 230 255
211 230 255
211 230 255
211 230 255
211 230 255
211 230 255
211 230 255
211 230 255
210 230 255
210 230 255
210 230 255
210 229 255
210 229 255
210 229 255
210 229 255
210 229 255
210 229 255
210 229 255
210 229 255
210 229 255
210 229 255
210 229 255
210 229 255
210 229 255
210 229 255
210 229 255
210 229 255
210 229 255
210 229 255
210 229 255
210 229 255
209 229 255
209 229 255
209 229 255
209 229 255
209 229 255
209 229 255
209 229 255
209 229 255
209 229 255
209 229 255
209 229 255
209 229 255
209 229 255
209 229 255
209 229 255
209 229 255
209 229 255
209 229 255
209 229 255
209 228 255
209 228 255
208 228 255
208 228 255
208 228 255
208 228 255
208 228 255
208 228 255
208 228 255
208 228 255
208 228 255
208 228 255
208 228 255
208 228 255
208 228 255
208 228 255
208 228 255
208 228 255
208 228 255
208 228 255
207 228 255
207 228 255
207 228 255
207 228 255
207 228 255
207 228 255
207 228 255
207 228 255
207 228 255
207 228 255
207 228 255
207 228 255
207 228 255
207 228 255
207 227 255
207 227 255
207 227 255
207 227 255
206 227 255
206 227 255
206 227 255
206 227 255
206 227 255
206 227 255
206 227 255
206 227 255
206 227 255
206 227 255
206 227 255
206 227 255
206 227 255
206 227 255
206 227 255
206 227 255
206 227 255
206 227 255
205 227 255
205 227 255
205 227 255
205 227 255
205 227 255
205 227 255
205 227 255
205 227 255
205 227 255
205 227 255
205 227 255
205 226 255
205 226 255
205 226 255
205 226 255
205 226 255
205 226 255
205 226 255
205 226 255
204 226 255
204 226 255
204 226 255
204 226 255
204 226 255
204 226 255
204 226 255
204 226 255
204 226 255
204 226 255
204 226 255
204 226 255
204 226 255
204 226 255
204 226 255
204 226 255
204 226 255
204 226 255
204 226 255
204 226 255
204 226 255
204 226 255
204 226 255
204 226 255
204 226 255
204 226 255
203 226 255
203 226 255
203 226 255
203 226 255
203 226 255
203 226 255
203 226 255
203 226 255
203 226 255
203 226 255
203 226 255
203 226 255
203 226 255
203 226 255
203 226 255
203 226 255
203 226 255
203 226 255
203 226 255
203 226 255
203 226 255
203 226 255
203 226 255
203 226 255
203 226 255
203 226 255
203 226 255
203 226 255
203 226 255
203 226 255
203 226 255
203 226 255
203 226 255
203 226 255
203 226 255
203 226 255
203 226 255
203 226 255
203 226 255
203 226 255
203 226 255
203 226 255
203 226 255
203 226 255
203 226 255
203 226 255
203 226 255
203 226 255
203 226 255
203 226 255
203 226 255
203 226 255
203 226 255
203 226 255
204 226 255
204 226 255
204 226 255
204 226 255
204 226 255
204 226 255
204 226 255
204 226 255
204 226 255
204 226 255
204 226 255
204 226 255
204 226 255
204 226 255
204 226 255
204 226 255
204 226 255
204 226 255
204 226 255
204 226 255
204 226 255
204 226 255
204 226 255
204 226 255
204 226 255
204 226 255
205 226 255
205 226 255
205 226 255
205 226 255
205 226 255
205 226 255
205 226 255
205 226 255
205 227 255
205 227 255
205 227 255
205 227 255
205 227 255
205 227 255
205 227 255
205 227 255
205 227 255
205 227 255
205 227 255
206 227 255
206 227 255
206 227 255
206 227 255
206 227 255
206 227 255
206 227 255
206 227 255
206 227 255
206 227 255
206 227 255
206 227 255
206 227 255
206 227 255
206 227 255
206 227 255
206 227 255
206 227 255
207 227 255
207 227 255
207 227 255
207 227 255
207 228 255
207 228 255
207 228 255
207 228 255
207 228 255
207 228 255
207 228 255
207 228 255
207 228 255
207 228 255
207 228 255
207 228 255
207 228 255
207 228 255
208 228 255
208 228 255
203 222 246
181 195 207
160 165 152
150 151 120
135 134 90
123 121 80
127 125 84
133 132 89
132 131 88
138 137 92
142 140 93
137 136 91
134 133 89
137 136 91
143 141 94
142 141 95
128 126 84
127 126 84
140 138 93
135 133 89
132 131 87
136 135 91
138 137 92
144 143 95
130 129 87
130 129 87
138 136 90
143 142 95
143 142 95
138 136 90
149 147 98
131 129 86
140 139 93
137 134 90
140 139 92
140 138 93
138 136 91
138 137 92
138 136 90
148 145 96
135 133 87
152 149 99
138 136 90
139 137 92
146 143 95
144 141 93
153 150 99
145 142 94
138 136 90
140 138 91
146 144 96
141 138 91
132 130 85
145 142 94
146 143 95
133 132 88
142 139 92
145 142 93
142 139 93
130 127 84
149 146 94
139 136 90
132 129 84
138 134 87
132 129 84
134 132 86
131 128 82
139 135 89
142 138 90
131 128 82
135 131 85
131 127 84
126 122 79
133 130 87
134 131 84
136 132 86
137 137 109
166 172 165
187 199 208
202 219 241
211 230 255
211 230 255
211 230 255
211 230 255
211 230 255
211 230 255
212 230 255
212 230 255
212 230 255
212 230 255
212 230 255
212 230 255
212 230 255
212 230 255
212 230 255
212 230 255
212 230 255
212 230 255
212 230 255
211 230 255
211 230 255
211 230 255
211 230 255
211 230 255
211 230 255
211 230 255
211 230 255
211 230 255
211 230 255
211 230 255
211 230 255
211 230 255
211 230 255
211 230 255
211 230 255
211 230 255
211 230 255
211 230 255
211 230 255
211 230 255
211 230 255
211 230 255
211 230 255
211 230 255
210 230 255
210 230 255
210 230 255
210 229 255
210 229 255
210 229 255
210 229 255
210 229 255
210 229 255
210 229 255
210 229 255
210 229 255
210 229 255
210 229 255
210 229 255
210 229 255
210 229 255
210 229 255
210 229 255
210 229 255
210 229 255
210 229 255
210 229 255
209 229 255
209 229 255
209 229 255
209 229 255
209 229 255
209 229 255
209 229 255
209 229 255
209 229 255
209 229 255
209 229 255
209 229 255
209 229 255
209 229 255
209 229 255
209 229 255
209 229 255
209 229 255
209 229 255
209 228 255
208 228 255
208 228 255
208 228 255
208 228 255
208 228 255
208 228 255
208 228 255
208 228 255
208 228 255
208 228 255
208 228 255
208 228 255
208 228 255
208 228 255
208 228 255
208 228 255
208 228 255
208 228 255
208 228 255
207 228 255
207 228 255
207 228 255
207 228 255
207 228 255
207 228 255
207 228 255
207 228 255
207 228 255
207 228 255
207 228 255
207 228 255
207 228 255
207 228 255
207 227 255
207 227 255
207 227 255
207 227 255
206 227 255
206 227 255
206 227 255
206 227 255
206 227 255
206 227 255
206 227 255
206 227 255
206 227 255
206 227 255
206 227 255
206 227 255
206 227 255
206 227 255
206 227 255
206 227 255
206 227 255
206 227 255
205 227 255
205 227 255
205 227 255
205 227 255
205 227 255
205 227 255
205 227 255
205 227 255
205 227 255
205 227 255
205 227 255
205 227 255
205 226 255
205 226 255
205 226 255
205 226 255
205 226 255
205 226 255
205 226 255
205 226 255
204 226 255
204 226 255
204 226 255
204 226 255
204 226 255
204 226 255
204 226 255
204 226 255
204 226 255
204 226 255
204 226 255
204 226 255
204 226 255
204 226 255
204 226 255
204 226 255
204 226 255
204 226 255
204 226 255
204 226 255
204 226 255
204 226 255
204 226 255
204 226 255
204 226 255
204 226 255
204 226 255
204 226 255
204 226 255
204 226 255
204 226 255
203 226 255
203 226 255
203 226 255
203 226 255
203 226 255
203 226 255
203 226 255
203 226 255
203 226 255
203 226 255
203 226 255
203 226 255
203 226 255
203 226 255
203 226 255
203 226 255
203 226 255
203 226 255
203 226 255
203 226 255
203 226 255
203 226 255
203 226 255
203 226 255
203 226 255
203 226 255
203 226 255
203 226 255
203 226 255
203 226 255
203 226 255
203 226 255
203 226 255
203 226 255
203 226 255
204 226 255
204 226 255
204 226 255
204 226 255
204 226 255
204 226 255
204 226 255
204 226 255
204 226 255
204 226 255
204 226 255
204 226 255
204 226 255
204 226 255
204 226 255
204 226 255
204 226 255
204 226 255
204 226 255
204 226 255
204 226 255
204 226 255
204 226 255
204 226 255
204 226 255
204 226 255
204 226 255
204 226 255
204 226 255
204 226 255
205 226 255
205 226 255
205 226 255
205 226 255
205 226 255
205 226 255
205 226 255
205 226 255
205 227 255
205 227 255
205 227 255
205 227 255
205 227 255
205 227 255
205 227 255
205 227 255
205 227 255
205 227 255
205 227 255
205 227 255
206 227 255
206 227 255
206 227 255
206 227 255
206 227 255
206 227 255
206 227 255
206 227 255
206 227 255
206 227 255
206 227 255
206 227 255
206 227 255
206 227 255
206 227 255
206 227 255
206 227 255
206 227 255
207 227 255
207 227 255
207 227 255
207 227 255
207 228 255
207 228 255
207 228 255
207 228 255
207 228 255
207 228 255
207 228 255
207 228 255
207 228 255
207 228 255
207 228 255
207 228 255
207 228 255
207 228 255
208 228 255
208 228 255
208 228 255
192 210 230
169 181 186
147 153 144
135 133 89
125 123 82
124 122 81
125 123 82
140 138 93
139 138 93
138 137 92
123 121 81
136 135 91
132 130 87
139 138 93
135 134 90
144 143 96
137 136 91
145 144 97
142 140 94
140 138 93
144 142 95
141 140 94
152 151 101
140 138 92
136 135 90
140 138 93
140 138 93
147 146 98
139 137 92
146 143 95
139 137 91
136 135 90
142 141 95
151 149 100
139 137 91
143 141 95
142 141 94
143 140 93
142 141 95
140 138 92
143 140 93
141 138 91
141 139 93
136 134 90
148 146 97
141 139 93
150 148 99
139 137 92
142 139 92
144 142 95
144 141 94
143 141 93
142 139 92
132 130 86
148 145 96
146 143 94
139 137 92
135 133 88
141 139 92
138 136 88
140 137 89
146 144 95
142 138 92
141 138 90
133 130 83
140 137 90
136 133 87
142 139 91
140 137 91
141 138 89
138 135 89
135 132 87
142 139 90
141 137 90
145 141 90
140 137 89
133 130 84
133 131 86
132 129 84
138 136 88
137 134 86
124 121 78
137 132 84
151 155 138
170 181 189
196 213 233
212 230 255
212 230 255
212 230 255
212 230 255
212 230 255
212 230 255
212 230 255
212 230 255
212 230 255
212 230 255
212 230 255
212 230 255
212 230 255
212 230 255
212 230 255
212 230 255
212 230 255
212 230 255
212 230 255
212 230 255
211 230 255
211 230 255
211 230 255
211 230 255
211 230 255
211 230 255
211 230 255
211 230 255
211 230 255
211 230 255
211 230 255
211 230 255
211 230 255
211 230 255
211 230 255
211 230 255
211 230 255
211 230 255
211 230 255
211 230 255
211 230 255
211 230 255
211 230 255
211 230 255
211 230 255
211 230 255
210 230 255
210 230 255
210 229 255
210 229 255
210 229 255
210 229 255
210 229 255
210 229 255
210 229 255
210 229 255
210 229 255
210 229 255
210 229 255
210 229 255
210 229 255
210 229 255
210 229 255
210 229 255
210 229 255
210 229 255
210 229 255
210 229 255
209 229 255
209 229 255
209 229 255
209 229 255
209 229 255
209 229 255
209 229 255
209 229 255
209 229 255
209 229 255
209 229 255
209 229 255
209 229 255
209 229 255
209 229 255
209 229 255
209 229 255
209 229 255
209 229 255
209 228 255
208 228 255
208 228 255
208 228 255
208 228 255
208 228 255
208 228 255
208 228 255
208 228 255
208 228 255
208 228 255
208 228 255
208 228 255
208 228 255
208 228 255
208 228 255
208 228 255
208 228 255
208 228 255
208 228 255
207 228 255
207 228 255
207 228 255
207 228 255
207 228 255
207 228 255
207 228 255
207 228 255
207 228 255
207 228 255
207 228 255
207 228 255
207 228 255
207 228 255
207 227 255
207 227 255
207 227 255
207 227 255
206 227 255
206 227 255
206 227 255
206 227 255
206 227 255
206 227 255
206 227 255
206 227 255
206 227 255
206 227 255
206 227 255
206 227 255
206 227 255
206 227 255
206 227 255
206 227 255
206 227 255
206 227 255
206 227 255
205 227 255
205 227 255
205 227 255
205 227 255
205 227 255
205 227 255
205 227 255
205 227 255
205 227 255
205 227 255
205 227 255
205 227 255
205 226 255
205 226 255
205 226 255
205 226 255
205 226 255
205 226 255
205 226 255
205 226 255
205 226 255
204 226 255
204 226 255
204 226 255
204 226 255
204 226 255
204 226 255
204 226 255
204 226 255
204 226 255
204 226 255
204 226 255
204 226 255
204 226 255
204 226 255
204 226 255
204 226 255
204 226 255
204 226 255
204 226 255
204 226 255
204 226 255
204 226 255
204 226 255
204 226 255
204 226 255
204 226 255
204 226 255
204 226 255
204 226 255
204 226 255
204 226 255
204 226 255
204 226 255
204 226 255
204 226 255
204 226 255
204 226 255
204 226 255
204 226 255
204 226 255
204 226 255
204 226 255
204 226 255
204 226 255
204 226 255
204 226 255
204 226 255
204 226 255
204 226 255
204 226 255
204 226 255
204 226 255
204 226 255
204 226 255
204 226 255
204 226 255
204 226 255
204 226 255
204 226 255
204 226 255
204 226 255
204 226 255
204 226 255
204 226 255
204 226 255
204 226 255
204 226 255
204 226 255
204 226 255
204 226 255
204 226 255
204 226 255
204 226 255
204 226 255
204 226 255
204 226 255
204 226 255
204 226 255
204 226 255
204 226 255
204 226 255
204 226 255
204 226 255
204 226 255
205 226 255
205 226 255
205 226 255
205 226 255
205 226 255
205 226 255
205 226 255
205 226 255
205 226 255
205 227 255
205 227 255
205 227 255
205 227 255
205 227 255
205 227 255
205 227 255
205 227 255
205 227 255
205 227 255
205 227 255
205 227 255
206 227 255
206 227 255
206 227 255
206 227 255
206 227 255
206 227 255
206 227 255
206 227 255
206 227 255
206 227 255
206 227 255
206 227 255
206 227 255
206 227 255
206 227 255
206 227 255
206 227 255
206 227 255
206 227 255
207 227 255
207 227 255
207 227 255
207 227 255
207 228 255
207 228 255
207 228 255
207 228 255
207 228 255
207 228 255
207 228 255
207 228 255
207 228 255
207 228 255
207 228 255
207 228 255
207 228 255
207 228 255
208 228 255
208 228 255
208 228 255
208 228 255
193 210 232
164 175 181
145 147 119
129 127 84
127 125 83
140 139 93
139 137 92
130 129 87
141 140 94
134 132 88
132 131 87
138 137 92
134 133 89
140 139 93
141 140 94
141 141 95
134 133 89
148 146 98
133 132 89
138 138 93
138 138 93
139 138 93
136 135 91
136 135 90
150 148 99
144 142 95
147 145 97
144 143 96
141 139 93
143 141 95
139 138 93
146 144 96
153 151 101
149 148 99
146 145 97
138 136 91
154 152 101
136 134 90
133 131 88
136 134 89
141 139 93
150 149 99
141 139 93
148 145 97
149 148 98
145 143 95
152 149 99
144 142 95
140 139 93
144 142 95
147 144 95
143 141 94
142 139 92
136 134 88
135 133 87
135 132 87
132 130 85
140 137 91
146 143 95
141 138 91
145 142 93
153 150 98
155 151 100
140 137 91
136 134 88
143 139 90
152 149 98
144 140 90
135 132 87
138 135 87
151 146 96
139 136 89
141 138 89
134 131 86
139 137 90
150 147 97
147 144 93
138 135 86
135 133 87
146 142 93
132 128 83
136 132 85
130 127 81
142 138 88
137 133 87
132 128 80
143 140 92
129 126 82
131 127 80
143 142 106
175 183 184
202 217 232
212 230 255
212 230 255
212 230 255
212 230 255
212 230 255
212 230 255
212 230 255
212 230 255
212 230 255
212 230 255
212 230 255
212 230 255
212 230 255
212 230 255
212 230 255
212 230 255
212 230 255
212 230 255
212 230 255
212 230 255
212 230 255
211 230 255
211 230 255
211 230 255
211 230 255
211 230 255
211 230 255
211 230 255
211 230 255
211 230 255
211 230 255
211 230 255
211 230 255
211 230 255
211 230 255
211 230 255
211 230 255
211 230 255
211 230 255
211 230 255
211 230 255
211 230 255
211 230 255
211 230 255
211 230 255
211 230 255
211 230 255
210 230 255
210 230 255
210 229 255
210 229 255
210 229 255
210 229 255
210 229 255
210 229 255
210 229 255
210 229 255
210 229 255
210 229 255
210 229 255
210 229 255
210 229 255
210 229 255
210 229 255
210 229 255
210 229 255
210 229 255
210 229 255
210 229 255
209 229 255
209 229 255
209 229 255
209 229 255
209 229 255
209 229 255
209 229 255
209 229 255
209 229 255
209 229 255
209 229 255
209 229 255
209 229 255
209 229 255
209 229 255
209 229 255
209 229 255
209 229 255
209 229 255
209 228 255
208 228 255
208 228 255
208 228 255
208 228 255
208 228 255
208 228 255
208 228 255
208 228 255
208 228 255
208 228 255
208 228 255
208 228 255
208 228 255
208 228 255
208 228 255
208 228 255
208 228 255
208 228 255
208 228 255
207 228 255
207 228 255
207 228 255
207 228 255
207 228 255
207 228 255
207 228 255
207 228 255
207 228 255
207 228 255
207 228 255
207 228 255
207 228 255
207 228 255
207 227 255
207 227 255
207 227 255
207 227 255
206 227 255
206 227 255
206 227 255
206 227 255
206 227 255
206 227 255
206 227 255
206 227 255
206 227 255
206 227 255
206 227 255
206 227 255
206 227 255
206 227 255
206 227 255
206 227 255
206 227 255
206 227 255
206 227 255
205 227 255
205 227 255
205 227 255
205 227 255
205 227 255
205 227 255
205 227 255
205 227 255
205 227 255
205 227 255
205 227 255
205 227 255
205 227 255
205 226 255
205 226 255
205 226 255
205 226 255
205 226 255
205 226 255
205 226 255
205 226 255
205 226 255
205 226 255
204 226 255
204 226 255
204 226 255
204 226 255
204 226 255
204 226 255
204 226 255
204 226 255
204 226 255
204 226 255
204 226 255
204 226 255
204 226 255
204 226 255
204 226 255
204 226 255
204 226 255
204 226 255
204 226 255
204 226 255
204 226 255
204 226 255
204 226 255
204 226 255
204 226 255
204 226 255
204 226 255
204 226 255
204 226 255
204 226 255
204 226 255
204 226 255
204 226 255
204 226 255
204 226 255
204 226 255
204 226 255
204 226 255
204 226 255
204 226 255
204 226 255
204 226 255
204 226 255
204 226 255
204 226 255
204 226 255
204 226 255
204 226 255
204 226 255
204 226 255
204 226 255
204 226 255
204 226 255
204 226 255
204 226 255
204 226 255
204 226 255
204 226 255
204 226 255
204 226 255
204 226 255
204 226 255
204 226 255
204 226 255
204 226 255
204 226 255
204 226 255
204 226 255
204 226 255
204 226 255
204 226 255
205 226 255
205 226 255
205 226 255
205 226 255
205 226 255
205 226 255
205 226 255
205 226 255
205 226 255
205 226 255
205 226 255
205 227 255
205 227 255
205 227 255
205 227 255
205 227 255
205 227 255
205 227 255
205 227 255
205 227 255
205 227 255
205 227 255
205 227 255
205 227 255
206 227 255
206 227 255
206 227 255
206 227 255
206 227 255
206 227 255
206 227 255
206 227 255
206 227 255
206 227 255
206 227 255
206 227 255
206 227 255
206 227 255
206 227 255
206 227 255
206 227 255
206 227 255
206 227 255
207 227 255
207 227 255
207 227 255
207 227 255
207 228 255
207 228 255
207 228 255
207 228 255
207 228 255
207 228 255
207 228 255
207 228 255
207 228 255
207 228 255
207 228 255
207 228 255
207 228 255
207 228 255
208 228 255
208 228 255
208 228 255
208 228 255
208 228 255
193 210 230
162 171 170
136 139 117
135 133 89
135 133 89
136 134 90
136 135 90
140 139 93
134 133 89
140 138 93
144 144 97
123 122 82
143 142 95
134 133 89
144 143 96
139 138 93
139 138 93
147 146 97
139 138 93
137 136 92
142 140 94
142 142 95
150 148 99
144 142 95
147 145 97
151 150 101
139 137 92
140 139 93
142 141 95
139 139 93
148 146 98
147 147 99
144 142 95
148 146 97
136 135 90
146 144 96
142 141 95
152 150 101
145 143 96
151 149 100
149 146 97
151 149 99
146 144 96
143 141 94
142 140 93
143 141 94
140 138 92
142 140 93
144 142 94
148 146 97
146 144 95
143 141 94
144 141 94
145 142 94
145 142 92
155 152 101
151 148 97
149 146 97
144 140 92
149 146 97
145 143 94
151 148 98
142 140 93
138 136 90
145 140 92
148 146 97
152 148 97
141 138 91
138 135 89
134 130 83
140 137 90
141 138 90
133 130 84
147 143 93
152 149 99
137 133 87
134 132 82
136 133 87
130 128 84
143 139 90
128 125 80
147 142 93
125 123 80
140 137 88
141 138 88
140 137 90
145 141 92
141 137 87
145 142 92
128 124 79
129 125 79
141 138 90
126 123 80
131 127 80
132 128 81
145 143 111
175 186 191
200 216 237
212 230 255
212 231 255
212 231 255
212 230 255
212 230 255
212 230 255
212 230 255
212 230 255
212 230 255
212 230 255
212 230 255
212 230 255
212 230 255
212 230 255
212 230 255
212 230 255
212 230 255
212 230 255
212 230 255
212 230 255
212 230 255
212 230 255
212 230 255
211 230 255
211 230 255
211 230 255
211 230 255
211 230 255
211 230 255
211 230 255
211 230 255
211 230 255
211 230 255
211 230 255
211 230 255
211 230 255
211 230 255
211 230 255
211 230 255
211 230 255
211 230 255
211 230 255
211 230 255
211 230 255
211 230 255
211 230 255
211 230 255
211 230 255
210 230 255
210 230 255
210 229 255
210 229 255
210 229 255
210 229 255
210 229 255
210 229 255
210 229 255
210 229 255
210 229 255
210 229 255
210 229 255
210 229 255
210 229 255
210 229 255
210 229 255
210 229 255
210 229 255
210 229 255
210 229 255
210 229 255
209 229 255
209 229 255
209 229 255
209 229 255
209 229 255
209 229 255
209 229 255
209 229 255
209 229 255
209 229 255
209 229 255
209 229 255
209 229 255
209 229 255
209 229 255
209 229 255
209 229 255
209 229 255
209 229 255
209 228 255
208 228 255
208 228 255
208 228 255
208 228 255
208 228 255
208 228 255
208 228 255
208 228 255
208 228 255
208 228 255
208 228 255
208 228 255
208 228 255
208 228 255
208 228 255
208 228 255
208 228 255
208 228 255
208 228 255
207 228 255
207 228 255
207 228 255
207 228 255
207 228 255
207 228 255
207 228 255
207 228 255
207 228 255
207 228 255
207 228 255
207 228 255
207 228 255
207 228 255
207 227 255
207 227 255
207 227 255
207 227 255
206 227 255
206 227 255
206 227 255
206 227 255
206 227 255
206 227 255
206 227 255
206 227 255
206 227 255
206 227 255
206 227 255
206 227 255
206 227 255
206 227 255
206 227 255
206 227 255
206 227 255
206 227 255
206 227 255
206 227 255
205 227 255
205 227 255
205 227 255
205 227 255
205 227 255
205 227 255
205 227 255
205 227 255
205 227 255
205 227 255
205 227 255
205 227 255
205 227 255
205 227 255
205 227 255
205 226 255
205 226 255
205 226 255
205 226 255
205 226 255
205 226 255
205 226 255
205 226 255
205 226 255
205 226 255
205 226 255
204 226 255
204 226 255
204 226 255
204 226 255
204 226 255
204 226 255
204 226 255
204 226 255
204 226 255
204 226 255
204 226 255
204 226 255
204 226 255
204 226 255
204 226 255
204 226 255
204 226 255
204 226 255
204 226 255
204 226 255
204 226 255
204 226 255
204 226 255
204 226 255
204 226 255
204 226 255
204 226 255
204 226 255
204 226 255
204 226 255
204 226 255
204 226 255
204 226 255
204 226 255
204 226 255
204 226 255
204 226 255
204 226 255
204 226 255
204 226 255
204 226 255
204 226 255
204 226 255
204 226 255
204 226 255
204 226 255
204 226 255
204 226 255
204 226 255
204 226 255
204 226 255
204 226 255
204 226 255
204 226 255
204 226 255
204 226 255
205 226 255
205 226 255
205 226 255
205 226 255
205 226 255
205 226 255
205 226 255
205 226 255
205 226 255
205 226 255
205 226 255
205 226 255
205 227 255
205 227 255
205 227 255
205 227 255
205 227 255
205 227 255
205 227 255
205 227 255
205 227 255
205 227 255
205 227 255
205 227 255
205 227 255
205 227 255
206 227 255
206 227 255
206 227 255
206 227 255
206 227 255
206 227 255
206 227 255
206 227 255
206 227 255
206 227 255
206 227 255
206 227 255
206 227 255
206 227 255
206 227 255
206 227 255
206 227 255
206 227 255
206 227 255
207 227 255
207 227 255
207 227 255
207 227 255
207 227 255
207 228 255
207 228 255
207 228 255
207 228 255
207 228 255
207 228 255
207 228 255
207 228 255
207 228 255
207 228 255
207 228 255
207 228 255
207 228 255
207 228 255
208 228 255
208 228 255
208 228 255
208 228 255
208 228 255
208 228 255
207 227 252
180 194 208
149 153 133
129 127 85
129 127 85
133 132 88
131 129 87
142 140 94
134 133 90
141 139 93
131 130 87
145 144 97
138 137 92
137 135 90
142 140 94
137 136 91
149 148 99
149 147 98
147 145 97
149 148 100
143 142 95
143 142 96
143 141 95
138 136 91
152 150 101
148 147 99
142 140 94
151 149 99
138 137 92
150 149 100
144 143 96
150 148 99
154 152 101
149 147 99
139 137 92
137 136 91
146 145 97
150 149 101
144 143 96
148 147 99
146 144 96
151 149 100
155 154 103
150 148 99
152 150 101
145 143 95
150 149 100
154 152 101
146 144 96
158 156 104
150 148 99
149 147 99
145 142 94
149 147 97
142 140 93
147 145 95
153 151 100
145 143 95
145 144 95
153 150 99
140 138 91
143 139 92
134 132 88
150 147 96
134 131 86
158 154 101
147 143 94
148 146 97
145 142 93
144 142 94
141 139 91
148 144 93
154 150 96
153 150 98
156 152 99
151 148 97
138 135 88
148 145 96
144 140 92
147 143 94
135 131 84
139 137 90
145 141 93
135 131 84
142 139 89
147 143 93
143 138 87
144 141 90
133 130 84
140 137 89
144 140 90
134 130 84
134 130 83
141 137 87
144 140 90
142 138 90
125 122 78
140 136 87
135 131 83
123 119 74
141 137 86
151 153 134
212 231 255
212 231 255
212 231 255
212 231 255
212 231 255
212 231 255
212 230 255
212 230 255
212 230 255
212 230 255
212 230 255
212 230 255
212 230 255
212 230 255
212 230 255
212 230 255
212 230 255
212 230 255
212 230 255
212 230 255
212 230 255
212 230 255
212 230 255
212 230 255
212 230 255
212 230 255
211 230 255
211 230 255
211 230 255
211 230 255
211 230 255
211 230 255
211 230 255
211 230 255
211 230 255
211 230 255
211 230 255
211 230 255
211 230 255
211 230 255
211 230 255
211 230 255
211 230 255
211 230 255
211 230 255
211 230 255
211 230 255
211 230 255
211 230 255
211 230 255
211 230 255
210 230 255
210 230 255
210 230 255
210 229 255
210 229 255
210 229 255
210 229 255
210 229 255
210 229 255
210 229 255
210 229 255
210 229 255
210 229 255
210 229 255
210 229 255
210 229 255
210 229 255
210 229 255
210 229 255
210 229 255
210 229 255
210 229 255
209 229 255
209 229 255
209 229 255
209 229 255
209 229 255
209 229 255
209 229 255
209 229 255
209 229 255
209 229 255
209 229 255
209 229 255
209 229 255
209 229 255
209 229 255
209 229 255
209 229 255
209 229 255
209 229 255
209 228 255
208 228 255
208 228 255
208 228 255
208 228 255
208 228 255
208 228 255
208 228 255
208 228 255
208 228 255
208 228 255
208 228 255
208 228 255
208 228 255
208 228 255
208 228 255
208 228 255
208 228 255
208 228 255
208 228 255
207 228 255
207 228 255
207 228 255
207 228 255
207 228 255
207 228 255
207 228 255
207 228 255
207 228 255
207 228 255
207 228 255
207 228 255
207 228 255
207 228 255
207 228 255
207 227 255
207 227 255
207 227 255
207 227 255
206 227 255
206 227 255
206 227 255
206 227 255
206 227 255
206 227 255
206 227 255
206 227 255
206 227 255
206 227 255
206 227 255
206 227 255
206 227 255
206 227 255
206 227 255
206 227 255
206 227 255
206 227 255
206 227 255
206 227 255
206 227 255
205 227 255
205 227 255
205 227 255
205 227 255
205 227 255
205 227 255
205 227 255
205 227 255
205 227 255
205 227 255
205 227 255
205 227 255
205 227 255
205 227 255
205 227 255
205 227 255
205 226 255
205 226 255
205 226 255
205 226 255
205 226 255
205 226 255
205 226 255
205 226 255
205 226 255
205 226 255
205 226 255
205 226 255
205 226 255
205 226 255
205 226 255
204 226 255
204 226 255
204 226 255
204 226 255
204 226 255
204 226 255
204 226 255
204 226 255
204 226 255
204 226 255
204 226 255
204 226 255
204 226 255
204 226 255
204 226 255
204 226 255
204 226 255
204 226 255
204 226 255
204 226 255
204 226 255
204 226 255
204 226 255
204 226 255
204 226 255
204 226 255
204 226 255
204 226 255
204 226 255
204 226 255
204 226 255
204 226 255
204 226 255
204 226 255
205 226 255
205 226 255
205 226 255
205 226 255
205 226 255
205 226 255
205 226 255
205 226 255
205 226 255
205 226 255
205 226 255
205 226 255
205 226 255
205 226 255
205 226 255
205 226 255
205 227 255
205 227 255
205 227 255
205 227 255
205 227 255
205 227 255
205 227 255
205 227 255
205 227 255
205 227 255
205 227 255
205 227 255
205 227 255
205 227 255
205 227 255
206 227 255
206 227 255
206 227 255
206 227 255
206 227 255
206 227 255
206 227 255
206 227 255
206 227 255
206 227 255
206 227 255
206 227 255
206 227 255
206 227 255
206 227 255
206 227 255
206 227 255
206 227 255
206 227 255
206 227 255
206 227 255
207 227 255
207 227 255
207 227 255
207 227 255
207 227 255
207 228 255
207 228 255
207 228 255
207 228 255
207 228 255
207 228 255
207 228 255
207 228 255
207 228 255
207 228 255
207 228 255
207 228 255
207 228 255
207 228 255
208 228 255
208 228 255
208 228 255
208 228 255
208 228 255
208 228 255
208 228 255
208 228 255
194 211 232
170 180 183
137 136 101
138 136 90
132 131 87
133 132 88
135 133 89
136 134 90
138 138 93
131 130 87
136 134 90
146 144 97
140 138 93
147 146 98
136 135 91
146 146 98
146 144 96
133 132 89
142 142 95
138 137 92
144 143 96
153 151 101
152 151 101
135 134 90
146 144 97
139 138 93
152 150 101
140 139 93
138 137 92
146 145 97
142 141 95
142 141 95
140 139 93
148 147 99
150 148 99
154 152 102
144 143 96
149 147 98
134 133 89
142 141 95
142 141 94
151 149 100
147 146 98
146 144 97
143 141 94
152 149 99
155 153 103
153 151 101
144 142 95
142 139 93
146 144 96
144 142 95
156 153 101
151 148 97
148 145 94
148 146 97
152 149 99
157 153 101
156 153 102
149 147 96
149 147 98
146 144 95
154 151 99
146 144 96
153 150 99
149 145 95
153 148 97
144 141 94
141 138 91
146 142 93
148 145 94
143 140 93
152 149 97
151 147 97
141 138 90
144 140 91
139 135 88
154 150 96
144 141 92
146 143 93
143 140 92
137 134 87
150 147 95
133 129 84
137 134 87
143 139 90
141 138 87
149 144 93
143 139 90
151 148 97
142 138 90
146 141 87
145 141 90
134 131 84
140 135 85
136 132 83
136 133 84
135 132 85
145 140 88
132 129 80
134 131 81
134 131 85
142 137 87
127 123 78
213 231 255
213 231 255
212 231 255
212 231 255
212 231 255
212 231 255
212 231 255
212 231 255
212 231 255
212 231 255
212 231 255
212 230 255
212 230 255
212 230 255
212 230 255
212 230 255
212 230 255
212 230 255
212 230 255
212 230 255
212 230 255
212 230 255
212 230 255
212 230 255
212 230 255
212 230 255
212 230 255
212 230 255
212 230 255
212 230 255
212 230 255
211 230 255
211 230 255
211 230 255
211 230 255
211 230 255
211 230 255
211 230 255
211 230 255
211 230 255
211 230 255
211 230 255
211 230 255
211 230 255
211 230 255
211 230 255
211 230 255
211 230 255
211 230 255
211 230 255
211 230 255
211 230 255
211 230 255
211 230 255
211 230 255
210 230 255
210 230 255
210 230 255
210 229 255
210 229 255
210 229 255
210 229 255
210 229 255
210 229 255
210 229 255
210 229 255
210 229 255
210 229 255
210 229 255
210 229 255
210 229 255
210 229 255
210 229 255
210 229 255
210 229 255
210 229 255
210 229 255
209 229 255
209 229 255
209 229 255
209 229 255
209 229 255
209 229 255
209 229 255
209 229 255
209 229 255
209 229 255
209 229 255
209 229 255
209 229 255
209 229 255
209 229 255
209 229 255
209 229 255
209 229 255
209 229 255
209 228 255
208 228 255
208 228 255
208 228 255
208 228 255
208 228 255
208 228 255
208 228 255
208 228 255
208 228 255
208 228 255
208 228 255
208 228 255
208 228 255
208 228 255
208 228 255
208 228 255
208 228 255
208 228 255
208 228 255
208 228 255
207 228 255
207 228 255
207 228 255
207 228 255
207 228 255
207 228 255
207 228 255
207 228 255
207 228 255
207 228 255
207 228 255
207 228 255
207 228 255
207 228 255
207 227 255
207 227 255
207 227 255
207 227 255
207 227 255
206 227 255
206 227 255
206 227 255
206 227 255
206 227 255
206 227 255
206 227 255
206 227 255
206 227 255
206 227 255
206 227 255
206 227 255
206 227 255
206 227 255
206 227 255
206 227 255
206 227 255
206 227 255
206 227 255
206 227 255
206 227 255
206 227 255
205 227 255
205 227 255
205 227 255
205 227 255
205 227 255
205 227 255
205 227 255
205 227 255
205 227 255
205 227 255
205 227 255
205 227 255
205 227 255
205 227 255
205 227 255
205 227 255
205 227 255
205 227 255
205 226 255
205 226 255
205 226 255
205 226 255
205 226 255
205 226 255
205 226 255
205 226 255
205 226 255
205 226 255
205 226 255
205 226 255
205 226 255
205 226 255
205 226 255
205 226 255
205 226 255
205 226 255
205 226 255
205 226 255
205 226 255
205 226 255
205 226 255
205 226 255
205 226 255
205 226 255
205 226 255
205 226 255
205 226 255
205 226 255
205 226 255
205 226 255
205 226 255
205 226 255
205 226 255
205 226 255
205 226 255
205 226 255
205 226 255
205 226 255
205 226 255
205 226 255
205 226 255
205 226 255
205 226 255
205 226 255
205 226 255
205 226 255
205 227 255
205 227 255
205 227 255
205 227 255
205 227 255
205 227 255
205 227 255
205 227 255
205 227 255
205 227 255
205 227 255
205 227 255
205 227 255
205 227 255
205 227 255
205 227 255
205 227 255
205 227 255
206 227 255
206 227 255
206 227 255
206 227 255
206 227 255
206 227 255
206 227 255
206 227 255
206 227 255
206 227 255
206 227 255
206 227 255
206 227 255
206 227 255
206 227 255
206 227 255
206 227 255
206 227 255
206 227 255
206 227 255
206 227 255
206 227 255
207 227 255
207 227 255
207 227 255
207 227 255
207 227 255
207 228 255
207 228 255
207 228 255
207 228 255
207 228 255
207 228 255
207 228 255
207 228 255
207 228 255
207 228 255
207 228 255
207 228 255
207 228 255
207 228 255
207 228 255
208 228 255
208 228 255
208 228 255
208 228 255
208 228 255
208 228 255
208 228 255
208 228 255
208 228 255
207 227 253
181 194 201
148 153 137
131 130 87
138 137 92
131 130 87
134 132 88
135 134 90
134 132 88
139 138 93
134 133 89
142 141 95
150 148 99
141 141 95
146 145 97
146 145 98
143 142 95
147 147 99
141 140 94
144 143 96
145 144 97
144 143 96
148 147 99
143 142 96
148 147 99
146 144 96
143 141 95
137 135 90
149 148 99
143 141 95
151 149 99
148 147 99
150 148 99
146 145 97
149 147 99
148 147 99
147 146 98
149 147 99
151 149 99
143 142 95
145 143 96
145 143 96
149 146 97
148 146 98
153 150 100
148 146 98
148 146 97
159 156 104
152 151 101
149 147 98
147 144 95
149 147 98
149 147 99
153 151 101
148 145 97
151 149 99
148 145 97
148 146 97
152 149 99
152 149 99
153 149 98
157 154 101
157 154 102
151 148 99
151 148 99
153 150 98
150 147 97
156 153 101
145 143 95
148 145 95
150 146 96
148 146 96
151 147 95
144 142 92
143 141 93
152 149 99
145 143 92
152 148 98
146 143 94
154 151 98
153 150 98
147 144 95
148 145 94
148 144 93
145 142 93
138 135 87
141 138 89
145 141 93
138 135 88
139 135 88
141 137 87
136 132 84
141 137 88
149 145 93
141 139 90
140 136 88
148 144 92
145 142 88
147 143 91
130 127 82
143 139 90
141 136 86
133 129 84
128 125 82
146 142 90
144 139 86
143 139 89
213 231 255
213 231 255
213 231 255
213 231 255
213 231 255
213 231 255
213 231 255
212 231 255
212 231 255
212 231 255
212 231 255
212 231 255
212 231 255
212 231 255
212 231 255
212 231 255
212 230 255
212 230 255
212 230 255
212 230 255
212 230 255
212 230 255
212 230 255
212 230 255
212 230 255
212 230 255
212 230 255
212 230 255
212 230 255
212 230 255
212 230 255
212 230 255
212 230 255
212 230 255
212 230 255
211 230 255
211 230 255
211 230 255
211 230 255
211 230 255
211 230 255
211 230 255
211 230 255
211 230 255
211 230 255
211 230 255
211 230 255
211 230 255
211 230 255
211 230 255
211 230 255
211 230 255
211 230 255
211 230 255
211 230 255
211 230 255
211 230 255
211 230 255
211 230 255
211 230 255
210 230 255
210 230 255
210 229 255
210 229 255
210 229 255
210 229 255
210 229 255
210 229 255
210 229 255
210 229 255
210 229 255
210 229 255
210 229 255
210 229 255
210 229 255
210 229 255
210 229 255
210 229 255
210 229 255
210 229 255
210 229 255
209 229 255
209 229 255
209 229 255
209 229 255
209 229 255
209 229 255
209 229 255
209 229 255
209 229 255
209 229 255
209 229 255
209 229 255
209 229 255
209 229 255
209 229 255
209 229 255
209 229 255
209 229 255
209 229 255
209 228 255
208 228 255
208 228 255
208 228 255
208 228 255
208 228 255
208 228 255
208 228 255
208 228 255
208 228 255
208 228 255
208 228 255
208 228 255
208 228 255
208 228 255
208 228 255
208 228 255
208 228 255
208 228 255
208 228 255
208 228 255
207 228 255
207 228 255
207 228 255
207 228 255
207 228 255
207 228 255
207 228 255
207 228 255
207 228 255
207 228 255
207 228 255
207 228 255
207 228 255
207 228 255
207 228 255
207 227 255
207 227 255
207 227 255
207 227 255
207 227 255
206 227 255
206 227 255
206 227 255
206 227 255
206 227 255
206 227 255
206 227 255
206 227 255
206 227 255
206 227 255
206 227 255
206 227 255
206 227 255
206 227 255
206 227 255
206 227 255
206 227 255
206 227 255
206 227 255
206 227 255
206 227 255
206 227 255
206 227 255
206 227 255
205 227 255
205 227 255
205 227 255
205 227 255
205 227 255
205 227 255
205 227 255
205 227 255
205 227 255
205 227 255
205 227 255
205 227 255
205 227 255
205 227 255
205 227 255
205 227 255
205 227 255
205 227 255
205 227 255
205 227 255
205 227 255
205 227 255
205 227 255
205 227 255
205 227 255
205 227 255
205 226 255
205 226 255
205 226 255
205 226 255
205 226 255
205 226 255
205 226 255
205 226 255
205 226 255
205 226 255
205 226 255
205 226 255
205 226 255
205 226 255
205 226 255
205 226 255
205 226 255
205 226 255
205 227 255
205 227 255
205 227 255
205 227 255
205 227 255
205 227 255
205 227 255
205 227 255
205 227 255
205 227 255
205 227 255
205 227 255
205 227 255
205 227 255
205 227 255
205 227 255
205 227 255
205 227 255
205 227 255
205 227 255
205 227 255
205 227 255
205 227 255
205 227 255
205 227 255
205 227 255
205 227 255
206 227 255
206 227 255
206 227 255
206 227 255
206 227 255
206 227 255
206 227 255
206 227 255
206 227 255
206 227 255
206 227 255
206 227 255
206 227 255
206 227 255
206 227 255
206 227 255
206 227 255
206 227 255
206 227 255
206 227 255
206 227 255
206 227 255
206 227 255
207 227 255
207 227 255
207 227 255
207 227 255
207 227 255
207 228 255
207 228 255
207 228 255
207 228 255
207 228 255
207 228 255
207 228 255
207 228 255
207 228 255
207 228 255
207 228 255
207 228 255
207 228 255
207 228 255
207 228 255
208 228 255
208 228 255
208 228 255
208 228 255
208 228 255
208 228 255
208 228 255
208 228 255
208 228 255
208 228 255
208 228 255
208 228 255
206 226 251
182 195 203
143 146 129
143 140 93
129 129 87
130 128 85
137 135 90
140 140 94
135 133 89
135 134 90
136 135 90
146 145 98
141 139 93
143 141 95
140 139 93
142 141 95
139 138 93
144 143 96
146 144 97
149 148 99
144 143 96
151 150 101
145 144 97
152 151 101
152 150 101
149 147 99
150 149 101
150 149 100
143 141 95
157 155 104
156 154 103
145 145 97
144 143 96
147 146 98
155 153 103
140 138 93
151 149 99
160 159 106
151 149 99
155 152 101
146 145 97
145 144 97
151 149 99
149 147 98
148 146 97
150 148 99
142 141 94
154 152 101
148 146 97
153 151 101
140 138 91
148 147 98
149 147 99
151 149 99
147 145 97
148 146 96
146 143 95
147 145 96
151 148 99
152 150 99
146 143 95
150 148 97
140 138 93
146 144 96
146 144 95
150 148 98
155 151 98
151 149 97
150 147 97
145 143 93
143 141 93
153 150 99
147 144 94
149 145 95
150 147 97
156 153 101
144 141 93
150 148 97
153 149 96
151 148 96
143 140 90
142 140 92
147 144 93
151 146 96
151 148 97
146 144 94
148 145 95
140 137 89
152 148 96
136 133 85
143 139 90
144 141 90
151 148 95
132 130 86
143 141 90
145 142 93
144 138 88
143 138 88
142 138 89
145 141 91
140 137 89
144 140 91
128 126 80
144 139 90
146 141 90
140 136 86
139 135 85
137 133 85
138 135 85
213 231 255
213 231 255
213 231 255
213 231 255
213 231 255
213 231 255
213 231 255
213 231 255
213 231 255
213 231 255
213 231 255
213 231 255
212 231 255
212 231 255
212 231 255
212 231 255
212 231 255
212 231 255
212 231 255
212 231 255
212 230 255
212 230 255
212 230 255
212 230 255
212 230 255
212 230 255
212 230 255
212 230 255
212 230 255
212 230 255
212 230 255
212 230 255
212 230 255
212 230 255
212 230 255
212 230 255
212 230 255
212 230 255
212 230 255
212 230 255
211 230 255
211 230 255
211 230 255
211 230 255
211 230 255
211 230 255
211 230 255
211 230 255
211 230 255
211 230 255
211 230 255
211 230 255
211 230 255
211 230 255
211 230 255
211 230 255
211 230 255
211 230 255
211 230 255
211 230 255
211 230 255
211 230 255
211 230 255
211 230 255
210 230 255
210 230 255
210 229 255
210 229 255
210 229 255
210 229 255
210 229 255
210 229 255
210 229 255
210 229 255
210 229 255
210 229 255
210 229 255
210 229 255
210 229 255
210 229 255
210 229 255
210 229 255
210 229 255
210 229 255
210 229 255
210 229 255
209 229 255
209 229 255
209 229 255
209 229 255
209 229 255
209 229 255
209 229 255
209 229 255
209 229 255
209 229 255
209 229 255
209 229 255
209 229 255
209 229 255
209 229 255
209 229 255
209 229 255
209 229 255
209 228 255
208 228 255
208 228 255
208 228 255
208 228 255
208 228 255
208 228 255
208 228 255
208 228 255
208 228 255
208 228 255
208 228 255
208 228 255
208 228 255
208 228 255
208 228 255
208 228 255
208 228 255
208 228 255
208 228 255
208 228 255
207 228 255
207 228 255
207 228 255
207 228 255
207 228 255
207 228 255
207 228 255
207 228 255
207 228 255
207 228 255
207 228 255
207 228 255
207 228 255
207 228 255
207 228 255
207 228 255
207 227 255
207 227 255
207 227 255
207 227 255
207 227 255
206 227 255
206 227 255
206 227 255
206 227 255
206 227 255
206 227 255
206 227 255
206 227 255
206 227 255
206 227 255
206 227 255
206 227 255
206 227 255
206 227 255
206 227 255
206 227 255
206 227 255
206 227 255
206 227 255
206 227 255
206 227 255
206 227 255
206 227 255
206 227 255
206 227 255
206 227 255
206 227 255
205 227 255
205 227 255
205 227 255
205 227 255
205 227 255
205 227 255
205 227 255
205 227 255
205 227 255
205 227 255
205 227 255
205 227 255
205 227 255
205 227 255
205 227 255
205 227 255
205 227 255
205 227 255
205 227 255
205 227 255
205 227 255
205 227 255
205 227 255
205 227 255
203 225 254
203 225 254
196 217 248
198 219 250
202 224 254
204 226 255
205 227 255
205 227 255
205 227 255
205 227 255
205 227 255
205 227 255
205 227 255
205 227 255
205 227 255
205 227 255
205 227 255
205 227 255
205 227 255
205 227 255
205 227 255
205 227 255
205 227 255
205 227 255
205 227 255
205 227 255
205 227 255
205 227 255
205 227 255
205 227 255
206 227 255
206 227 255
206 227 255
206 227 255
206 227 255
206 227 255
206 227 255
206 227 255
206 227 255
206 227 255
206 227 255
206 227 255
206 227 255
206 227 255
206 227 255
206 227 255
206 227 255
206 227 255
206 227 255
206 227 255
206 227 255
206 227 255
206 227 255
206 227 255
206 227 255
206 227 255
206 227 255
207 227 255
207 227 255
207 227 255
207 227 255
207 227 255
207 228 255
207 228 255
207 228 255
207 228 255
207 228 255
207 228 255
207 228 255
207 228 255
207 228 255
207 228 255
207 228 255
207 228 255
207 228 255
207 228 255
207 228 255
207 228 255
208 228 255
208 228 255
208 228 255
208 228 255
208 228 255
208 228 255
208 228 255
208 228 255
208 228 255
208 228 255
208 228 255
208 228 255
208 228 255
208 228 255
206 225 250
176 188 195
145 146 113
134 132 88
135 132 88
148 146 97
136 135 91
140 138 92
126 125 84
144 142 95
140 139 93
139 138 93
143 142 95
147 145 97
143 142 95
142 141 95
145 144 97
146 145 97
148 147 99
140 139 94
151 150 101
145 145 97
147 147 99
146 145 97
149 148 99
146 145 97
143 142 95
157 156 104
150 149 100
145 143 96
148 147 99
152 150 101
153 152 102
149 147 99
152 150 101
153 151 101
151 149 99
153 151 101
150 149 100
152 150 101
153 150 100
156 155 104
158 155 104
150 149 100
137 136 92
156 154 103
159 157 104
154 152 102
153 151 101
148 146 98
160 157 105
145 143 96
150 148 99
161 159 105
146 145 97
156 153 101
150 148 98
153 150 100
151 149 99
152 149 99
147 145 96
154 151 100
155 152 101
141 139 91
153 150 97
154 151 99
152 150 99
162 159 106
154 151 100
145 142 95
157 153 101
158 154 99
152 149 98
154 151 99
144 142 93
151 148 96
152 148 97
147 142 93
152 149 97
148 144 93
145 142 93
147 144 94
148 145 95
150 149 98
143 141 92
149 145 93
154 150 97
149 145 94
152 148 95
148 145 94
153 149 95
139 136 88
145 141 90
139 134 87
155 150 97
144 140 89
150 145 91
148 144 92
146 142 93
136 132 81
146 142 92
147 143 95
143 139 89
144 140 89
145 141 88
145 141 90
128 124 79
139 135 86
140 136 85
137 134 82
133 129 84
213 231 255
213 231 255
213 231 255
213 231 255
213 231 255
213 231 255
213 231 255
213 231 255
213 231 255
213 231 255
213 231 255
213 231 255
213 231 255
213 231 255
213 231 255
213 231 255
213 231 255
212 231 255
212 231 255
212 231 255
212 231 255
212 231 255
212 231 255
212 231 255
212 231 255
212 230 255
212 230 255
212 230 255
212 230 255
212 230 255
212 230 255
212 230 255
212 230 255
212 230 255
212 230 255
212 230 255
212 230 255
212 230 255
212 230 255
212 230 255
212 230 255
212 230 255
212 230 255
212 230 255
212 230 255
211 230 255
211 230 255
211 230 255
211 230 255
211 230 255
211 230 255
211 230 255
211 230 255
211 230 255
211 230 255
211 230 255
211 230 255
211 230 255
211 230 255
211 230 255
211 230 255
211 230 255
211 230 255
211 230 255
211 230 255
211 230 255
211 230 255
211 230 255
211 230 255
210 230 255
210 230 255
210 229 255
210 229 255
210 229 255
210 229 255
210 229 255
210 229 255
210 229 255
210 229 255
210 229 255
210 229 255
210 229 255
210 229 255
210 229 255
210 229 255
210 229 255
210 229 255
210 229 255
210 229 255
210 229 255
209 229 255
209 229 255
209 229 255
209 229 255
209 229 255
209 229 255
209 229 255
209 229 255
209 229 255
209 229 255
209 229 255
209 229 255
209 229 255
209 229 255
209 229 255
209 229 255
209 229 255
209 229 255
209 229 255
209 228 255
208 228 255
208 228 255
208 228 255
208 228 255
208 228 255
208 228 255
208 228 255
208 228 255
208 228 255
208 228 255
208 228 255
208 228 255
208 228 255
208 228 255
208 228 255
208 228 255
208 228 255
208 228 255
208 228 255
208 228 255
207 228 255
207 228 255
207 228 255
207 228 255
207 228 255
207 228 255
207 228 255
207 228 255
207 228 255
207 228 255
207 228 255
207 228 255
207 228 255
207 228 255
207 228 255
207 228 255
207 227 255
207 227 255
207 227 255
207 227 255
207 227 255
207 227 255
206 227 255
206 227 255
206 227 255
206 227 255
206 227 255
206 227 255
206 227 255
206 227 255
206 227 255
206 227 255
206 227 255
206 227 255
206 227 255
206 227 255
206 227 255
206 227 255
206 227 255
206 227 255
206 227 255
206 227 255
206 227 255
206 227 255
206 227 255
206 227 255
206 227 255
206 227 255
206 227 255
206 227 255
206 227 255
206 227 255
206 227 255
206 227 255
206 227 255
205 227 255
205 227 255
205 227 255
205 227 255
205 227 255
189 211 244
164 186 227
149 173 217
137 161 211
110 137 199
109 136 197
78 111 184
62 99 175
61 98 176
62 98 175
62 99 176
61 98 175
62 99 175
71 105 182
98 127 193
130 155 208
141 165 215
158 181 225
168 191 231
183 205 240
205 226 255
205 227 255
205 227 255
205 227 255
206 227 255
206 227 255
206 227 255
206 227 255
206 227 255
206 227 255
206 227 255
206 227 255
206 227 255
206 227 255
206 227 255
206 227 255
206 227 255
206 227 255
206 227 255
206 227 255
206 227 255
206 227 255
206 227 255
206 227 255
206 227 255
206 227 255
206 227 255
206 227 255
206 227 255
206 227 255
206 227 255
206 227 255
206 227 255
206 227 255
206 227 255
206 227 255
206 227 255
206 227 255
206 227 255
207 227 255
207 227 255
207 227 255
207 227 255
207 227 255
207 228 255
207 228 255
207 228 255
207 228 255
207 228 255
207 228 255
207 228 255
207 228 255
207 228 255
207 228 255
207 228 255
207 228 255
207 228 255
207 228 255
207 228 255
207 228 255
208 228 255
208 228 255
208 228 255
208 228 255
208 228 255
208 228 255
208 228 255
208 228 255
208 228 255
208 228 255
208 228 255
208 228 255
208 228 255
208 228 255
208 228 255
208 228 255
208 228 255
206 225 250
179 190 198
139 139 103
132 131 87
127 126 84
132 130 87
131 129 87
133 132 89
144 143 95
143 141 95
143 141 95
148 146 98
135 134 90
136 135 91
140 139 93
137 137 92
134 134 90
144 143 96
152 150 101
156 155 104
138 137 93
141 141 95
146 144 97
147 146 98
145 144 97
151 150 101
151 150 101
144 142 95
146 145 98
153 151 101
150 148 99
146 145 97
146 144 97
142 141 95
147 145 97
157 156 105
150 148 99
152 150 101
157 154 103
151 149 99
153 151 101
158 156 104
154 152 101
148 146 98
153 150 100
159 157 104
151 149 99
155 152 101
156 153 101
155 152 101
155 151 100
147 145 97
158 156 104
154 151 100
154 152 101
161 158 104
149 147 98
161 158 105
156 154 102
150 147 98
147 146 97
157 154 102
151 148 99
152 149 99
149 146 97
153 150 99
152 150 100
153 150 99
152 149 98
153 149 97
155 153 101
154 151 97
151 148 98
142 139 90
148 145 95
159 156 104
145 142 93
156 153 101
156 152 100
157 154 101
148 145 95
156 152 99
151 147 97
150 146 95
150 148 96
159 154 99
151 148 99
147 143 93
144 140 90
149 145 95
150 146 95
149 146 94
155 150 97
143 139 90
152 148 94
145 141 92
146 142 91
139 135 87
155 150 95
135 131 82
147 142 90
148 145 93
152 147 93
139 136 86
133 129 81
146 142 92
149 145 93
134 130 82
146 141 89
137 133 84
147 142 91
138 135 84
134 130 84
213 231 255
213 231 255
213 231 255
213 231 255
213 231 255
213 231 255
213 231 255
213 231 255
213 231 255
213 231 255
213 231 255
213 231 255
213 231 255
213 231 255
213 231 255
213 231 255
213 231 255
213 231 255
213 231 255
213 231 255
213 231 255
213 231 255
212 231 255
212 231 255
212 231 255
212 231 255
212 231 255
212 231 255
212 231 255
212 231 255
212 230 255
212 230 255
212 230 255
212 230 255
212 230 255
212 230 255
212 230 255
212 230 255
212 230 255
212 230 255
212 230 255
212 230 255
212 230 255
212 230 255
212 230 255
212 230 255
212 230 255
212 230 255
212 230 255
211 230 255
211 230 255
211 230 255
211 230 255
211 230 255
211 230 255
211 230 255
211 230 255
211 230 255
211 230 255
211 230 255
211 230 255
211 230 255
211 230 255
211 230 255
211 230 255
211 230 255
211 230 255
211 230 255
211 230 255
211 230 255
211 230 255
211 230 255
211 230 255
210 230 255
210 230 255
210 229 255
210 229 255
210 229 255
210 229 255
210 229 255
210 229 255
210 229 255
210 229 255
210 229 255
210 229 255
210 229 255
210 229 255
210 229 255
210 229 255
210 229 255
210 229 255
210 229 255
210 229 255
210 229 255
210 229 255
209 229 255
209 229 255
209 229 255
209 229 255
209 229 255
209 229 255
209 229 255
209 229 255
209 229 255
209 229 255
209 229 255
209 229 255
209 229 255
209 229 255
209 229 255
209 229 255
209 229 255
209 229 255
209 228 255
209 228 255
208 228 255
208 228 255
208 228 255
208 228 255
208 228 255
208 228 255
208 228 255
208 228 255
208 228 255
208 228 255
208 228 255
208 228 255
208 228 255
208 228 255
208 228 255
208 228 255
208 228 255
208 228 255
208 228 255
208 228 255
207 228 255
207 228 255
207 228 255
207 228 255
207 228 255
207 228 255
207 228 255
207 228 255
207 228 255
207 228 255
207 228 255
207 228 255
207 228 255
207 228 255
207 228 255
207 228 255
207 228 255
207 227 255
207 227 255
207 227 255
207 227 255
207 227 255
207 227 255
206 227 255
206 227 255
206 227 255
206 227 255
206 227 255
206 227 255
206 227 255
206 227 255
206 227 255
206 227 255
206 227 255
206 227 255
206 227 255
206 227 255
206 227 255
206 227 255
206 227 255
206 227 255
206 227 255
206 227 255
206 227 255
206 227 255
206 227 255
206 227 255
206 227 255
206 227 255
206 227 255
202 223 253
176 198 235
148 172 218
116 142 200
65 101 178
63 100 178
61 98 172
62 99 174
62 99 176
63 100 180
62 99 177
62 99 176
62 99 171
62 98 172
62 98 173
62 99 177
62 99 173
62 99 176
61 98 175
62 99 175
62 99 176
63 99 173
62 98 174
62 99 177
63 99 178
68 103 180
122 148 202
151 174 220
180 201 238
202 223 253
206 227 255
206 227 255
206 227 255
206 227 255
206 227 255
206 227 255
206 227 255
206 227 255
206 227 255
206 227 255
206 227 255
206 227 255
206 227 255
206 227 255
206 227 255
206 227 255
206 227 255
206 227 255
206 227 255
206 227 255
206 227 255
206 227 255
206 227 255
206 227 255
206 227 255
206 227 255
206 227 255
207 227 255
207 227 255
207 227 255
207 227 255
207 227 255
207 227 255
207 228 255
207 228 255
207 228 255
207 228 255
207 228 255
207 228 255
207 228 255
207 228 255
207 228 255
207 228 255
207 228 255
207 228 255
207 228 255
207 228 255
207 228 255
207 228 255
207 228 255
208 228 255
208 228 255
208 228 255
208 228 255
208 228 255
208 228 255
208 228 255
208 228 255
208 228 255
208 228 255
208 228 255
208 228 255
208 228 255
208 228 255
208 228 255
208 228 255
208 228 255
208 228 255
208 228 255
208 228 255
209 228 255
186 201 216
141 143 116
128 125 83
131 129 87
122 121 81
147 145 97
142 141 95
134 134 90
133 133 89
139 137 91
143 142 96
139 138 93
142 140 94
145 145 98
154 152 102
147 145 97
140 139 93
144 143 96
146 145 97
138 137 92
152 151 101
148 146 98
150 148 99
145 144 97
153 151 102
144 143 96
148 147 99
155 153 103
153 151 101
151 150 101
156 154 103
160 158 106
149 148 99
152 151 101
154 153 103
152 150 100
154 152 101
147 146 97
151 149 100
156 155 104
153 150 100
153 151 101
155 153 103
155 154 103
152 149 99
155 154 103
147 144 96
163 160 106
156 154 103
150 148 99
147 145 97
160 156 104
156 154 103
154 152 101
158 155 103
157 155 103
152 149 98
158 154 101
155 153 101
154 152 100
155 152 101
152 150 100
152 149 99
149 147 98
158 155 103
151 147 97
154 152 100
151 148 97
159 155 101
155 151 99
146 144 95
148 145 96
153 151 101
151 149 99
154 151 97
159 156 104
155 151 97
153 150 99
153 150 97
152 149 98
149 147 97
155 151 98
161 156 101
140 138 91
150 147 95
155 152 99
150 146 94
155 152 99
142 139 89
152 147 95
140 137 87
152 149 97
154 151 98
147 143 93
152 148 96
148 144 93
142 139 89
146 142 93
155 150 97
152 148 97
143 140 88
142 138 90
154 149 95
153 149 94
149 146 95
158 153 98
152 148 93
144 141 90
142 138 86
145 141 91
146 142 93
146 142 89
144 140 87
147 142 90
213 231 255
213 231 255
213 231 255
213 231 255
213 231 255
213 231 255
213 231 255
213 231 255
213 231 255
213 231 255
213 231 255
213 231 255
213 231 255
213 231 255
213 231 255
213 231 255
213 231 255
213 231 255
213 231 255
213 231 255
213 231 255
213 231 255
213 231 255
213 231 255
213 231 255
213 231 255
213 231 255
212 231 255
212 231 255
212 231 255
212 231 255
212 231 255
212 231 255
212 231 255
212 231 255
212 230 255
212 230 255
212 230 255
212 230 255
212 230 255
212 230 255
212 230 255
212 230 255
212 230 255
212 230 255
212 230 255
212 230 255
212 230 255
212 230 255
212 230 255
212 230 255
212 230 255
212 230 255
212 230 255
211 230 255
211 230 255
211 230 255
210 229 255
210 229 255
209 229 255
208 228 255
208 228 255
208 228 255
207 228 255
207 228 255
207 228 255
207 228 255
207 228 255
207 227 255
208 228 255
208 228 255
208 228 255
208 228 255
209 229 255
209 229 255
210 229 255
210 229 255
211 230 255
210 230 255
210 230 255
210 229 255
210 229 255
210 229 255
210 229 255
210 229 255
210 229 255
210 229 255
210 229 255
210 229 255
210 229 255
210 229 255
210 229 255
210 229 255
210 229 255
210 229 255
210 229 255
210 229 255
210 229 255
210 229 255
209 229 255
209 229 255
209 229 255
209 229 255
209 229 255
209 229 255
209 229 255
209 229 255
209 229 255
209 229 255
209 229 255
209 229 255
209 229 255
209 229 255
209 229 255
209 229 255
209 229 255
209 229 255
209 229 255
209 228 255
209 228 255
208 228 255
208 228 255
208 228 255
208 228 255
208 228 255
208 228 255
208 228 255
208 228 255
208 228 255
208 228 255
208 228 255
208 228 255
208 228 255
208 228 255
208 228 255
208 228 255
208 228 255
208 228 255
208 228 255
208 228 255
208 228 255
207 228 255
207 228 255
207 228 255
207 228 255
207 228 255
207 228 255
207 228 255
207 228 255
207 228 255
207 228 255
207 228 255
207 228 255
207 228 255
207 228 255
207 228 255
207 228 255
207 228 255
207 228 255
207 227 255
207 227 255
207 227 255
207 227 255
207 227 255
207 227 255
207 227 255
206 227 255
206 227 255
206 227 255
206 227 255
206 227 255
206 227 255
206 227 255
206 227 255
206 227 255
206 227 255
206 227 255
206 227 255
206 227 255
206 227 255
206 227 255
206 227 255
203 224 254
163 186 226
130 155 208
70 105 183
62 99 172
62 99 174
62 99 178
62 99 175
62 99 176
62 99 173
62 99 172
62 98 173
62 99 171
62 99 172
63 100 175
62 98 171
62 99 175
62 99 173
62 99 171
62 99 174
62 98 174
62 99 176
62 99 173
62 98 171
62 99 175
62 98 170
62 99 172
61 97 169
63 100 178
62 99 179
62 99 176
61 98 173
83 114 183
123 148 202
172 194 232
199 221 250
206 227 255
206 227 255
206 227 255
206 227 255
206 227 255
206 227 255
206 227 255
206 227 255
206 227 255
206 227 255
206 227 255
206 227 255
206 227 255
206 227 255
206 227 255
206 227 255
207 227 255
207 227 255
207 227 255
207 227 255
207 227 255
207 227 255
207 227 255
207 228 255
207 228 255
207 228 255
207 228 255
207 228 255
207 228 255
207 228 255
207 228 255
207 228 255
207 228 255
207 228 255
207 228 255
207 228 255
207 228 255
207 228 255
207 228 255
207 228 255
207 228 255
208 228 255
208 228 255
208 228 255
208 228 255
208 228 255
208 228 255
208 228 255
208 228 255
208 228 255
208 228 255
208 228 255
208 228 255
208 228 255
208 228 255
208 228 255
208 228 255
208 228 255
208 228 255
208 228 255
208 228 255
208 228 255
209 228 255
209 228 255
209 229 255
209 229 255
188 203 216
145 148 128
135 132 87
136 133 88
136 134 90
141 138 92
144 143 95
137 135 90
138 138 93
151 149 100
141 140 94
152 150 100
139 138 93
143 142 96
153 151 101
144 143 96
146 145 97
145 144 97
143 141 94
149 147 98
150 149 100
140 139 94
149 148 100
145 144 96
146 145 97
154 152 102
155 154 103
154 153 103
149 147 99
157 155 104
151 149 100
150 148 99
150 147 98
157 155 104
158 155 104
146 144 97
157 155 104
153 151 101
159 157 105
152 149 99
150 149 100
160 157 104
154 153 103
160 158 106
149 146 97
152 150 101
155 153 102
153 151 101
155 152 101
160 157 105
163 160 106
157 155 103
164 161 106
148 146 97
148 146 97
151 149 99
162 159 106
157 155 103
162 159 106
149 146 97
152 149 99
154 151 99
151 149 98
155 152 101
165 161 106
159 156 103
153 151 100
155 151 100
153 150 99
157 153 100
160 156 103
150 148 97
155 152 100
156 153 100
156 151 99
159 155 102
156 152 100
157 153 99
155 151 97
151 150 99
161 157 103
141 138 90
147 145 94
159 155 101
154 150 99
151 147 95
145 141 90
153 149 97
156 151 97
147 143 93
159 155 101
153 150 97
148 145 94
159 154 99
157 153 99
151 147 95
153 150 97
148 144 92
147 144 90
139 135 87
146 141 90
146 143 90
145 141 90
145 142 90
133 129 82
153 149 96
150 145 91
148 144 92
151 146 94
146 142 91
147 142 90
147 143 92
136 133 84
143 138 84
146 142 90
140 137 84
213 231 255
213 231 255
213 231 255
213 231 255
213 231 255
213 231 255
213 231 255
213 231 255
213 231 255
213 231 255
213 231 255
213 231 255
213 231 255
213 231 255
213 231 255
213 231 255
213 231 255
213 231 255
213 231 255
213 231 255
213 231 255
213 231 255
213 231 255
213 231 255
213 231 255
213 231 255
213 231 255
213 231 255
213 231 255
213 231 255
213 231 255
213 231 255
212 231 255
212 231 255
212 231 255
212 231 255
212 231 255
212 231 255
212 231 255
212 231 255
212 230 255
212 230 255
212 230 255
212 230 255
212 230 255
212 230 255
212 230 255
212 230 255
212 230 255
211 230 255
209 229 255
209 229 255
207 227 255
206 227 255
205 226 255
203 226 255
202 225 255
202 225 255
201 224 255
200 224 255
200 224 255
200 224 255
199 223 255
199 223 255
199 223 255
199 223 255
198 223 255
198 223 255
198 223 255
198 223 255
198 223 255
199 223 255
199 223 255
199 223 255
200 224 255
200 224 255
201 224 255
202 225 255
203 226 255
205 226 255
205 227 255
208 228 255
209 229 255
210 229 255
210 230 255
210 229 255
210 229 255
210 229 255
210 229 255
210 229 255
210 229 255
210 229 255
210 229 255
210 229 255
210 229 255
210 229 255
210 229 255
210 229 255
210 229 255
210 229 255
210 229 255
210 229 255
210 229 255
209 229 255
209 229 255
209 229 255
209 229 255
209 229 255
209 229 255
209 229 255
209 229 255
209 229 255
209 229 255
209 229 255
209 229 255
209 229 255
209 229 255
209 229 255
209 229 255
209 229 255
209 229 255
209 229 255
209 229 255
209 228 255
208 228 255
208 228 255
208 228 255
208 228 255
208 228 255
208 228 255
208 228 255
208 228 255
208 228 255
208 228 255
208 228 255
208 228 255
208 228 255
208 228 255
208 228 255
208 228 255
208 228 255
208 228 255
208 228 255
208 228 255
208 228 255
208 228 255
207 228 255
207 228 255
207 228 255
207 228 255
207 228 255
207 228 255
207 228 255
207 228 255
207 228 255
207 228 255
207 228 255
207 228 255
207 228 255
207 228 255
207 228 255
207 228 255
207 228 255
207 228 255
207 228 255
207 228 255
207 228 255
207 227 255
207 227 255
207 227 255
207 227 255
207 227 255
207 227 255
207 227 255
207 227 255
206 227 255
206 227 255
206 227 255
206 227 255
206 227 255
186 207 241
133 158 210
79 111 181
61 99 178
62 99 174
62 99 177
62 99 175
62 99 176
61 98 170
62 99 175
62 99 170
62 99 176
62 99 172
62 99 177
62 98 171
63 100 174
62 98 169
62 98 170
62 98 172
63 99 171
63 100 177
62 99 175
62 99 171
62 98 173
62 99 177
62 98 172
61 98 169
62 98 171
63 100 179
62 99 174
62 98 172
62 99 173
62 99 173
62 99 172
62 99 176
62 98 173
62 98 173
73 107 179
137 161 211
176 198 235
206 227 255
206 227 255
206 227 255
206 227 255
207 227 255
207 227 255
207 227 255
207 227 255
207 227 255
207 227 255
207 227 255
207 227 255
207 227 255
207 228 255
207 228 255
207 228 255
207 228 255
207 228 255
207 228 255
207 228 255
207 228 255
207 228 255
207 228 255
207 228 255
207 228 255
207 228 255
207 228 255
207 228 255
207 228 255
207 228 255
207 228 255
207 228 255
207 228 255
207 228 255
208 228 255
208 228 255
208 228 255
208 228 255
208 228 255
208 228 255
208 228 255
208 228 255
208 228 255
208 228 255
208 228 255
208 228 255
208 228 255
208 228 255
208 228 255
208 228 255
208 228 255
208 228 255
208 228 255
208 228 255
208 228 255
208 228 255
209 228 255
209 229 255
209 229 255
209 229 255
209 229 255
209 229 255
203 220 241
165 173 167
134 131 87
134 131 87
134 132 88
134 132 89
134 132 89
136 135 90
140 139 94
141 140 94
139 137 92
143 142 96
142 140 94
146 145 97
139 138 93
142 141 95
150 148 99
146 145 97
149 147 99
152 150 101
149 149 100
140 139 94
147 147 99
154 152 102
151 150 101
154 153 103
151 149 100
162 159 107
150 148 99
146 144 97
158 156 105
152 150 101
159 157 105
154 153 103
156 153 102
155 153 103
150 148 99
154 153 103
152 150 100
160 157 104
149 146 97
150 148 99
163 160 106
158 156 104
159 157 104
156 154 103
151 149 99
158 156 104
158 156 104
154 152 102
155 152 101
160 156 103
157 154 102
156 154 103
160 157 104
149 147 97
158 155 103
158 155 103
155 151 99
150 147 98
152 149 99
160 156 102
157 153 100
149 146 97
155 153 102
161 158 105
159 155 101
157 154 101
158 154 101
153 150 99
156 153 101
152 149 96
162 158 102
160 155 101
154 151 99
159 156 102
152 148 96
154 150 96
154 150 98
150 147 97
156 151 98
155 150 96
153 150 97
161 158 105
159 156 101
148 144 93
149 145 90
155 150 99
151 148 97
142 138 89
146 142 90
156 152 97
159 155 101
147 143 91
150 146 95
151 146 93
153 149 97
148 145 95
150 145 91
149 145 94
152 148 95
159 154 98
144 141 90
147 143 91
141 137 87
154 149 95
157 152 95
145 141 88
141 137 85
146 141 90
144 140 90
145 141 89
145 141 90
141 136 84
149 144 89
143 140 87
134 131 83
145 141 88
214 231 255
214 231 255
214 231 255
214 231 255
214 231 255
214 231 255
213 231 255
213 231 255
213 231 255
213 231 255
213 231 255
213 231 255
213 231 255
213 231 255
213 231 255
213 231 255
213 231 255
213 231 255
213 231 255
213 231 255
213 231 255
213 231 255
213 231 255
213 231 255
213 231 255
213 231 255
213 231 255
213 231 255
213 231 255
213 231 255
213 231 255
213 231 255
213 231 255
213 231 255
213 231 255
213 231 255
213 231 255
212 231 255
212 231 255
212 231 255
212 231 255
212 231 255
212 231 255
212 230 255
211 230 255
209 229 255
207 228 255
206 227 255
204 226 255
203 225 255
202 225 255
201 224 255
200 224 255
199 224 255
199 223 255
198 223 255
197 222 255
197 222 255
196 222 255
196 222 255
195 221 255
195 221 255
195 221 255
195 221 255
194 221 255
194 221 255
194 221 255
194 221 255
194 221 255
194 220 255
194 220 255
194 220 255
194 221 255
194 221 255
194 221 255
194 221 255
194 221 255
195 221 255
195 221 255
196 222 255
196 222 255
198 223 255
198 223 255
200 224 255
201 224 255
204 226 255
206 227 255
208 228 255
210 229 255
210 229 255
210 229 255
210 229 255
210 229 255
210 229 255
210 229 255
210 229 255
210 229 255
210 229 255
210 229 255
210 229 255
210 229 255
210 229 255
210 229 255
210 229 255
210 229 255
210 229 255
210 229 255
210 229 255
210 229 255
209 229 255
209 229 255
209 229 255
209 229 255
209 229 255
209 229 255
209 229 255
209 229 255
209 229 255
209 229 255
209 229 255
209 229 255
209 229 255
209 229 255
209 229 255
209 229 255
209 229 255
209 229 255
209 229 255
209 228 255
209 228 255
208 228 255
208 228 255
208 228 255
208 228 255
208 228 255
208 228 255
208 228 255
208 228 255
208 228 255
208 228 255
208 228 255
208 228 255
208 228 255
208 228 255
208 228 255
208 228 255
208 228 255
208 228 255
208 228 255
208 228 255
208 228 255
208 228 255
207 228 255
207 228 255
207 228 255
207 228 255
207 228 255
207 228 255
207 228 255
207 228 255
207 228 255
207 228 255
207 228 255
207 228 255
207 228 255
207 228 255
207 228 255
207 228 255
207 228 255
207 228 255
207 228 255
207 228 255
207 228 255
207 228 255
207 228 255
207 228 255
207 228 255
205 226 254
177 199 236
104 131 189
62 99 173
62 98 173
63 100 177
62 99 174
61 98 172
62 99 171
62 99 178
61 98 169
63 99 173
62 98 170
62 98 170
62 99 176
62 99 171
62 98 171
62 98 170
63 99 175
63 99 173
62 98 166
62 99 173
62 99 176
61 98 171
62 99 174
62 99 175
62 99 174
63 99 168
62 99 171
62 99 172
62 98 170
62 98 169
62 99 176
62 98 169
61 98 167
63 99 174
62 98 174
62 98 170
61 98 170
61 98 172
62 98 170
62 98 173
62 98 174
105 132 192
160 182 224
205 226 254
207 228 255
207 228 255
207 228 255
207 228 255
207 228 255
207 228 255
207 228 255
207 228 255
207 228 255
207 228 255
207 228 255
207 228 255
207 228 255
207 228 255
207 228 255
207 228 255
207 228 255
207 228 255
207 228 255
207 228 255
207 228 255
207 228 255
207 228 255
207 228 255
208 228 255
208 228 255
208 228 255
208 228 255
208 228 255
208 228 255
208 228 255
208 228 255
208 228 255
208 228 255
208 228 255
208 228 255
208 228 255
208 228 255
208 228 255
208 228 255
208 228 255
208 228 255
208 228 255
208 228 255
208 228 255
208 228 255
208 228 255
209 228 255
209 228 255
209 229 255
209 229 255
209 229 255
209 229 255
209 229 255
209 229 255
209 229 255
209 229 255
208 228 254
168 179 181
129 128 92
133 131 87
136 134 90
139 137 91
139 136 91
135 132 88
140 138 93
143 142 96
146 144 97
143 143 97
145 143 96
136 135 90
134 133 89
153 152 102
143 143 96
156 154 103
142 142 95
143 142 96
148 147 100
139 138 93
149 147 99
147 146 98
149 149 100
153 151 101
139 137 92
156 154 103
147 145 97
153 152 101
149 148 99
160 158 106
152 152 102
157 156 104
154 153 103
150 148 99
156 154 103
155 153 103
155 154 103
157 155 104
149 147 98
160 157 104
149 146 97
161 158 105
159 157 104
159 156 103
152 149 99
156 154 103
154 152 102
155 153 102
161 158 104
159 157 105
155 151 101
154 151 100
161 157 104
158 155 103
157 155 103
155 151 101
164 160 106
161 157 104
155 151 100
152 149 99
151 149 99
160 157 105
157 155 103
156 153 100
149 146 97
161 157 104
166 162 105
152 149 97
151 148 97
152 150 99
160 156 103
154 151 101
157 153 99
156 152 97
154 150 98
159 155 102
161 156 101
150 146 94
149 146 95
152 149 97
157 153 99
146 144 94
160 157 101
157 152 99
154 149 96
151 147 96
163 158 103
156 153 99
155 151 97
149 146 94
149 145 93
156 152 98
152 147 95
157 154 99
159 154 96
157 153 97
147 144 93
156 152 99
152 148 93
152 148 95
151 148 94
151 146 91
153 149 94
156 151 96
146 142 93
154 149 96
150 145 94
147 143 89
151 147 92
147 143 90
150 146 93
140 136 87
146 142 93
142 138 86
140 135 84
144 139 87
141 138 88
145 139 88
214 231 255
214 231 255
214 231 255
214 231 255
214 231 255
214 231 255
214 231 255
214 231 255
214 231 255
214 231 255
214 231 255
213 231 255
213 231 255
213 231 255
213 231 255
213 231 255
213 231 255
213 231 255
213 231 255
213 231 255
213 231 255
213 231 255
213 231 255
213 231 255
213 231 255
213 231 255
213 231 255
213 231 255
213 231 255
213 231 255
213 231 255
213 231 255
213 231 255
213 231 255
213 231 255
213 231 255
213 231 255
213 231 255
213 231 255
212 230 255
211 230 255
209 229 255
207 227 255
205 226 255
203 226 255
202 225 255
201 225 255
200 224 255
199 224 255
199 223 255
198 223 255
197 222 255
196 222 255
196 222 255
195 221 255
195 221 255
195 221 255
194 221 255
194 220 255
193 220 255
193 220 255
192 220 255
192 220 255
192 220 255
191 219 255
191 219 255
191 219 255
191 219 255
191 219 255
191 219 255
190 219 255
190 219 255
190 219 255
190 219 255
190 219 255
191 219 255
191 219 255
191 219 255
191 219 255
192 219 255
192 219 255
192 220 255
193 220 255
194 220 255
194 221 255
195 221 255
196 222 255
197 222 255
199 223 255
202 225 255
204 226 255
207 228 255
209 229 255
210 229 255
210 229 255
210 229 255
210 229 255
210 229 255
210 229 255
210 229 255
210 229 255
210 229 255
210 229 255
210 229 255
210 229 255
210 229 255
210 229 255
210 229 255
210 229 255
210 229 255
210 229 255
210 229 255
210 229 255
210 229 255
209 229 255
209 229 255
209 229 255
209 229 255
209 229 255
209 229 255
209 229 255
209 229 255
209 229 255
209 229 255
209 229 255
209 229 255
209 229 255
209 229 255
209 229 255
209 229 255
209 229 255
209 229 255
209 229 255
209 229 255
209 228 255
208 228 255
208 228 255
208 228 255
208 228 255
208 228 255
208 228 255
208 228 255
208 228 255
208 228 255
208 228 255
208 228 255
208 228 255
208 228 255
208 228 255
208 228 255
208 228 255
208 228 255
208 228 255
208 228 255
208 228 255
208 228 255
208 228 255
208 228 255
208 228 255
208 228 255
207 228 255
207 228 255
207 228 255
207 228 255
207 228 255
207 228 255
207 228 255
207 228 255
207 228 255
207 228 255
207 228 255
207 228 255
207 228 255
207 228 255
207 228 255
206 227 255
170 191 230
94 123 187
62 99 174
62 99 173
63 100 175
63 99 172
62 99 175
62 99 172
62 99 171
62 99 173
62 98 169
62 99 170
61 98 172
62 98 172
63 99 174
61 98 170
61 98 166
62 99 172
63 99 171
62 98 173
63 99 175
62 99 174
63 99 169
62 99 174
62 99 169
61 98 170
63 99 174
62 98 169
62 98 172
62 98 168
62 99 171
63 100 176
61 98 170
62 99 172
62 99 177
62 98 170
62 99 175
62 98 168
62 98 173
60 97 171
62 98 171
61 98 173
61 98 172
62 98 173
62 99 176
62 98 172
90 118 182
167 189 226
206 227 255
207 228 255
207 228 255
207 228 255
207 228 255
207 228 255
207 228 255
207 228 255
207 228 255
207 228 255
207 228 255
207 228 255
207 228 255
207 228 255
207 228 255
207 228 255
208 228 255
208 228 255
208 228 255
208 228 255
208 228 255
208 228 255
208 228 255
208 228 255
208 228 255
208 228 255
208 228 255
208 228 255
208 228 255
208 228 255
208 228 255
208 228 255
208 228 255
208 228 255
208 228 255
208 228 255
208 228 255
208 228 255
208 228 255
208 228 255
208 228 255
209 228 255
209 228 255
209 229 255
209 229 255
209 229 255
209 229 255
209 229 255
209 229 255
209 229 255
209 229 255
209 229 255
209 229 255
209 229 255
209 229 255
196 213 234
148 151 132
130 127 84
134 132 88
133 131 88
131 130 87
139 137 92
142 140 94
140 139 93
145 143 96
144 142 95
137 135 90
142 140 94
142 141 95
148 146 98
151 151 102
152 151 102
155 153 102
150 148 99
160 158 106
152 152 102
146 146 98
144 142 95
149 148 99
151 150 101
152 151 101
156 154 104
157 156 104
156 154 103
156 154 103
152 151 101
157 155 104
158 155 103
154 152 102
153 151 101
157 155 104
161 159 106
156 153 103
154 152 102
158 156 104
156 154 103
159 157 104
150 148 99
155 153 102
162 160 107
148 147 99
156 154 103
159 156 104
160 157 104
157 155 103
161 158 104
153 151 100
155 153 102
161 157 104
154 151 100
157 154 103
159 155 103
155 152 99
170 166 110
157 154 102
156 152 101
158 154 100
156 152 101
161 157 103
168 165 109
161 157 103
159 155 103
163 159 104
156 152 100
158 154 101
157 153 100
161 157 104
154 151 100
157 154 100
160 156 103
163 159 104
158 156 103
158 155 101
155 151 99
145 143 94
158 155 103
155 151 99
158 154 99
149 146 97
159 154 100
148 145 94
161 157 103
159 155 102
150 147 95
166 161 104
161 157 101
160 157 101
154 150 97
159 155 101
149 144 93
151 147 94
154 151 97
160 156 100
148 144 93
154 150 97
147 144 92
153 149 95
153 149 97
155 150 95
161 156 99
147 143 91
154 150 99
154 150 94
150 144 89
153 148 95
152 147 93
148 144 90
147 143 93
144 141 88
141 137 88
143 139 87
146 143 92
142 139 87
149 145 90
141 136 85
142 137 87
214 231 255
214 231 255
214 231 255
214 231 255
214 231 255
214 231 255
214 231 255
214 231 255
214 231 255
214 231 255
214 231 255
214 231 255
214 231 255
214 231 255
214 231 255
214 231 255
214 231 255
213 231 255
213 231 255
213 231 255
213 231 255
213 231 255
213 231 255
213 231 255
213 231 255
213 231 255
213 231 255
213 231 255
213 231 255
213 231 255
213 231 255
213 231 255
213 231 255
213 231 255
213 231 255
213 231 255
212 230 255
210 229 255
207 228 255
205 227 255
204 226 255
203 225 255
202 225 255
201 224 255
200 224 255
199 223 255
198 223 255
197 222 255
197 222 255
196 222 255
195 221 255
195 221 255
194 221 255
194 220 255
193 220 255
193 220 255
192 220 255
192 220 255
191 219 255
191 219 255
191 219 255
190 219 255
190 219 255
190 218 255
189 218 255
189 218 255
189 218 255
189 218 255
189 218 255
188 218 255
188 218 255
188 218 255
188 218 255
188 218 255
188 218 255
188 218 255
188 218 255
188 218 255
188 218 255
189 218 255
189 218 255
189 218 255
189 218 255
190 218 255
190 219 255
191 219 255
191 219 255
192 220 255
193 220 255
194 221 255
196 221 255
197 222 255
199 223 255
202 225 255
204 226 255
208 228 255
210 229 255
210 230 255
210 230 255
210 229 255
210 229 255
210 229 255
210 229 255
210 229 255
210 229 255
210 229 255
210 229 255
210 229 255
210 229 255
210 229 255
210 229 255
210 229 255
210 229 255
210 229 255
210 229 255
210 229 255
210 229 255
210 229 255
210 229 255
209 229 255
209 229 255
209 229 255
209 229 255
209 229 255
209 229 255
209 229 255
209 229 255
209 229 255
209 229 255
209 229 255
209 229 255
209 229 255
209 229 255
209 229 255
209 229 255
209 229 255
209 229 255
209 229 255
209 229 255
209 228 255
209 228 255
208 228 255
208 228 255
208 228 255
208 228 255
208 228 255
208 228 255
208 228 255
208 228 255
208 228 255
208 228 255
208 228 255
208 228 255
208 228 255
208 228 255
208 228 255
208 228 255
208 228 255
208 228 255
208 228 255
208 228 255
208 228 255
208 228 255
208 228 255
208 228 255
208 228 255
208 228 255
208 228 255
207 228 255
207 228 255
207 228 255
207 228 255
207 228 255
207 228 255
172 194 231
90 120 185
61 98 166
62 99 169
62 99 175
62 98 171
62 98 174
62 99 172
63 99 174
62 98 169
61 98 169
62 99 176
62 99 171
62 99 170
62 99 170
62 98 169
62 98 168
62 98 167
62 98 169
62 99 170
62 98 171
62 98 167
62 99 172
62 98 166
62 98 165
63 99 175
62 98 172
62 98 167
62 99 171
62 98 167
62 98 165
62 98 170
63 99 171
62 98 166
63 99 174
62 99 170
63 99 170
62 99 170
62 98 169
62 99 170
62 99 171
62 99 173
61 98 170
62 99 172
62 99 176
62 98 170
62 98 170
61 98 175
62 98 172
62 98 174
96 124 186
172 193 230
207 228 255
207 228 255
207 228 255
207 228 255
207 228 255
207 228 255
208 228 255
208 228 255
208 228 255
208 228 255
208 228 255
208 228 255
208 228 255
208 228 255
208 228 255
208 228 255
208 228 255
208 228 255
208 228 255
208 228 255
208 228 255
208 228 255
208 228 255
208 228 255
208 228 255
208 228 255
208 228 255
208 228 255
208 228 255
208 228 255
208 228 255
208 228 255
208 228 255
209 228 255
209 228 255
209 229 255
209 229 255
209 229 255
209 229 255
209 229 255
209 229 255
209 229 255
209 229 255
209 229 255
209 229 255
209 229 255
209 229 255
209 229 255
209 229 255
209 229 255
209 229 255
209 228 254
175 185 187
133 132 93
133 130 86
131 129 87
137 136 91
138 137 92
133 131 87
127 126 86
144 143 96
138 137 92
141 139 93
143 142 95
143 142 96
150 148 99
142 140 94
145 144 97
150 149 100
143 142 95
147 146 98
153 150 100
147 146 98
158 156 104
149 147 99
142 141 95
150 149 100
148 147 98
156 154 103
154 152 102
156 155 105
150 149 100
153 151 102
153 151 101
152 150 100
154 152 102
149 148 100
165 162 108
157 154 103
156 153 102
159 158 106
152 150 100
158 156 104
158 156 104
157 154 103
150 148 99
159 157 105
165 162 108
161 159 106
163 160 107
161 158 104
156 153 102
153 150 99
157 154 103
163 161 107
158 155 103
158 155 103
161 158 104
162 160 106
159 156 103
161 157 104
153 152 101
166 163 108
154 151 100
161 157 103
161 158 104
157 153 101
157 154 101
154 151 99
159 155 101
163 158 103
166 162 107
158 154 102
161 157 103
156 153 98
160 156 101
161 158 103
162 158 103
159 155 101
160 157 103
162 157 102
159 155 101
155 152 98
156 152 99
156 152 99
154 151 97
156 152 98
156 152 98
156 153 101
155 151 97
154 151 98
156 153 98
152 149 97
157 152 99
160 156 101
156 153 97
155 150 95
145 141 90
152 148 97
161 157 100
155 150 95
158 154 100
147 144 93
163 158 101
154 150 95
155 151 97
152 149 95
146 141 89
142 138 87
150 146 93
147 143 90
149 145 93
150 146 93
145 140 87
147 143 91
150 145 93
153 149 95
142 137 84
144 140 88
160 156 101
146 142 89
143 139 88
147 142 87
154 148 93
214 232 255
214 232 255
214 232 255
214 232 255
214 231 255
214 231 255
214 231 255
214 231 255
214 231 255
214 231 255
214 231 255
214 231 255
214 231 255
214 231 255
214 231 255
214 231 255
214 231 255
214 231 255
214 231 255
214 231 255
214 231 255
214 231 255
214 231 255
213 231 255
213 231 255
213 231 255
213 231 255
213 231 255
213 231 255
213 231 255
213 231 255
213 231 255
213 231 255
212 230 255
210 229 255
207 228 255
205 227 255
204 226 255
203 225 255
201 225 255
201 224 255
200 224 255
199 223 255
198 223 255
197 222 255
197 222 255
196 222 255
195 221 255
195 221 255
194 221 255
194 220 255
193 220 255
193 220 255
192 220 255
192 219 255
191 219 255
191 219 255
190 219 255
190 218 255
189 218 255
189 218 255
189 218 255
188 218 255
188 218 255
188 217 255
188 217 255
187 217 255
187 217 255
187 217 255
187 217 255
187 217 255
186 217 255
186 217 255
186 217 255
186 217 255
186 217 255
186 217 255
186 217 255
186 217 255
186 217 255
186 217 255
187 217 255
187 217 255
187 217 255
187 217 255
188 217 255
188 218 255
189 218 255
189 218 255
190 219 255
191 219 255
192 220 255
193 220 255
194 221 255
196 222 255
198 223 255
201 224 255
205 227 255
208 228 255
210 229 255
211 230 255
211 230 255
210 230 255
210 230 255
210 229 255
210 229 255
210 229 255
210 229 255
210 229 255
210 229 255
210 229 255
210 229 255
210 229 255
210 229 255
210 229 255
210 229 255
210 229 255
210 229 255
210 229 255
210 229 255
210 229 255
210 229 255
210 229 255
210 229 255
209 229 255
209 229 255
209 229 255
209 229 255
209 229 255
209 229 255
209 229 255
209 229 255
209 229 255
209 229 255
209 229 255
209 229 255
209 229 255
209 229 255
209 229 255
209 229 255
209 229 255
209 229 255
209 229 255
209 229 255
209 229 255
209 229 255
209 228 255
208 228 255
208 228 255
208 228 255
208 228 255
208 228 255
208 228 255
208 228 255
208 228 255
208 228 255
208 228 255
208 228 255
208 228 255
208 228 255
208 228 255
208 228 255
208 228 255
208 228 255
208 228 255
208 228 255
208 228 255
208 228 255
208 228 255
208 228 255
208 228 255
208 228 255
191 212 244
125 150 202
62 99 174
62 98 168
62 99 172
62 99 171
62 98 168
62 98 167
62 99 175
62 98 167
62 99 171
62 98 166
62 99 168
62 99 169
62 99 169
63 99 169
62 99 167
62 98 160
62 99 168
61 98 167
62 98 166
63 99 167
62 98 169
62 99 172
63 99 168
62 98 167
62 98 165
62 99 167
62 98 166
62 98 165
62 99 170
62 98 171
61 98 167
62 99 166
62 98 167
62 99 171
62 98 170
62 98 166
62 99 174
62 99 169
62 98 170
61 97 164
62 98 165
61 97 167
63 99 170
61 98 169
62 97 171
62 98 171
62 98 170
63 99 170
61 97 172
61 97 172
61 97 169
61 97 171
117 142 197
186 206 239
208 228 255
208 228 255
208 228 255
208 228 255
208 228 255
208 228 255
208 228 255
208 228 255
208 228 255
208 228 255
208 228 255
208 228 255
208 228 255
208 228 255
208 228 255
208 228 255
208 228 255
208 228 255
208 228 255
208 228 255
208 228 255
208 228 255
208 228 255
208 228 255
208 228 255
209 228 255
209 229 255
209 229 255
209 229 255
209 229 255
209 229 255
209 229 255
209 229 255
209 229 255
209 229 255
209 229 255
209 229 255
209 229 255
209 229 255
209 229 255
209 229 255
209 229 255
209 229 255
209 229 255
209 229 255
209 229 255
209 229 255
209 229 255
199 216 236
151 153 130
133 131 87
134 132 88
136 135 89
134 133 89
137 136 92
132 132 89
140 139 94
141 140 94
147 146 99
142 141 95
133 131 89
140 139 93
149 148 100
148 146 98
153 152 102
152 150 101
145 144 97
148 147 99
146 145 98
153 151 101
147 145 97
150 149 100
149 147 98
151 148 99
148 147 99
157 155 103
157 155 104
152 149 99
151 149 100
150 148 99
159 157 105
159 157 105
150 148 99
157 155 103
159 157 105
157 155 104
156 154 102
157 155 103
153 151 101
157 155 104
159 156 104
166 163 108
160 157 104
156 154 103
161 158 105
157 154 101
159 157 105
147 144 95
161 158 106
160 157 104
156 154 103
162 159 105
159 156 103
165 162 108
155 152 101
152 150 99
162 159 104
162 158 103
162 159 105
157 154 103
159 157 104
155 152 100
159 156 103
160 157 104
162 158 104
165 161 106
166 162 106
164 160 104
167 163 108
158 156 101
160 157 103
164 160 104
159 155 103
157 155 102
158 155 100
155 151 96
162 158 103
166 161 105
161 157 103
158 154 99
159 155 102
164 160 104
161 156 100
159 155 101
152 149 97
156 153 101
158 153 99
152 148 95
159 154 100
158 154 100
158 154 100
156 151 95
160 155 100
147 144 93
161 156 101
158 153 98
155 151 95
154 151 97
156 152 93
159 155 97
159 155 98
150 146 90
159 154 99
152 149 95
158 153 100
147 143 91
155 151 96
150 145 93
144 141 89
152 148 94
146 143 90
147 143 88
151 146 93
146 142 90
148 144 95
135 132 82
146 140 88
145 140 88
143 138 87
159 154 96
143 138 89
143 139 87
214 232 255
214 232 255
214 232 255
214 232 255
214 232 255
214 232 255
214 232 255
214 232 255
214 232 255
214 232 255
214 231 255
214 231 255
214 231 255
214 231 255
214 231 255
214 231 255
214 231 255
214 231 255
214 231 255
214 231 255
214 231 255
214 231 255
214 231 255
214 231 255
214 231 255
214 231 255
214 231 255
214 231 255
213 231 255
213 231 255
212 230 255
210 229 255
207 228 255
206 227 255
204 226 255
203 226 255
202 225 255
201 224 255
200 224 255
199 223 255
198 223 255
198 223 255
197 222 255
196 222 255
196 221 255
195 221 255
194 221 255
194 221 255
193 220 255
193 220 255
192 220 255
192 219 255
191 219 255
191 219 255
190 219 255
190 218 255
189 218 255
189 218 255
189 218 255
188 218 255
188 217 255
188 217 255
187 217 255
187 217 255
187 217 255
186 217 255
186 217 255
186 216 255
186 216 255
185 216 255
185 216 255
185 216 255
185 216 255
185 216 255
185 216 255
185 216 255
185 216 255
185 216 255
185 216 255
185 216 255
185 216 255
185 216 255
185 216 255
185 216 255
185 216 255
185 216 255
186 216 255
186 217 255
187 217 255
187 217 255
188 217 255
188 218 255
189 218 255
190 219 255
191 219 255
192 220 255
194 220 255
195 221 255
198 223 255
200 224 255
205 226 255
209 228 255
211 230 255
211 230 255
211 230 255
211 230 255
211 230 255
210 230 255
210 230 255
210 230 255
210 229 255
210 229 255
210 229 255
210 229 255
210 229 255
210 229 255
210 229 255
210 229 255
210 229 255
210 229 255
210 229 255
210 229 255
210 229 255
210 229 255
210 229 255
210 229 255
210 229 255
210 229 255
210 229 255
210 229 255
209 229 255
209 229 255
209 229 255
209 229 255
209 229 255
209 229 255
209 229 255
209 229 255
209 229 255
209 229 255
209 229 255
209 229 255
209 229 255
209 229 255
209 229 255
209 229 255
209 229 255
209 229 255
209 229 255
209 229 255
209 229 255
209 229 255
209 229 255
209 228 255
208 228 255
208 228 255
208 228 255
208 228 255
208 228 255
208 228 255
208 228 255
208 228 255
208 228 255
208 228 255
208 228 255
208 228 255
208 228 255
208 228 255
208 228 255
208 228 255
208 228 255
161 183 224
68 102 174
61 98 169
62 98 171
62 98 166
62 99 170
63 99 175
62 99 171
62 98 169
62 99 172
62 98 166
62 98 165
62 99 171
63 99 172
62 98 165
62 98 164
62 99 171
61 98 167
62 99 169
62 99 171
61 98 168
62 99 169
63 99 167
62 99 172
62 99 167
62 98 166
62 99 172
62 98 169
62 98 163
62 98 171
61 97 163
62 98 166
62 98 168
61 98 168
61 98 169
61 98 161
63 99 169
62 99 170
62 99 172
62 98 165
61 97 160
62 98 169
62 99 171
63 99 168
63 99 171
61 98 168
62 98 171
62 98 170
61 97 163
61 96 166
61 97 166
61 97 168
61 97 167
61 97 165
61 97 171
61 98 171
70 104 171
153 175 216
207 227 255
208 228 255
208 228 255
208 228 255
208 228 255
208 228 255
208 228 255
208 228 255
208 228 255
208 228 255
208 228 255
208 228 255
208 228 255
208 228 255
208 228 255
208 228 255
209 228 255
209 228 255
209 228 255
209 229 255
209 229 255
209 229 255
209 229 255
209 229 255
209 229 255
209 229 255
209 229 255
209 229 255
209 229 255
209 229 255
209 229 255
209 229 255
209 229 255
209 229 255
209 229 255
209 229 255
209 229 255
209 229 255
209 229 255
209 229 255
209 229 255
210 229 255
210 229 255
210 229 255
210 229 255
210 229 255
183 197 211
130 129 92
128 126 82
135 132 87
136 134 89
132 131 88
142 140 94
137 135 90
151 149 100
141 139 93
154 152 102
143 142 95
149 147 99
147 145 97
144 144 97
145 143 96
149 148 100
155 154 103
152 150 101
151 149 100
152 150 101
146 145 98
153 151 101
150 149 100
141 140 94
149 148 99
159 157 105
158 155 103
151 149 101
163 160 107
162 160 107
159 157 104
154 151 101
147 144 97
154 152 101
159 157 104
165 162 108
157 154 103
161 159 106
157 155 103
157 155 103
158 156 104
159 156 104
156 153 102
161 159 106
159 156 103
159 157 105
157 153 101
166 162 108
156 153 102
162 160 107
151 149 99
159 156 104
159 156 103
165 162 107
157 153 101
156 153 101
156 154 102
159 156 104
153 149 98
158 155 103
163 159 104
164 160 106
160 156 103
161 157 103
156 152 100
158 155 101
171 167 109
159 155 101
168 164 108
158 155 102
162 158 103
163 159 103
163 159 102
160 156 103
164 159 104
158 155 101
158 154 99
157 153 99
153 148 96
161 156 99
160 156 103
158 154 101
154 151 99
157 152 97
162 158 103
162 158 101
162 158 101
162 158 103
154 150 97
159 156 101
155 151 94
150 146 93
150 147 94
147 144 93
157 153 99
160 155 101
159 154 97
155 151 97
155 151 98
151 147 94
155 151 95
155 151 96
154 148 95
156 152 99
158 154 99
152 148 93
153 148 96
152 148 93
156 151 95
152 148 92
147 144 90
154 150 95
156 151 97
152 148 95
151 147 95
153 147 90
150 146 91
153 148 94
152 148 93
143 138 87
153 148 92
151 146 89
143 139 86
152 147 93
214 232 255
214 232 255
214 232 255
214 232 255
214 232 255
214 232 255
214 232 255
214 232 255
214 232 255
214 232 255
214 232 255
214 232 255
214 232 255
214 232 255
214 232 255
214 232 255
214 231 255
214 231 255
214 231 255
214 231 255
214 231 255
214 231 255
214 231 255
214 231 255
214 231 255
214 231 255
214 231 255
213 231 255
212 230 255
209 229 255
207 228 255
205 227 255
204 226 255
203 225 255
202 225 255
201 224 255
200 224 255
199 223 255
198 223 255
198 223 255
197 222 255
196 222 255
196 221 255
195 221 255
194 221 255
194 221 255
193 220 255
193 220 255
192 220 255
192 219 255
191 219 255
191 219 255
190 219 255
190 218 255
189 218 255
189 218 255
189 218 255
188 218 255
188 217 255
187 217 255
187 217 255
187 217 255
186 217 255
186 216 255
186 216 255
185 216 255
185 216 255
185 216 255
185 216 255
184 216 255
184 216 255
184 216 255
184 215 255
184 215 255
184 215 255
184 215 255
183 215 255
183 215 255
183 215 255
183 215 255
183 215 255
183 215 255
184 215 255
184 215 255
184 215 255
184 215 255
184 216 255
184 216 255
185 216 255
185 216 255
186 216 255
186 217 255
187 217 255
187 217 255
188 218 255
189 218 255
190 219 255
191 219 255
192 220 255
194 221 255
196 222 255
198 223 255
202 225 255
207 228 255
210 229 255
211 230 255
211 230 255
211 230 255
211 230 255
211 230 255
211 230 255
211 230 255
210 230 255
210 230 255
210 230 255
210 229 255
210 229 255
210 229 255
210 229 255
210 229 255
210 229 255
210 229 255
210 229 255
210 229 255
210 229 255
210 229 255
210 229 255
210 229 255
210 229 255
210 229 255
210 229 255
210 229 255
210 229 255
210 229 255
210 229 255
210 229 255
209 229 255
209 229 255
209 229 255
209 229 255
209 229 255
209 229 255
209 229 255
209 229 255
209 229 255
209 229 255
209 229 255
209 229 255
209 229 255
209 229 255
209 229 255
209 229 255
209 229 255
209 229 255
209 229 255
209 229 255
209 229 255
209 229 255
209 229 255
209 229 255
209 228 255
209 228 255
208 228 255
208 228 255
208 228 255
208 228 255
208 228 255
208 228 255
208 228 255
196 216 247
108 135 194
62 99 169
63 99 173
62 99 171
61 98 171
62 98 166
63 99 172
62 98 168
62 98 166
61 98 162
62 99 170
63 100 174
62 98 169
62 98 169
62 98 169
62 99 171
63 99 171
62 98 166
62 99 166
63 99 168
62 99 168
62 99 167
63 99 167
63 99 172
62 98 165
62 98 167
63 99 166
62 98 166
63 99 168
61 97 158
62 98 165
62 98 168
62 99 167
62 98 167
62 98 168
62 99 171
62 98 160
62 98 164
62 98 164
62 98 170
62 98 162
62 99 167
62 98 162
61 96 159
62 99 173
60 96 159
62 98 166
62 98 167
62 98 169
60 96 158
61 97 162
62 99 172
62 98 172
61 97 167
63 99 172
62 98 170
62 98 170
61 97 168
60 96 164
115 140 190
202 222 250
208 228 255
208 228 255
208 228 255
208 228 255
208 228 255
208 228 255
208 228 255
209 228 255
209 228 255
209 229 255
209 229 255
209 229 255
209 229 255
209 229 255
209 229 255
209 229 255
209 229 255
209 229 255
209 229 255
209 229 255
209 229 255
209 229 255
209 229 255
209 229 255
209 229 255
209 229 255
209 229 255
209 229 255
209 229 255
209 229 255
209 229 255
209 229 255
209 229 255
210 229 255
210 229 255
210 229 255
210 229 255
210 229 255
210 229 255
210 229 255
210 229 255
210 229 255
206 225 251
168 179 185
131 128 84
131 129 84
129 127 84
143 141 94
132 131 89
143 142 96
141 140 94
145 143 96
148 147 99
134 134 91
141 141 95
136 135 90
147 145 98
152 151 102
146 144 97
149 148 100
144 142 95
147 146 99
148 146 97
145 144 97
154 153 103
157 155 104
154 152 103
154 153 103
157 155 104
154 152 103
150 148 99
153 152 102
146 144 96
161 160 107
157 155 104
158 156 104
159 156 105
156 153 102
152 150 101
157 155 103
155 153 103
160 157 104
164 161 108
161 158 104
157 154 102
163 160 107
162 158 104
160 156 103
165 162 108
167 163 108
164 161 107
162 159 106
162 159 106
162 159 105
154 150 100
166 162 106
161 158 104
162 159 106
161 158 103
163 160 106
167 163 106
163 160 104
161 158 105
168 164 108
159 155 102
164 160 105
160 156 102
160 157 103
161 158 103
162 159 104
158 156 102
155 152 99
163 158 104
166 162 105
163 160 105
157 154 102
163 159 104
163 158 104
156 153 101
159 155 101
167 163 106
162 159 103
160 156 103
158 154 99
163 159 103
163 159 104
164 159 103
162 157 101
155 152 98
161 156 99
158 154 101
155 151 96
158 154 95
156 153 97
158 154 99
155 151 95
162 157 101
152 149 98
157 152 97
166 162 104
150 146 96
158 155 99
161 157 101
162 158 100
162 157 101
162 158 102
149 144 89
152 148 93
148 144 90
152 146 93
150 146 88
149 145 93
148 144 91
156 152 94
159 154 97
150 147 92
158 153 97
158 153 95
149 145 90
154 149 95
162 157 100
146 142 89
149 145 90
151 147 90
153 148 92
152 147 90
148 144 90
146 142 88
145 140 86
215 232 255
215 232 255
215 232 255
215 232 255
214 232 255
214 232 255
214 232 255
214 232 255
214 232 255
214 232 255
214 232 255
214 232 255
214 232 255
214 232 255
214 232 255
214 232 255
214 232 255
214 232 255
214 232 255
214 232 255
214 232 255
214 232 255
214 232 255
214 231 255
214 231 255
213 231 255
211 230 255
208 228 255
206 227 255
205 227 255
204 226 255
203 225 255
202 225 255
201 224 255
200 224 255
199 223 255
198 223 255
198 223 255
197 222 255
196 222 255
196 222 255
195 221 255
195 221 255
194 221 255
193 220 255
193 220 255
192 220 255
192 220 255
191 219 255
191 219 255
190 219 255
190 219 255
190 218 255
189 218 255
189 218 255
188 218 255
188 217 255
187 217 255
187 217 255
187 217 255
186 217 255
186 217 255
186 216 255
185 216 255
185 216 255
185 216 255
185 216 255
184 216 255
184 215 255
184 215 255
184 215 255
183 215 255
183 215 255
183 215 255
183 215 255
183 215 255
183 215 255
183 215 255
183 215 255
182 215 255
182 215 255
182 215 255
182 215 255
183 215 255
183 215 255
183 215 255
183 215 255
183 215 255
183 215 255
184 215 255
184 215 255
184 216 255
185 216 255
185 216 255
186 216 255
186 217 255
187 217 255
188 218 255
189 218 255
190 219 255
192 219 255
193 220 255
195 221 255
197 222 255
200 224 255
205 227 255
209 229 255
211 230 255
211 230 255
211 230 255
211 230 255
211 230 255
211 230 255
211 230 255
211 230 255
211 230 255
211 230 255
211 230 255
210 230 255
210 230 255
210 230 255
210 229 255
210 229 255
210 229 255
210 229 255
210 229 255
210 229 255
210 229 255
210 229 255
210 229 255
210 229 255
210 229 255
210 229 255
210 229 255
210 229 255
210 229 255
210 229 255
210 229 255
210 229 255
210 229 255
210 229 255
210 229 255
209 229 255
209 229 255
209 229 255
209 229 255
209 229 255
209 229 255
209 229 255
209 229 255
209 229 255
209 229 255
209 229 255
209 229 255
209 229 255
209 229 255
209 229 255
209 229 255
209 229 255
209 229 255
209 229 255
209 229 255
209 229 255
209 229 255
209 229 255
209 229 255
209 229 255
209 229 255
180 201 234
73 107 176
62 99 173
62 98 168
63 99 171
62 98 169
61 98 169
62 99 174
61 97 159
63 99 171
62 98 165
62 99 167
62 98 169
62 99 169
62 98 167
62 98 164
63 99 166
63 99 169
62 98 167
62 98 164
61 98 164
62 99 168
62 98 168
62 98 168
62 98 163
61 98 163
63 99 174
61 97 162
61 98 164
62 98 160
61 98 165
63 99 170
62 99 167
62 98 159
62 99 169
62 98 163
62 98 167
62 98 167
62 98 163
62 98 166
63 99 171
62 98 168
63 99 172
63 99 168
62 99 167
62 98 164
62 98 170
61 98 170
61 97 168
62 98 167
63 99 173
62 98 166
62 98 170
61 98 167
62 98 170
62 97 164
62 98 166
60 96 165
62 98 171
61 97 164
62 98 171
61 97 170
70 103 170
172 193 227
209 229 255
209 229 255
209 229 255
209 229 255
209 229 255
209 229 255
209 229 255
209 229 255
209 229 255
209 229 255
209 229 255
209 229 255
209 229 255
209 229 255
209 229 255
209 229 255
209 229 255
209 229 255
209 229 255
209 229 255
209 229 255
209 229 255
209 229 255
209 229 255
209 229 255
209 229 255
210 229 255
210 229 255
210 229 255
210 229 255
210 229 255
210 229 255
210 229 255
210 229 255
210 229 255
210 229 255
210 229 255
210 229 255
210 229 255
210 229 255
205 223 245
147 150 134
138 136 90
136 134 90
132 131 88
142 139 93
139 137 91
130 130 88
131 130 88
145 143 97
141 139 95
143 142 96
151 150 101
144 142 96
152 150 101
143 142 96
148 146 98
156 154 103
149 148 100
148 147 99
152 150 101
148 146 98
151 150 101
149 148 99
140 139 94
158 155 104
153 151 101
152 151 102
155 153 103
156 153 103
158 156 104
155 153 102
157 154 103
155 153 103
153 151 101
156 155 104
162 159 106
153 152 101
158 154 103
156 153 103
163 159 106
159 156 103
166 162 108
167 164 109
166 163 109
161 158 104
158 155 103
159 155 102
165 162 108
162 159 105
162 160 107
160 157 104
164 160 105
163 160 105
162 159 106
165 162 107
162 159 105
161 158 104
165 161 106
169 165 108
169 163 106
159 155 102
161 158 103
167 164 108
162 159 104
161 157 102
166 162 106
161 158 104
165 162 106
163 160 104
162 159 105
164 160 103
160 156 103
164 161 106
161 157 102
163 159 102
161 156 101
160 157 103
159 155 100
160 157 102
164 159 101
154 150 95
157 153 99
151 148 92
157 152 97
153 149 96
164 160 103
155 152 99
155 152 96
163 159 103
163 158 103
162 157 98
152 148 95
154 149 95
163 159 102
146 143 90
162 157 98
162 158 101
158 154 99
158 153 97
160 156 99
155 151 95
159 155 98
162 157 99
154 150 93
152 149 95
159 155 99
158 153 95
163 158 100
150 145 92
149 145 93
158 153 97
155 150 93
145 141 90
142 137 87
152 148 95
149 146 91
152 147 93
153 148 90
151 147 93
149 144 88
145 142 87
145 141 87
147 143 90
152 148 90
148 143 86
157 152 95
151 146 87
215 232 255
215 232 255
215 232 255
215 232 255
215 232 255
215 232 255
215 232 255
215 232 255
215 232 255
215 232 255
215 232 255
214 232 255
214 232 255
214 232 255
214 232 255
214 232 255
214 232 255
214 232 255
214 232 255
214 232 255
214 232 255
214 232 255
214 232 255
213 231 255
211 230 255
208 228 255
207 227 255
205 227 255
204 226 255
203 225 255
202 225 255
201 224 255
200 224 255
200 224 255
199 223 255
198 223 255
197 222 255
197 222 255
196 222 255
196 221 255
195 221 255
194 221 255
194 221 255
193 220 255
193 220 255
192 220 255
192 219 255
191 219 255
191 219 255
190 219 255
190 218 255
189 218 255
189 218 255
189 218 255
188 218 255
188 217 255
187 217 255
187 217 255
187 217 255
186 217 255
186 216 255
186 216 255
185 216 255
185 216 255
185 216 255
184 216 255
184 216 255
184 215 255
184 215 255
183 215 255
183 215 255
183 215 255
183 215 255
183 215 255
182 215 255
182 215 255
182 214 255
182 214 255
182 214 255
182 214 255
182 214 255
182 214 255
182 214 255
182 214 255
182 214 255
182 214 255
182 214 255
182 214 255
182 215 255
182 215 255
183 215 255
183 215 255
183 215 255
184 215 255
184 216 255
185 216 255
185 216 255
186 216 255
187 217 255
188 217 255
189 218 255
190 218 255
191 219 255
192 220 255
194 221 255
197 222 255
199 223 255
203 226 255
209 229 255
211 230 255
211 230 255
211 230 255
211 230 255
211 230 255
211 230 255
211 230 255
211 230 255
211 230 255
211 230 255
211 230 255
211 230 255
211 230 255
211 230 255
211 230 255
210 230 255
210 230 255
210 230 255
210 229 255
210 229 255
210 229 255
210 229 255
210 229 255
210 229 255
210 229 255
210 229 255
210 229 255
210 229 255
210 229 255
210 229 255
210 229 255
210 229 255
210 229 255
210 229 255
210 229 255
210 229 255
210 229 255
210 229 255
210 229 255
210 229 255
209 229 255
209 229 255
209 229 255
209 229 255
209 229 255
209 229 255
209 229 255
209 229 255
209 229 255
209 229 255
209 229 255
209 229 255
209 229 255
209 229 255
209 229 255
209 229 255
209 229 255
209 229 255
130 154 203
66 101 170
62 99 175
62 99 171
62 98 169
62 98 169
62 99 170
63 99 168
61 98 165
61 97 161
62 99 170
62 98 164
63 99 169
62 99 169
62 98 166
62 99 170
62 99 171
63 99 172
63 99 171
62 98 165
62 99 169
62 98 167
60 96 156
63 99 169
61 98 159
63 99 170
63 98 162
62 99 167
63 99 165
62 98 162
62 97 152
62 99 170
61 97 157
62 98 166
63 99 167
63 99 169
62 98 163
62 98 161
62 98 164
61 98 168
63 99 169
63 99 165
62 98 161
61 98 163
62 98 169
62 98 167
62 97 165
63 99 174
62 98 169
62 98 173
61 97 163
62 98 163
62 98 164
62 98 166
62 98 159
61 97 168
61 96 167
61 97 160
62 98 168
61 96 163
61 97 167
61 97 169
61 97 170
61 96 165
67 100 166
142 163 205
209 229 255
209 229 255
209 229 255
209 229 255
209 229 255
209 229 255
209 229 255
209 229 255
209 229 255
209 229 255
209 229 255
209 229 255
209 229 255
209 229 255
209 229 255
209 229 255
209 229 255
209 229 255
210 229 255
210 229 255
210 229 255
210 229 255
210 229 255
210 229 255
210 229 255
210 229 255
210 229 255
210 229 255
210 229 255
210 229 255
210 229 255
210 229 255
210 229 255
210 229 255
210 229 255
210 229 255
210 229 255
210 229 255
189 204 219
135 137 114
141 138 91
130 128 85
134 132 89
147 145 97
148 146 98
133 131 88
135 133 90
149 148 99
150 148 99
140 140 95
144 142 96
144 143 97
149 148 100
149 148 100
148 147 99
149 148 101
148 146 98
151 149 101
148 147 99
145 144 97
152 150 102
148 146 98
162 159 105
149 148 98
150 149 100
148 145 97
154 152 103
161 159 106
155 153 102
157 154 103
155 154 104
158 156 103
157 154 102
164 162 108
150 147 98
162 159 105
161 158 105
156 153 102
158 155 103
162 159 105
159 156 104
162 159 106
160 156 104
162 158 104
171 167 110
163 159 104
163 159 105
160 158 105
160 157 103
162 159 104
162 157 104
163 160 106
165 162 108
166 163 108
168 164 108
171 166 109
161 158 104
164 160 106
165 161 107
164 160 104
162 159 103
157 153 101
163 159 104
165 160 104
164 159 103
161 159 104
165 160 106
164 159 103
159 156 103
158 155 102
164 159 103
155 152 99
165 161 105
164 161 103
162 159 102
161 157 102
162 158 104
161 157 102
160 155 101
163 159 104
158 154 97
152 148 95
166 162 104
160 155 99
160 157 101
159 155 102
165 160 103
161 157 101
156 152 97
157 153 94
161 158 100
158 154 98
160 156 96
154 151 97
151 148 96
159 155 100
163 157 98
158 153 99
162 158 101
158 155 99
158 153 97
159 155 99
162 157 98
151 147 93
155 152 96
156 152 98
161 156 97
161 156 99
161 157 96
154 150 95
155 152 96
155 150 97
159 154 99
162 156 97
152 149 90
158 153 97
150 145 93
153 148 87
155 151 94
149 144 88
156 151 93
143 139 86
146 142 87
155 150 95
149 144 89
143 139 88
154 149 94
215 232 255
215 232 255
215 232 255
215 232 255
215 232 255
215 232 255
215 232 255
215 232 255
215 232 255
215 232 255
215 232 255
215 232 255
215 232 255
215 232 255
215 232 255
215 232 255
215 232 255
214 232 255
214 232 255
214 232 255
214 232 255
214 231 255
211 230 255
209 228 255
207 228 255
206 227 255
205 226 255
203 226 255
202 225 255
202 225 255
201 224 255
200 224 255
199 223 255
199 223 255
198 223 255
197 222 255
197 222 255
196 222 255
195 221 255
195 221 255
194 221 255
194 221 255
193 220 255
193 220 255
192 220 255
192 219 255
191 219 255
191 219 255
190 219 255
190 219 255
189 218 255
189 218 255
189 218 255
188 218 255
188 217 255
187 217 255
187 217 255
187 217 255
186 217 255
186 216 255
186 216 255
185 216 255
185 216 255
185 216 255
184 216 255
184 216 255
184 215 255
184 215 255
183 215 255
183 215 255
183 215 255
183 215 255
182 215 255
182 215 255
182 214 255
182 214 255
182 214 255
182 214 255
181 214 255
181 214 255
181 214 255
181 214 255
181 214 255
181 214 255
181 214 255
181 214 255
181 214 255
181 214 255
181 214 255
182 214 255
182 214 255
182 214 255
182 215 255
183 215 255
183 215 255
183 215 255
184 215 255
184 216 255
185 216 255
186 216 255
186 217 255
187 217 255
188 218 255
189 218 255
190 219 255
192 220 255
194 221 255
196 222 255
199 224 255
204 226 255
209 229 255
211 230 255
211 230 255
211 230 255
211 230 255
211 230 255
211 230 255
211 230 255
211 230 255
211 230 255
211 230 255
211 230 255
211 230 255
211 230 255
211 230 255
211 230 255
211 230 255
211 230 255
211 230 255
211 230 255
210 230 255
210 230 255
210 230 255
210 229 255
210 229 255
210 229 255
210 229 255
210 229 255
210 229 255
210 229 255
210 229 255
210 229 255
210 229 255
210 229 255
210 229 255
210 229 255
210 229 255
210 229 255
210 229 255
210 229 255
210 229 255
210 229 255
210 229 255
210 229 255
210 229 255
210 229 255
210 229 255
209 229 255
209 229 255
209 229 255
209 229 255
209 229 255
209 229 255
209 229 255
209 229 255
204 224 252
131 154 204
62 99 173
62 98 170
63 100 176
62 98 168
63 100 175
61 98 164
63 99 170
60 97 158
63 99 172
62 99 170
62 98 167
61 98 164
61 98 161
61 97 163
62 98 167
62 98 165
63 99 165
62 98 160
62 99 173
61 97 163
62 98 162
62 97 155
62 98 165
62 98 159
61 97 160
62 99 170
63 99 168
62 98 161
62 98 159
63 99 169
62 98 167
62 98 167
62 98 162
62 98 161
62 98 165
62 98 166
63 100 172
62 98 161
63 99 169
62 98 165
62 98 165
62 98 165
63 99 166
62 98 166
62 98 168
62 97 162
62 98 168
62 98 164
62 98 166
62 99 168
62 98 164
62 99 172
61 96 162
62 98 170
60 95 153
61 96 157
62 97 166
63 98 168
62 98 163
61 96 155
61 96 162
62 98 169
62 97 165
61 96 165
60 96 162
61 96 162
125 148 192
207 227 254
209 229 255
209 229 255
209 229 255
209 229 255
209 229 255
209 229 255
209 229 255
210 229 255
210 229 255
210 229 255
210 229 255
210 229 255
210 229 255
210 229 255
210 229 255
210 229 255
210 229 255
210 229 255
210 229 255
210 229 255
210 229 255
210 229 255
210 229 255
210 229 255
210 229 255
210 229 255
210 229 255
210 229 255
210 229 255
210 229 255
210 229 255
210 229 255
210 230 255
210 230 255
210 230 255
184 197 207
130 128 91
121 119 78
133 130 87
133 131 87
140 139 94
135 133 90
136 134 90
141 140 95
140 139 94
139 138 93
145 144 98
142 141 96
141 140 94
139 138 94
141 140 95
148 146 98
143 143 97
145 143 96
143 142 96
154 153 103
149 147 99
145 144 97
152 151 102
143 141 96
153 150 100
155 153 102
152 151 101
152 150 100
155 152 102
159 157 105
160 158 104
156 154 103
156 153 102
158 156 105
164 162 108
159 158 106
165 162 107
161 158 105
164 161 106
165 161 106
156 153 103
162 160 107
161 158 104
163 160 106
163 159 104
164 162 108
157 153 101
171 166 110
158 154 102
159 156 103
166 162 108
163 160 105
169 165 109
166 163 108
170 165 109
163 159 106
163 160 106
163 159 105
161 156 103
168 163 108
163 159 103
166 161 105
165 160 104
159 155 101
162 158 103
165 160 104
167 163 107
162 158 103
157 153 99
168 164 106
163 159 103
168 163 104
166 161 104
159 155 101
164 160 103
167 163 104
163 158 101
163 159 102
160 156 97
156 151 97
162 158 102
160 156 99
165 161 103
163 159 101
160 157 101
168 162 102
149 145 94
159 153 97
163 159 99
163 158 101
159 155 99
166 162 105
158 153 98
160 154 97
161 157 99
149 145 90
155 152 93
160 156 103
161 157 99
160 155 99
162 157 97
162 157 99
154 151 97
155 151 96
156 152 93
159 154 97
156 151 95
158 153 96
159 154 97
154 149 95
156 151 94
154 150 93
164 159 99
146 142 83
160 155 97
152 148 93
153 148 91
158 154 96
158 153 92
145 141 82
159 153 97
152 147 90
154 149 94
157 151 97
150 145 87
152 148 93
151 147 92
152 147 88
154 149 95
215 232 255
215 232 255
215 232 255
215 232 255
215 232 255
215 232 255
215 232 255
215 232 255
215 232 255
215 232 255
215 232 255
215 232 255
215 232 255
215 232 255
215 232 255
215 232 255
215 232 255
215 232 255
215 232 255
214 232 255
212 230 255
209 229 255
207 228 255
206 227 255
205 227 255
204 226 255
203 225 255
202 225 255
201 225 255
201 224 255
200 224 255
199 223 255
199 223 255
198 223 255
197 222 255
197 222 255
196 222 255
196 221 255
195 221 255
194 221 255
194 221 255
193 220 255
193 220 255
192 220 255
192 220 255
192 219 255
191 219 255
191 219 255
190 219 255
190 218 255
189 218 255
189 218 255
188 218 255
188 218 255
188 217 255
187 217 255
187 217 255
187 217 255
186 217 255
186 216 255
186 216 255
185 216 255
185 216 255
185 216 255
184 216 255
184 215 255
184 215 255
183 215 255
183 215 255
183 215 255
183 215 255
182 215 255
182 215 255
182 214 255
182 214 255
182 214 255
182 214 255
181 214 255
181 214 255
181 214 255
181 214 255
181 214 255
181 214 255
181 214 255
181 214 255
181 214 255
181 214 255
181 214 255
181 214 255
181 214 255
181 214 255
181 214 255
182 214 255
182 214 255
182 214 255
182 215 255
183 215 255
183 215 255
184 215 255
184 216 255
185 216 255
186 216 255
186 217 255
187 217 255
188 218 255
189 218 255
191 219 255
192 220 255
194 221 255
196 222 255
200 224 255
206 227 255
210 229 255
211 230 255
211 230 255
211 230 255
211 230 255
211 230 255
211 230 255
211 230 255
211 230 255
211 230 255
211 230 255
211 230 255
211 230 255
211 230 255
211 230 255
211 230 255
211 230 255
211 230 255
211 230 255
211 230 255
211 230 255
211 230 255
211 230 255
211 230 255
211 230 255
210 230 255
210 230 255
210 230 255
210 229 255
210 229 255
210 229 255
210 229 255
210 229 255
210 229 255
210 229 255
210 229 255
210 229 255
210 229 255
210 229 255
210 229 255
210 229 255
210 229 255
210 229 255
210 229 255
210 229 255
210 229 255
210 229 255
210 229 255
210 229 255
210 229 255
210 229 255
210 229 255
204 223 252
99 127 188
63 99 175
62 99 170
62 98 166
62 98 163
61 98 165
61 98 163
62 99 168
62 99 168
62 98 163
62 98 162
61 97 157
62 98 166
61 97 155
62 99 167
62 98 168
63 99 171
60 96 160
62 99 164
63 99 167
61 97 159
63 99 171
61 98 164
62 98 166
61 97 155
61 98 167
62 98 159
62 99 166
61 97 158
62 98 163
62 97 157
62 98 162
62 98 157
62 98 160
62 98 159
61 97 160
61 97 159
62 99 162
62 98 160
62 99 163
61 97 158
63 100 170
62 98 163
61 97 155
61 96 162
62 98 162
62 98 166
62 99 169
62 98 169
61 97 160
62 98 162
61 97 167
62 98 168
62 98 162
62 98 162
62 97 163
61 96 162
61 97 163
62 97 162
61 96 163
61 97 157
62 98 168
62 98 169
61 96 163
61 97 166
61 97 163
62 97 167
62 98 173
61 96 166
115 139 188
205 224 252
210 229 255
210 229 255
210 229 255
210 229 255
210 229 255
210 229 255
210 229 255
210 229 255
210 229 255
210 229 255
210 229 255
210 229 255
210 229 255
210 229 255
210 229 255
210 229 255
210 229 255
210 229 255
210 229 255
210 229 255
210 229 255
210 229 255
210 229 255
210 229 255
210 230 255
210 230 255
210 230 255
211 230 255
211 230 255
211 230 255
211 230 255
211 230 255
211 230 255
171 182 189
123 121 83
131 129 87
136 134 90
136 134 90
125 123 82
144 142 96
138 137 94
146 144 97
144 142 96
134 133 91
143 142 96
146 145 99
139 139 95
146 145 99
141 140 95
146 145 97
155 152 101
147 145 98
150 149 100
153 151 102
146 145 98
153 151 102
156 154 103
156 153 103
155 153 102
151 149 99
147 146 98
151 149 100
154 152 102
159 157 106
155 153 103
158 156 105
159 156 104
162 159 106
159 155 103
154 152 102
161 159 106
168 165 110
165 161 106
161 158 105
169 165 109
159 156 104
159 157 104
160 156 102
163 159 105
167 163 108
157 154 101
163 160 105
163 159 105
169 165 108
163 160 105
162 159 105
162 158 104
159 157 104
163 159 103
161 157 102
164 159 104
163 159 104
167 162 106
164 160 103
166 162 106
166 162 104
159 155 101
168 165 108
168 164 106
164 160 104
169 164 108
167 163 108
164 160 103
165 161 106
158 155 101
165 160 105
171 167 109
159 156 100
168 163 104
167 163 106
168 163 106
168 163 104
163 158 99
162 157 100
165 160 101
163 158 102
165 160 103
163 158 99
161 156 99
158 153 97
168 162 105
161 157 102
166 161 101
165 161 104
160 156 100
162 157 99
161 157 100
158 154 97
162 157 101
158 154 99
162 158 97
165 161 103
161 156 100
156 152 98
154 149 95
159 154 95
167 163 103
154 149 92
161 157 100
155 150 93
163 158 99
162 156 97
167 161 100
154 149 90
159 155 95
157 152 94
154 149 88
162 158 99
160 157 98
164 159 102
161 156 95
156 151 95
162 156 98
155 149 93
148 143 88
159 154 98
162 157 99
155 150 90
152 146 90
160 155 97
145 141 90
151 147 91
154 149 93
156 151 94
215 232 255
215 232 255
215 232 255
215 232 255
215 232 255
215 232 255
215 232 255
215 232 255
215 232 255
215 232 255
215 232 255
215 232 255
215 232 255
215 232 255
215 232 255
215 232 255
215 232 255
215 232 255
213 231 255
210 229 255
208 228 255
207 228 255
206 227 255
205 226 255
204 226 255
203 225 255
202 225 255
201 225 255
201 224 255
200 224 255
199 223 255
199 223 255
198 223 255
197 222 255
197 222 255
196 222 255
196 222 255
195 221 255
195 221 255
194 221 255
194 220 255
193 220 255
193 220 255
192 220 255
192 219 255
191 219 255
191 219 255
190 219 255
190 219 255
190 218 255
189 218 255
189 218 255
188 218 255
188 218 255
188 217 255
187 217 255
187 217 255
187 217 255
186 217 255
186 216 255
186 216 255
185 216 255
185 216 255
185 216 255
184 216 255
184 215 255
184 215 255
183 215 255
183 215 255
183 215 255
183 215 255
183 215 255
182 215 255
182 214 255
182 214 255
182 214 255
181 214 255
181 214 255
181 214 255
181 214 255
181 214 255
181 214 255
181 214 255
181 214 255
181 214 255
181 214 255
181 214 255
181 214 255
181 214 255
181 214 255
181 214 255
181 214 255
181 214 255
181 214 255
181 214 255
182 214 255
182 214 255
182 215 255
183 215 255
183 215 255
184 215 255
184 216 255
185 216 255
186 216 255
187 217 255
187 217 255
189 218 255
190 218 255
191 219 255
193 220 255
195 221 255
197 222 255
201 224 255
207 228 255
211 230 255
212 230 255
212 230 255
212 230 255
211 230 255
211 230 255
211 230 255
211 230 255
211 230 255
211 230 255
211 230 255
211 230 255
211 230 255
211 230 255
211 230 255
211 230 255
211 230 255
211 230 255
211 230 255
211 230 255
211 230 255
211 230 255
211 230 255
211 230 255
211 230 255
211 230 255
211 230 255
211 230 255
211 230 255
211 230 255
211 230 255
210 230 255
210 230 255
210 229 255
210 229 255
210 229 255
210 229 255
210 229 255
210 229 255
210 229 255
210 229 255
210 229 255
210 229 255
210 229 255
210 229 255
210 229 255
210 229 255
210 229 255
210 229 255
197 217 247
100 128 189
63 99 177
63 99 171
62 98 165
63 99 170
62 98 167
61 97 158
62 99 168
61 98 162
63 99 169
62 98 162
62 99 168
63 99 171
62 99 163
61 98 163
62 99 171
63 99 170
62 98 163
63 99 167
62 99 167
61 97 157
63 99 168
62 98 162
61 98 166
62 98 161
62 98 159
63 99 166
62 98 163
62 98 163
62 98 163
62 98 162
62 99 166
62 98 161
61 97 158
61 97 156
63 99 163
62 98 166
62 98 161
62 98 160
62 98 164
62 98 163
62 98 161
61 98 162
62 98 161
63 99 168
61 97 163
62 98 164
62 99 166
62 97 161
61 97 162
62 98 165
62 98 165
62 97 161
62 98 165
62 97 161
62 98 165
60 95 156
61 97 164
62 97 159
61 97 164
61 97 165
61 97 158
62 98 168
62 97 167
62 98 168
60 95 161
61 96 164
61 97 165
61 96 163
60 94 160
62 97 167
108 134 188
194 214 245
210 229 255
210 229 255
210 229 255
210 229 255
210 229 255
210 229 255
210 229 255
210 229 255
210 229 255
210 229 255
210 229 255
210 229 255
210 229 255
210 229 255
210 229 255
210 229 255
210 230 255
210 230 255
210 230 255
211 230 255
211 230 255
211 230 255
211 230 255
211 230 255
211 230 255
211 230 255
211 230 255
211 230 255
211 230 255
211 230 255
210 229 254
168 178 183
133 130 86
129 126 83
139 135 89
133 131 88
132 131 90
129 127 86
132 131 89
142 141 95
141 140 94
145 144 97
135 134 93
150 149 101
135 134 90
141 140 95
144 143 97
158 156 105
136 135 93
144 143 97
147 145 98
150 148 100
154 152 102
148 147 99
162 159 106
151 150 101
159 157 105
158 157 106
157 155 104
162 160 107
154 152 103
150 148 99
160 157 103
156 154 102
154 151 101
159 156 103
161 157 104
163 160 106
161 158 104
157 154 103
164 161 107
163 160 107
162 160 107
158 155 102
167 163 108
160 156 103
161 157 104
155 152 100
164 161 106
159 155 102
165 162 106
159 155 100
170 166 109
163 159 103
169 164 108
164 160 105
164 160 104
167 163 107
163 160 105
162 158 103
161 158 103
165 162 105
166 163 106
171 166 108
171 167 109
169 164 106
167 163 105
164 160 105
164 161 104
163 160 104
169 165 108
164 159 101
165 160 103
161 156 102
170 166 106
166 161 104
167 162 100
166 162 105
163 159 103
170 165 105
163 158 99
164 160 103
160 158 101
164 159 99
168 163 105
161 157 99
170 164 102
166 161 103
165 160 104
162 158 101
161 156 100
164 160 102
163 159 99
163 158 99
162 157 101
159 156 100
160 155 101
163 158 102
162 156 99
157 152 96
164 158 100
165 160 101
161 157 99
165 160 97
166 160 101
154 149 91
156 150 94
154 150 95
149 145 92
163 157 97
156 151 90
159 154 98
160 157 99
153 150 95
154 150 93
157 153 96
154 150 95
153 149 90
155 152 95
152 146 90
158 153 97
155 150 89
154 149 87
160 154 93
159 153 91
159 154 99
160 155 97
154 150 90
150 146 89
148 144 90
152 147 92
148 143 85
154 149 93
215 232 255
215 232 255
215 232 255
215 232 255
215 232 255
215 232 255
215 232 255
215 232 255
215 232 255
215 232 255
215 232 255
215 232 255
215 232 255
215 232 255
215 232 255
215 232 255
214 232 255
211 230 255
209 229 255
208 228 255
207 227 255
205 227 255
205 226 255
204 226 255
203 225 255
202 225 255
201 225 255
201 224 255
200 224 255
199 224 255
199 223 255
198 223 255
198 223 255
197 222 255
197 222 255
196 222 255
196 221 255
195 221 255
195 221 255
194 221 255
194 220 255
193 220 255
193 220 255
192 220 255
192 219 255
191 219 255
191 219 255
191 219 255
190 219 255
190 218 255
189 218 255
189 218 255
189 218 255
188 218 255
188 217 255
187 217 255
187 217 255
187 217 255
186 217 255
186 217 255
186 216 255
185 216 255
185 216 255
185 216 255
184 216 255
184 216 255
184 215 255
184 215 255
183 215 255
183 215 255
183 215 255
183 215 255
182 215 255
182 215 255
182 214 255
182 214 255
182 214 255
181 214 255
181 214 255
181 214 255
181 214 255
181 214 255
181 214 255
181 214 255
181 214 255
181 214 255
181 214 255
181 214 255
181 214 255
181 214 255
181 214 255
181 214 255
181 214 255
181 214 255
181 214 255
181 214 255
182 214 255
182 214 255
182 215 255
183 215 255
183 215 255
183 215 255
184 216 255
185 216 255
185 216 255
186 217 255
187 217 255
188 217 255
189 218 255
190 219 255
192 220 255
194 220 255
196 222 255
199 223 255
202 225 255
209 229 255
212 230 255
212 230 255
212 230 255
212 230 255
212 230 255
212 230 255
212 230 255
212 230 255
211 230 255
211 230 255
211 230 255
211 230 255
211 230 255
211 230 255
211 230 255
211 230 255
211 230 255
211 230 255
211 230 255
211 230 255
211 230 255
211 230 255
211 230 255
211 230 255
211 230 255
211 230 255
211 230 255
211 230 255
211 230 255
211 230 255
211 230 255
211 230 255
211 230 255
211 230 255
211 230 255
211 230 255
210 230 255
210 230 255
210 230 255
210 230 255
210 229 255
210 229 255
210 229 255
210 229 255
210 229 255
210 229 255
200 220 249
119 144 194
62 98 161
62 98 167
62 98 161
62 99 170
63 99 172
61 98 161
62 99 171
62 99 164
62 98 160
62 98 162
62 98 159
63 99 168
62 98 163
62 98 160
63 99 168
62 98 160
62 98 160
62 98 165
62 98 160
63 99 165
61 97 156
63 99 168
61 98 160
61 97 162
61 98 164
63 99 167
62 98 164
62 98 167
61 97 159
62 98 158
62 98 161
61 97 158
63 99 165
62 98 165
62 98 164
61 97 160
62 98 160
62 98 165
62 98 160
61 97 159
62 98 157
61 97 159
63 99 163
62 98 159
62 98 169
62 98 162
62 98 166
62 98 159
61 97 159
62 97 159
61 97 163
62 98 163
62 98 170
62 98 164
63 99 166
62 98 165
61 97 162
62 98 165
59 95 150
61 97 161
61 95 155
61 97 164
61 97 164
61 96 159
63 99 168
62 97 162
60 95 155
60 96 163
59 94 156
61 96 160
60 95 160
60 93 154
112 137 188
204 224 251
210 229 255
210 229 255
210 229 255
210 229 255
210 229 255
210 229 255
210 230 255
210 230 255
210 230 255
210 230 255
211 230 255
211 230 255
211 230 255
211 230 255
211 230 255
211 230 255
211 230 255
211 230 255
211 230 255
211 230 255
211 230 255
211 230 255
211 230 255
211 230 255
211 230 255
211 230 255
211 230 255
211 230 255
210 229 254
178 188 192
127 124 82
130 127 84
133 132 88
135 133 89
136 135 92
132 131 88
137 136 92
135 134 92
136 135 92
147 145 99
141 141 97
145 143 97
143 142 96
146 145 98
145 143 96
144 144 97
143 142 96
148 147 99
152 150 101
150 149 101
153 152 102
159 157 105
149 146 97
151 150 101
152 151 102
152 151 102
159 157 105
156 154 103
153 151 101
156 154 101
160 157 104
157 155 104
152 151 101
160 158 105
160 156 104
156 154 102
164 161 106
154 151 100
165 163 108
161 158 104
155 153 103
162 159 106
162 159 104
167 162 106
162 158 104
162 160 106
168 165 109
162 158 104
172 168 110
169 165 109
162 159 105
165 161 105
166 162 108
163 159 105
170 166 108
170 165 108
163 159 103
167 164 108
168 164 107
167 163 108
161 156 100
165 161 106
170 165 106
166 162 106
163 159 103
170 165 106
171 166 109
161 156 100
162 158 103
167 162 106
162 158 101
168 163 106
172 168 108
165 162 103
163 158 101
166 161 102
168 164 102
166 162 104
168 163 107
167 162 101
163 159 103
169 163 104
165 159 103
167 163 105
162 158 101
158 154 98
165 160 103
164 159 100
167 162 101
171 165 105
159 155 99
162 157 101
166 161 101
167 161 103
166 161 103
163 159 99
159 155 98
156 151 96
159 153 96
166 161 101
160 155 97
163 158 97
155 149 95
161 156 95
167 161 101
153 148 93
159 153 93
166 160 101
158 153 95
153 149 94
159 155 98
163 158 97
166 161 100
162 157 96
151 146 94
157 151 92
155 150 91
156 151 92
164 159 97
159 154 97
150 145 91
146 141 86
161 157 99
152 148 93
159 153 95
155 150 93
156 151 94
156 151 93
152 148 90
153 148 91
156 151 92
157 151 93
216 232 255
216 232 255
216 232 255
215 232 255
215 232 255
215 232 255
215 232 255
215 232 255
215 232 255
215 232 255
215 232 255
215 232 255
215 232 255
215 232 255
215 232 255
213 231 255
210 230 255
209 229 255
207 228 255
206 227 255
205 227 255
205 226 255
204 226 255
203 225 255
202 225 255
202 225 255
201 224 255
200 224 255
200 224 255
199 223 255
199 223 255
198 223 255
197 222 255
197 222 255
196 222 255
196 222 255
195 221 255
195 221 255
194 221 255
194 221 255
194 220 255
193 220 255
193 220 255
192 220 255
192 220 255
191 219 255
191 219 255
191 219 255
190 219 255
190 218 255
189 218 255
189 218 255
189 218 255
188 218 255
188 218 255
188 217 255
187 217 255
187 217 255
187 217 255
186 217 255
186 216 255
186 216 255
185 216 255
185 216 255
185 216 255
184 216 255
184 216 255
184 215 255
184 215 255
183 215 255
183 215 255
183 215 255
183 215 255
182 215 255
182 215 255
182 214 255
182 214 255
182 214 255
181 214 255
181 214 255
181 214 255
181 214 255
181 214 255
181 214 255
181 214 255
181 214 255
181 214 255
181 214 255
181 214 255
181 214 255
181 214 255
181 214 255
181 214 255
181 214 255
181 214 255
181 214 255
181 214 255
182 214 255
182 214 255
182 215 255
182 215 255
183 215 255
183 215 255
184 215 255
184 216 255
185 216 255
186 216 255
187 217 255
188 217 255
189 218 255
190 218 255
191 219 255
193 220 255
195 221 255
197 222 255
200 224 255
205 227 255
211 230 255
212 230 255
212 230 255
212 230 255
212 230 255
212 230 255
212 230 255
212 230 255
212 230 255
212 230 255
212 230 255
212 230 255
212 230 255
212 230 255
211 230 255
211 230 255
211 230 255
211 230 255
211 230 255
211 230 255
211 230 255
211 230 255
211 230 255
211 230 255
211 230 255
211 230 255
211 230 255
211 230 255
211 230 255
211 230 255
211 230 255
211 230 255
211 230 255
211 230 255
211 230 255
211 230 255
211 230 255
211 230 255
211 230 255
211 230 255
211 230 255
211 230 255
211 230 255
211 230 255
206 225 252
114 139 191
62 98 168
62 98 161
62 98 166
62 98 163
63 99 170
62 98 165
62 98 164
61 98 166
62 98 166
61 97 161
62 98 162
62 98 165
62 98 160
62 98 164
62 98 158
62 98 163
63 99 164
62 98 162
62 98 162
61 97 156
62 99 166
62 98 158
62 98 165
62 98 161
62 99 166
61 97 164
62 98 163
62 98 160
62 99 163
62 98 159
61 97 160
63 99 168
62 98 163
62 98 163
62 99 165
61 97 154
62 98 167
61 97 155
61 97 160
63 98 163
61 97 157
61 97 155
62 98 159
62 98 159
62 97 156
62 98 160
61 96 158
61 97 154
62 97 163
61 97 162
62 98 162
62 97 159
61 97 159
61 97 159
60 95 156
62 98 160
62 97 160
61 96 159
61 96 158
62 98 166
61 97 168
61 96 156
61 97 161
62 97 158
60 95 154
61 95 158
60 95 160
61 97 159
62 98 165
59 94 160
60 95 160
61 96 162
61 96 164
61 96 167
117 140 187
207 226 252
211 230 255
211 230 255
211 230 255
211 230 255
211 230 255
211 230 255
211 230 255
211 230 255
211 230 255
211 230 255
211 230 255
211 230 255
211 230 255
211 230 255
211 230 255
211 230 255
211 230 255
211 230 255
211 230 255
211 230 255
211 230 255
211 230 255
211 230 255
211 230 255
211 230 255
211 230 255
211 230 255
175 185 187
123 121 80
110 108 71
134 132 86
138 136 90
133 132 89
121 122 84
129 128 88
134 133 91
140 141 97
139 138 94
142 140 95
143 141 96
138 138 95
132 132 91
140 140 95
143 141 95
149 148 100
146 145 99
153 152 102
144 143 96
148 146 99
150 149 100
147 145 97
151 149 99
152 151 103
154 152 102
159 156 105
150 149 100
150 148 100
160 158 105
155 152 100
159 156 102
160 157 105
166 163 106
159 157 104
154 153 103
157 154 102
161 159 106
167 163 106
159 157 105
165 162 105
162 159 104
165 162 106
165 162 105
165 161 106
164 161 107
167 164 108
171 166 109
163 158 103
167 162 106
168 165 107
158 155 100
168 164 108
171 167 109
166 162 106
169 164 106
170 166 108
169 164 106
162 159 103
168 163 106
166 163 106
169 165 106
168 164 106
170 164 106
165 161 102
169 164 104
167 163 106
169 165 106
160 156 101
170 165 104
165 160 102
167 162 104
162 158 101
168 163 104
169 164 106
165 160 100
164 160 103
163 158 101
166 161 103
167 163 105
165 160 99
165 160 104
161 157 99
166 160 100
161 156 99
165 159 99
166 162 104
165 161 100
163 159 98
165 160 100
158 154 98
162 158 101
163 159 98
160 156 97
165 160 102
164 159 101
162 158 103
160 156 95
153 149 95
161 157 100
157 153 94
161 156 99
167 162 103
161 156 98
160 156 97
159 155 97
161 156 95
158 154 97
157 151 95
156 151 96
157 153 93
164 158 97
160 155 95
152 147 88
154 149 94
159 153 95
158 155 98
157 152 95
159 154 97
152 147 90
154 149 93
169 163 103
156 151 94
159 156 95
154 149 90
151 146 92
149 144 88
156 152 95
155 151 94
160 155 95
159 154 96
154 150 93
150 144 90
216 232 255
216 232 255
216 232 255
216 232 255
216 232 255
216 232 255
216 232 255
216 232 255
216 232 255
216 232 255
215 232 255
215 232 255
215 232 255
215 232 255
212 230 255
210 229 255
208 228 255
207 228 255
206 227 255
205 227 255
205 226 255
204 226 255
203 226 255
202 225 255
202 225 255
201 224 255
201 224 255
200 224 255
199 224 255
199 223 255
198 223 255
198 223 255
197 222 255
197 222 255
196 222 255
196 222 255
195 221 255
195 221 255
195 221 255
194 221 255
194 220 255
193 220 255
193 220 255
192 220 255
192 220 255
192 219 255
191 219 255
191 219 255
190 219 255
190 219 255
190 218 255
189 218 255
189 218 255
189 218 255
188 218 255
188 218 255
188 217 255
187 217 255
187 217 255
187 217 255
186 217 255
186 217 255
186 216 255
185 216 255
185 216 255
185 216 255
185 216 255
184 216 255
184 215 255
184 215 255
184 215 255
183 215 255
183 215 255
183 215 255
183 215 255
182 215 255
182 215 255
182 214 255
182 214 255
182 214 255
182 214 255
181 214 255
181 214 255
181 214 255
181 214 255
181 214 255
181 214 255
181 214 255
181 214 255
181 214 255
181 214 255
181 214 255
181 214 255
181 214 255
181 214 255
181 214 255
181 214 255
181 214 255
182 214 255
182 214 255
182 215 255
183 215 255
183 215 255
183 215 255
184 215 255
184 216 255
185 216 255
186 216 255
186 217 255
187 217 255
188 218 255
190 218 255
191 219 255
192 220 255
194 221 255
196 222 255
199 223 255
203 226 255
209 229 255
212 230 255
212 230 255
212 230 255
212 230 255
212 230 255
212 230 255
212 230 255
212 230 255
212 230 255
212 230 255
212 230 255
212 230 255
212 230 255
212 230 255
212 230 255
212 230 255
212 230 255
212 230 255
212 230 255
212 230 255
211 230 255
211 230 255
211 230 255
211 230 255
211 230 255
211 230 255
211 230 255
211 230 255
211 230 255
211 230 255
211 230 255
211 230 255
211 230 255
211 230 255
211 230 255
211 230 255
211 230 255
211 230 255
211 230 255
211 230 255
211 230 255
208 227 253
126 150 201
62 99 170
62 98 163
62 98 166
62 98 166
63 99 169
62 99 171
62 99 166
61 97 163
63 99 169
62 98 156
62 98 161
63 99 166
61 97 158
61 97 157
62 98 161
61 97 156
62 98 162
62 98 163
62 99 166
61 97 160
62 97 156
62 99 167
63 99 167
62 98 160
62 98 164
62 98 162
63 99 165
62 98 156
61 97 161
62 98 162
62 98 161
62 97 154
62 98 160
63 99 163
61 97 157
61 97 160
62 99 165
61 97 162
61 98 160
61 97 158
61 97 155
61 97 159
62 98 161
61 96 150
62 98 164
61 97 159
62 98 162
61 97 164
62 97 163
61 97 155
61 97 160
61 97 164
61 97 158
62 98 161
63 99 160
62 98 159
61 96 151
61 96 151
62 97 164
62 98 164
61 97 152
61 96 159
62 97 161
61 96 159
61 97 160
61 97 165
61 96 161
62 98 169
61 96 156
61 96 160
61 96 161
60 94 151
60 94 154
58 91 147
59 92 154
60 95 161
115 137 183
208 227 253
211 230 255
211 230 255
211 230 255
211 230 255
211 230 255
211 230 255
211 230 255
211 230 255
211 230 255
211 230 255
211 230 255
211 230 255
211 230 255
211 230 255
211 230 255
211 230 255
211 230 255
211 230 255
211 230 255
211 230 255
211 230 255
212 230 255
212 230 255
212 230 255
212 230 255
182 192 200
118 115 75
130 127 85
130 127 86
127 124 83
123 122 84
140 139 95
140 139 94
135 133 90
132 131 90
134 134 92
131 132 91
141 140 95
138 138 93
138 138 95
142 141 95
144 143 97
146 145 98
137 135 91
150 149 101
149 148 99
145 143 97
149 148 100
151 149 99
148 146 99
159 157 104
150 149 99
154 152 103
158 156 104
152 151 101
157 155 103
160 157 104
148 146 99
153 151 101
155 153 103
161 158 104
154 153 103
168 166 110
166 162 107
161 157 104
167 162 105
158 155 102
164 161 105
164 162 106
167 162 105
158 155 100
160 157 102
166 163 108
163 160 106
168 165 106
165 162 107
167 163 105
168 164 108
165 162 106
164 160 105
165 162 105
168 163 106
169 165 107
167 164 105
167 162 104
165 162 105
168 164 104
165 161 104
169 165 107
166 162 102
170 165 106
170 166 108
165 160 104
164 160 104
171 165 108
168 163 106
163 159 101
172 166 106
167 163 104
164 160 104
166 161 101
166 161 103
161 156 97
170 165 104
167 162 103
170 164 101
163 158 99
170 165 108
168 164 103
173 167 106
171 166 104
169 163 101
161 157 98
167 162 100
165 161 99
161 157 98
163 158 100
164 159 99
157 152 94
156 152 93
158 154 96
161 156 99
166 160 101
165 159 97
168 163 101
163 158 101
162 157 99
159 154 96
160 156 97
162 157 99
166 161 101
162 157 101
156 151 93
158 154 96
166 160 101
152 148 93
163 158 99
162 158 96
161 155 96
163 159 98
157 152 95
163 158 95
163 157 97
159 153 93
155 150 91
157 152 93
159 154 97
158 154 98
160 155 94
154 149 91
151 146 87
165 159 96
142 137 84
163 158 96
159 154 92
143 139 84
151 146 90
148 144 85
151 147 91
150 145 88
216 233 255
216 233 255
216 233 255
216 232 255
216 232 255
216 232 255
216 232 255
216 232 255
216 232 255
216 232 255
216 232 255
216 232 255
214 231 255
211 230 255
210 229 255
208 228 255
207 228 255
206 227 255
206 227 255
205 226 255
204 226 255
203 226 255
203 225 255
202 225 255
202 225 255
201 224 255
200 224 255
200 224 255
199 223 255
199 223 255
198 223 255
198 223 255
197 222 255
197 222 255
196 222 255
196 222 255
196 221 255
195 221 255
195 221 255
194 221 255
194 221 255
193 220 255
193 220 255
193 220 255
192 220 255
192 220 255
192 219 255
191 219 255
191 219 255
190 219 255
190 219 255
190 218 255
189 218 255
189 218 255
189 218 255
188 218 255
188 218 255
188 217 255
187 217 255
187 217 255
187 217 255
186 217 255
186 217 255
186 216 255
186 216 255
185 216 255
185 216 255
185 216 255
184 216 255
184 216 255
184 215 255
184 215 255
184 215 255
183 215 255
183 215 255
183 215 255
183 215 255
182 215 255
182 215 255
182 215 255
182 214 255
182 214 255
182 214 255
182 214 255
181 214 255
181 214 255
181 214 255
181 214 255
181 214 255
181 214 255
181 214 255
181 214 255
181 214 255
181 214 255
181 214 255
181 214 255
181 214 255
182 214 255
182 214 255
182 214 255
182 215 255
182 215 255
183 215 255
183 215 255
184 215 255
184 215 255
185 216 255
185 216 255
186 216 255
187 217 255
187 217 255
188 218 255
189 218 255
191 219 255
192 220 255
194 220 255
196 222 255
198 223 255
201 224 255
207 228 255
212 230 255
212 231 255
212 231 255
212 231 255
212 231 255
212 231 255
212 231 255
212 230 255
212 230 255
212 230 255
212 230 255
212 230 255
212 230 255
212 230 255
212 230 255
212 230 255
212 230 255
212 230 255
212 230 255
212 230 255
212 230 255
212 230 255
212 230 255
212 230 255
212 230 255
212 230 255
212 230 255
211 230 255
211 230 255
211 230 255
211 230 255
211 230 255
211 230 255
211 230 255
211 230 255
211 230 255
211 230 255
211 230 255
211 230 255
211 230 255
128 152 200
62 99 169
62 98 166
62 98 164
62 98 163
61 98 161
62 99 167
62 99 166
62 98 161
62 98 162
61 98 166
61 97 155
63 99 165
63 99 159
61 97 154
62 98 158
62 98 164
62 98 161
63 99 167
62 98 161
62 98 154
62 98 160
61 97 160
61 98 163
61 97 154
61 97 153
61 98 162
62 98 166
62 99 164
62 98 162
62 98 161
62 98 159
63 99 166
61 97 153
62 98 159
61 96 151
63 98 160
63 98 163
61 98 163
62 98 164
62 98 163
61 97 150
62 98 160
63 99 166
61 97 156
62 98 164
62 99 163
62 98 158
61 96 146
62 97 158
62 98 161
61 96 145
61 97 168
61 97 155
61 96 157
61 96 157
62 97 158
62 98 160
61 96 157
61 97 161
62 97 161
62 98 165
62 98 165
62 98 165
61 97 156
62 97 160
62 97 164
61 95 160
62 98 166
61 97 158
61 96 161
62 96 160
61 97 161
60 94 156
59 94 152
61 96 160
59 94 159
61 95 162
59 93 156
134 156 202
211 230 255
211 230 255
211 230 255
211 230 255
211 230 255
211 230 255
211 230 255
211 230 255
211 230 255
211 230 255
211 230 255
211 230 255
212 230 255
212 230 255
212 230 255
212 230 255
212 230 255
212 230 255
212 230 255
212 230 255
212 230 255
212 230 255
212 230 255
212 230 255
171 180 179
136 132 87
133 130 86
128 126 85
134 132 88
132 131 88
131 128 86
130 129 88
130 130 88
136 135 91
144 143 98
134 133 91
130 130 89
143 142 97
144 143 97
147 146 99
135 135 92
147 145 97
150 149 102
143 142 96
147 146 100
150 149 100
153 151 102
151 150 101
148 146 98
156 153 103
146 145 98
148 147 96
154 152 101
151 149 100
160 158 106
156 154 103
162 159 105
163 159 106
156 153 102
157 154 101
156 154 102
167 163 106
160 158 105
161 157 105
163 159 104
163 159 104
165 161 105
165 161 107
165 161 106
160 158 104
164 161 106
167 163 105
169 164 108
158 155 100
169 164 105
167 164 107
166 162 106
167 163 106
161 158 103
163 159 103
169 165 107
168 162 105
165 161 103
166 162 104
165 160 103
169 165 104
170 166 108
169 164 105
168 164 106
168 164 106
167 162 103
168 163 104
176 170 110
172 168 110
164 159 104
170 165 108
166 162 104
164 159 99
168 163 102
164 161 103
170 164 104
167 161 99
164 159 99
164 161 99
162 158 99
157 154 96
167 162 101
167 163 104
168 163 103
163 158 99
162 157 100
164 159 102
163 158 101
171 166 104
161 156 96
162 157 101
169 163 104
165 161 97
169 163 102
164 160 100
162 156 97
157 153 95
170 164 103
167 162 99
166 161 99
159 155 98
164 160 98
160 156 97
159 155 96
160 155 93
165 159 97
159 155 96
161 155 96
169 163 103
162 156 97
166 160 99
159 154 96
161 156 97
161 155 95
163 158 97
159 154 94
161 155 95
162 157 97
159 153 92
161 157 94
156 151 94
165 160 98
154 149 93
156 151 94
154 149 91
155 149 93
155 150 93
157 152 93
158 152 93
155 150 93
146 142 89
145 141 85
163 158 98
148 144 85
157 152 90
216 233 255
216 233 255
216 233 255
216 233 255
216 233 255
216 233 255
216 233 255
216 233 255
216 233 255
216 233 255
216 232 255
213 231 255
211 230 255
210 229 255
209 228 255
207 228 255
207 227 255
206 227 255
205 227 255
204 226 255
204 226 255
203 226 255
203 225 255
202 225 255
201 225 255
201 224 255
200 224 255
200 224 255
199 224 255
199 223 255
198 223 255
198 223 255
197 223 255
197 222 255
197 222 255
196 222 255
196 222 255
195 221 255
195 221 255
195 221 255
194 221 255
194 221 255
193 220 255
193 220 255
193 220 255
192 220 255
192 220 255
192 219 255
191 219 255
191 219 255
190 219 255
190 219 255
190 218 255
189 218 255
189 218 255
189 218 255
188 218 255
188 218 255
188 217 255
188 217 255
187 217 255
187 217 255
187 217 255
186 217 255
186 217 255
186 216 255
186 216 255
185 216 255
185 216 255
185 216 255
185 216 255
184 216 255
184 216 255
184 215 255
184 215 255
183 215 255
183 215 255
183 215 255
183 215 255
183 215 255
183 215 255
182 215 255
182 215 255
182 214 255
182 214 255
182 214 255
182 214 255
182 214 255
182 214 255
182 214 255
182 214 255
181 214 255
182 214 255
182 214 255
182 214 255
182 214 255
182 214 255
182 214 255
182 214 255
182 215 255
182 215 255
183 215 255
183 215 255
183 215 255
183 215 255
184 215 255
184 216 255
185 216 255
185 216 255
186 216 255
187 217 255
187 217 255
188 218 255
189 218 255
191 219 255
192 220 255
194 220 255
195 221 255
197 222 255
201 224 255
205 227 255
211 230 255
213 231 255
213 231 255
213 231 255
212 231 255
212 231 255
212 231 255
212 231 255
212 231 255
212 231 255
212 231 255
212 231 255
212 231 255
212 230 255
212 230 255
212 230 255
212 230 255
212 230 255
212 230 255
212 230 255
212 230 255
212 230 255
212 230 255
212 230 255
212 230 255
212 230 255
212 230 255
212 230 255
212 230 255
212 230 255
212 230 255
212 230 255
212 230 255
212 230 255
212 230 255
212 230 255
211 230 255
211 230 255
177 197 230
62 98 163
62 98 162
62 98 162
61 97 161
62 98 165
62 98 164
61 97 162
61 97 155
63 99 162
62 98 165
62 98 164
62 98 166
62 98 161
61 98 163
61 98 161
61 97 156
62 98 164
61 98 163
61 97 154
61 97 160
62 98 160
62 98 158
62 98 160
63 98 158
61 97 157
62 98 161
62 97 160
62 98 161
62 98 163
62 98 161
61 97 157
62 98 162
62 98 162
61 97 156
62 98 160
62 99 166
62 98 161
63 98 164
63 99 162
62 98 162
62 98 163
62 98 162
62 97 160
60 96 149
61 97 151
62 98 161
62 98 159
63 99 163
62 98 162
61 96 158
61 97 161
61 97 159
62 98 160
61 96 156
60 96 156
61 97 156
62 98 168
62 97 156
62 98 160
61 96 158
59 94 144
62 97 162
61 96 155
61 97 161
62 97 161
61 97 159
61 96 151
61 96 162
60 95 152
60 95 146
60 96 156
61 96 161
61 96 156
59 94 152
60 94 161
60 95 153
60 95 158
60 94 157
60 94 160
59 93 151
174 194 227
211 230 255
211 230 255
212 230 255
212 230 255
212 230 255
212 230 255
212 230 255
212 230 255
212 230 255
212 230 255
212 230 255
212 230 255
212 230 255
212 230 255
212 230 255
212 230 255
212 230 255
212 230 255
212 230 255
212 230 255
212 230 255
212 230 255
186 199 211
135 132 86
128 126 83
135 133 90
128 126 83
123 121 82
133 133 91
142 140 94
141 140 95
129 128 87
139 138 94
139 138 95
136 135 92
134 135 93
144 143 97
138 137 93
152 149 100
133 133 90
147 145 96
154 153 103
139 139 94
132 132 91
151 149 101
151 149 100
142 142 96
151 150 102
149 147 98
151 148 99
159 156 104
153 151 101
155 153 102
160 158 106
159 156 102
157 155 103
160 158 105
164 161 103
162 159 105
156 153 101
162 158 104
166 162 105
165 161 105
164 160 104
161 159 105
167 163 108
162 158 103
162 160 105
159 155 100
162 158 103
170 165 108
164 159 103
165 161 104
166 162 106
170 164 100
167 164 108
170 166 106
168 165 107
169 165 107
170 164 105
170 165 107
170 166 107
167 162 100
171 166 108
165 159 103
167 163 107
173 167 106
161 158 99
172 167 107
169 165 106
167 163 104
172 167 109
167 162 103
169 164 104
170 164 104
169 165 107
164 160 102
166 161 104
167 163 101
169 164 103
166 161 103
167 162 104
170 165 106
172 166 106
165 161 101
165 160 101
166 162 105
166 162 104
166 161 101
170 164 103
169 165 107
166 161 99
160 155 94
169 164 106
165 160 99
165 159 97
164 159 101
168 163 104
162 157 98
165 160 100
162 157 100
169 165 103
162 157 98
161 156 101
165 159 99
161 156 96
159 154 96
164 160 101
161 156 97
162 156 97
163 159 99
161 156 101
163 158 95
162 157 97
165 160 101
158 153 90
159 154 96
163 158 97
162 157 98
161 154 91
158 153 93
162 157 97
155 150 93
153 148 91
159 155 95
163 157 96
155 150 92
160 154 96
162 157 97
152 149 88
155 150 90
154 149 88
163 157 97
157 152 92
155 150 88
153 148 91
164 158 101
155 149 90
155 149 90
216 233 255
216 233 255
216 233 255
216 233 255
216 233 255
216 233 255
216 233 255
216 233 255
216 233 255
215 232 255
213 231 255
211 230 255
210 229 255
209 229 255
208 228 255
207 228 255
206 227 255
205 227 255
205 226 255
204 226 255
204 226 255
203 225 255
202 225 255
202 225 255
201 225 255
201 224 255
200 224 255
200 224 255
199 224 255
199 223 255
199 223 255
198 223 255
198 223 255
197 222 255
197 222 255
196 222 255
196 222 255
196 222 255
195 221 255
195 221 255
195 221 255
194 221 255
194 221 255
193 220 255
193 220 255
193 220 255
192 220 255
192 220 255
192 219 255
191 219 255
191 219 255
191 219 255
190 219 255
190 219 255
190 218 255
189 218 255
189 218 255
189 218 255
188 218 255
188 218 255
188 217 255
188 217 255
187 217 255
187 217 255
187 217 255
186 217 255
186 217 255
186 216 255
186 216 255
185 216 255
185 216 255
185 216 255
184 215 254
185 216 254
185 216 255
185 216 254
184 216 255
185 216 255
184 216 255
184 215 254
184 215 254
184 215 254
183 215 255
183 215 255
184 215 255
182 215 255
182 215 255
182 215 255
182 215 255
182 214 255
182 214 255
182 214 255
182 214 255
182 214 255
182 214 255
182 214 255
182 214 255
182 215 255
182 215 255
182 215 255
183 215 255
183 215 255
183 215 255
183 215 255
184 215 255
184 215 255
184 216 255
185 216 255
185 216 255
186 216 255
186 217 255
187 217 255
188 217 255
189 218 255
190 218 255
191 219 255
192 220 255
193 220 255
195 221 255
197 222 255
200 224 255
204 226 255
211 230 255
213 231 255
213 231 255
213 231 255
213 231 255
213 231 255
213 231 255
213 231 255
213 231 255
213 231 255
213 231 255
212 231 255
212 231 255
212 231 255
212 231 255
212 231 255
212 231 255
212 231 255
212 231 255
212 231 255
212 231 255
212 230 255
212 230 255
212 230 255
212 230 255
212 230 255
212 230 255
212 230 255
212 230 255
212 230 255
212 230 255
212 230 255
212 230 255
212 230 255
212 230 255
212 230 255
189 208 238
68 102 168
62 98 162
61 97 159
62 98 163
63 99 161
62 98 165
62 98 163
62 98 166
63 99 167
62 98 157
61 97 160
62 98 161
62 98 162
62 98 157
62 98 161
62 98 160
62 98 157
61 97 152
62 99 162
62 98 162
62 98 159
61 97 154
62 98 160
62 98 161
61 97 156
62 97 152
62 97 151
62 98 165
62 98 155
61 98 160
62 98 159
61 97 162
61 97 158
61 96 144
62 97 161
61 97 165
62 98 159
63 98 155
62 98 159
61 97 155
63 99 167
62 98 159
61 97 155
62 98 160
62 98 159
62 98 157
61 97 157
62 97 159
63 98 167
61 96 154
61 96 155
62 98 163
61 96 156
61 96 154
61 97 160
61 98 159
62 97 160
61 97 156
62 98 161
61 97 160
61 97 157
61 96 158
61 97 162
61 96 156
61 97 163
60 95 155
61 96 157
60 94 154
61 97 158
61 95 156
61 95 152
60 95 157
59 93 148
60 94 149
61 96 155
61 96 158
61 96 159
60 95 161
60 94 157
61 96 165
60 94 160
61 93 156
190 209 237
212 230 255
212 230 255
212 230 255
212 230 255
212 230 255
212 230 255
212 230 255
212 230 255
212 230 255
212 230 255
212 230 255
212 230 255
212 230 255
212 230 255
212 230 255
212 230 255
212 231 255
212 231 255
212 231 255
212 231 255
197 212 230
136 136 105
117 115 76
136 133 89
134 131 88
138 136 93
123 123 84
139 139 95
135 134 92
128 128 88
133 133 91
136 136 92
138 138 94
135 135 95
133 132 90
134 134 91
141 141 96
139 138 95
141 141 96
152 151 101
145 144 99
148 147 99
144 143 97
149 146 97
143 143 99
144 143 95
151 149 100
150 148 99
147 145 97
148 146 96
160 157 102
160 157 105
161 159 106
165 161 106
160 158 105
156 154 101
162 159 105
156 153 101
157 154 100
164 160 104
165 161 105
160 156 104
153 151 98
156 153 100
165 160 104
164 162 108
162 160 106
161 158 103
159 156 103
166 163 106
168 164 107
170 166 106
161 157 100
170 165 108
175 169 108
170 166 104
173 168 110
171 167 108
170 166 106
170 165 107
168 164 106
170 166 107
170 166 109
169 164 104
169 165 105
170 165 106
175 169 110
173 166 107
174 168 107
166 162 102
167 163 102
171 165 103
165 161 102
170 165 104
171 167 106
168 164 105
167 162 102
168 162 103
169 165 103
169 164 104
169 164 101
170 165 103
168 164 104
163 159 97
165 161 101
168 163 104
164 160 103
169 163 101
165 160 98
168 163 101
171 166 103
163 158 99
168 162 101
161 156 100
162 157 97
167 162 100
163 157 100
167 161 101
159 155 96
161 156 97
168 162 103
167 161 97
158 154 94
161 157 95
159 155 90
156 152 93
166 160 99
168 162 101
167 162 100
166 162 94
157 153 96
164 159 101
162 157 95
164 159 99
155 150 89
158 153 96
158 153 94
159 154 97
158 153 94
167 162 102
162 157 97
161 156 95
161 156 93
161 156 98
157 151 93
151 147 89
148 144 88
156 151 92
149 144 80
162 156 95
154 149 90
156 151 90
156 150 90
150 145 90
157 152 93
159 153 95
163 156 92
156 152 93
216 233 255
216 233 255
216 233 255
216 233 255
216 233 255
216 233 255
216 233 255
216 233 255
215 232 255
213 231 255
211 230 255
210 229 255
209 229 255
208 228 255
207 228 255
207 227 255
206 227 255
205 227 255
205 226 255
204 226 255
203 226 255
203 225 255
202 225 255
202 225 255
201 225 255
201 224 255
201 224 255
200 224 255
200 224 255
199 223 255
199 223 255
198 223 255
198 223 255
198 223 255
197 222 255
197 222 255
196 222 255
196 222 255
196 222 255
195 221 255
195 221 255
195 221 255
194 221 255
194 221 255
194 220 255
193 220 255
193 220 255
192 220 255
192 220 255
192 220 255
192 219 255
191 219 255
191 219 255
191 219 255
190 219 255
190 219 255
190 218 255
189 218 255
189 218 255
189 218 255
189 218 255
188 218 255
188 217 255
188 217 255
187 217 255
188 217 255
186 216 254
187 217 254
187 217 254
187 217 255
188 217 252
187 217 254
185 216 254
187 217 255
188 217 255
187 217 255
186 216 253
186 216 255
185 216 253
184 215 255
187 217 254
185 216 255
185 216 254
184 215 254
184 215 252
184 216 254
183 215 254
185 216 253
184 215 255
184 215 255
182 214 254
183 215 255
183 215 254
183 215 255
183 215 255
183 215 255
183 215 255
183 215 255
183 215 255
183 215 255
183 215 255
183 215 255
183 215 255
184 215 255
184 215 255
184 216 255
184 216 255
185 216 255
185 216 255
186 216 255
186 217 255
187 217 255
187 217 255
188 218 255
189 218 255
190 219 255
191 219 255
192 220 255
194 221 255
196 221 255
197 222 255
200 224 255
203 226 255
209 229 255
213 231 255
213 231 255
213 231 255
213 231 255
213 231 255
213 231 255
213 231 255
213 231 255
213 231 255
213 231 255
213 231 255
213 231 255
213 231 255
213 231 255
213 231 255
213 231 255
213 231 255
213 231 255
212 231 255
212 231 255
212 231 255
212 231 255
212 231 255
212 231 255
212 231 255
212 231 255
212 231 255
212 231 255
212 231 255
212 230 255
212 230 255
212 230 255
212 230 255
209 228 253
93 122 181
62 99 169
62 98 163
61 97 159
61 97 160
62 98 162
62 99 166
61 98 164
61 97 157
62 98 163
62 98 163
62 98 157
63 99 167
62 99 164
62 98 158
62 98 162
62 98 160
61 96 151
61 97 159
61 97 159
61 97 156
63 99 161
62 98 156
62 98 157
62 97 153
61 97 155
62 98 156
63 98 163
62 97 155
62 97 152
61 97 161
61 97 160
62 97 159
61 97 159
61 97 151
62 98 158
61 97 154
62 98 158
61 97 155
63 99 163
61 97 155
60 96 145
61 97 155
62 97 155
61 97 154
62 97 153
62 98 162
61 97 156
62 97 153
62 97 156
62 98 156
61 97 155
62 98 161
63 99 165
62 97 158
62 98 158
61 97 155
62 98 158
63 99 163
61 97 161
61 97 160
61 97 160
60 96 152
61 97 162
61 97 158
60 95 154
60 95 157
61 96 153
61 96 157
61 96 160
62 97 162
61 97 158
61 97 159
60 95 151
61 95 153
59 94 157
60 93 149
59 92 147
59 93 154
60 94 154
59 93 156
59 93 153
59 93 156
90 117 170
206 225 251
212 230 255
212 230 255
212 230 255
212 230 255
212 231 255
212 231 255
212 231 255
212 231 255
212 231 255
212 231 255
212 231 255
212 231 255
212 231 255
212 231 255
212 231 255
213 231 255
213 231 255
213 231 255
208 225 246
144 147 130
134 132 86
131 128 84
133 131 89
125 124 85
125 125 87
129 128 88
131 130 88
136 136 93
130 129 87
138 137 94
132 131 90
140 140 94
146 145 99
136 136 94
130 130 89
136 135 93
145 144 99
140 139 96
146 145 98
142 141 95
143 141 95
156 155 105
149 148 100
156 154 102
150 149 100
145 144 98
152 150 97
150 147 99
159 156 103
151 149 100
158 154 102
152 151 99
161 158 106
161 159 105
156 153 102
156 153 102
147 145 94
166 163 106
157 154 102
163 160 105
158 155 99
165 162 105
165 162 105
163 159 104
170 166 106
168 165 106
164 160 103
163 159 104
170 165 106
169 165 107
163 159 103
167 163 104
170 166 103
171 166 109
171 167 106
167 163 104
169 164 104
165 160 104
169 165 105
170 166 103
169 165 104
169 164 104
169 163 102
170 165 105
173 168 108
170 165 104
171 166 106
164 160 99
168 163 104
171 166 105
172 166 106
169 165 106
171 165 106
170 165 104
167 162 103
166 162 100
172 167 106
167 162 102
166 161 101
171 166 105
167 162 101
169 163 103
170 164 101
169 164 101
173 167 106
166 161 97
161 157 97
167 162 101
168 162 103
162 157 96
164 159 96
164 159 100
163 158 95
162 157 98
167 162 100
173 167 103
167 161 101
163 158 99
170 164 102
165 159 99
164 159 99
165 159 101
166 161 101
165 160 103
169 165 103
164 159 97
164 159 96
170 164 99
161 157 95
167 161 97
166 160 101
166 160 98
158 153 95
163 158 96
162 157 94
165 159 97
164 159 98
158 155 92
159 155 95
159 153 92
164 159 96
149 144 87
156 151 93
161 157 92
159 154 93
158 152 93
152 147 89
160 155 89
161 156 94
151 146 89
152 147 85
150 146 88
155 150 92
155 151 87
155 150 90
162 157 97
146 142 84
217 233 255
216 233 255
216 233 255
216 233 255
216 233 255
216 233 255
216 233 255
215 232 255
213 231 255
211 230 255
210 229 255
209 229 255
208 228 255
208 228 255
207 228 255
206 227 255
206 227 255
205 227 255
205 226 255
204 226 255
204 226 255
203 225 255
203 225 255
202 225 255
202 225 255
201 224 255
201 224 255
200 224 255
200 224 255
199 224 255
199 223 255
199 223 255
198 223 255
198 223 255
198 223 255
197 222 255
197 222 255
196 222 255
196 222 255
196 222 255
195 221 255
195 221 255
195 221 255
194 221 255
194 221 255
194 221 255
193 220 255
193 220 255
193 220 255
192 220 255
192 220 255
192 219 255
192 219 255
191 219 255
191 219 255
191 219 255
190 219 255
190 219 255
190 218 255
189 218 255
189 218 255
189 218 254
189 218 255
189 218 253
188 218 254
188 218 255
188 217 253
187 217 253
188 217 252
189 218 255
188 218 255
187 217 254
189 218 254
188 217 255
188 217 255
187 217 255
187 217 252
186 216 254
187 217 254
187 217 254
185 216 253
187 216 252
186 216 254
185 216 254
186 216 253
185 216 254
185 216 255
184 216 255
185 216 253
185 216 254
183 215 255
185 216 254
186 216 252
184 215 255
185 216 254
183 215 255
182 214 254
183 215 255
183 215 255
183 215 255
184 215 255
184 215 255
184 215 255
184 215 255
184 216 255
185 216 255
185 216 255
185 216 255
185 216 255
186 216 255
186 217 255
187 217 255
187 217 255
188 218 255
189 218 255
190 218 255
190 219 255
191 219 255
193 220 255
194 221 255
196 221 255
198 223 255
200 224 255
204 226 255
209 229 255
213 231 255
213 231 255
213 231 255
213 231 255
213 231 255
213 231 255
213 231 255
213 231 255
213 231 255
213 231 255
213 231 255
213 231 255
213 231 255
213 231 255
213 231 255
213 231 255
213 231 255
213 231 255
213 231 255
213 231 255
213 231 255
213 231 255
213 231 255
213 231 255
213 231 255
213 231 255
213 231 255
212 231 255
212 231 255
212 231 255
212 231 255
212 231 255
133 156 197
62 98 168
62 98 165
62 98 160
62 98 161
62 98 166
61 97 156
61 97 156
62 98 158
61 97 156
62 99 167
62 98 158
62 98 164
62 97 155
62 98 165
62 98 161
61 97 156
62 98 160
62 98 157
61 97 158
62 98 156
62 97 157
61 97 153
62 99 162
62 98 161
63 99 161
63 98 164
62 98 157
62 98 161
61 97 149
62 98 159
62 98 161
62 98 164
61 97 157
62 97 151
62 97 153
61 96 156
63 99 164
62 98 156
62 97 153
60 96 150
62 98 158
62 98 159
61 97 155
61 97 151
62 98 164
61 97 162
61 97 160
61 96 154
62 98 156
61 97 153
60 95 149
61 96 151
61 96 154
61 96 150
61 97 151
60 96 151
60 96 150
62 98 156
61 97 159
62 97 158
63 98 162
60 96 151
61 96 149
63 98 161
60 95 144
61 96 151
62 97 156
61 97 160
61 96 154
62 97 158
61 96 157
60 95 149
61 96 157
60 95 154
60 96 158
60 95 158
60 95 150
61 96 158
60 94 157
60 95 154
59 93 152
59 93 154
59 92 154
59 91 151
128 149 193
212 231 255
212 231 255
212 231 255
212 231 255
213 231 255
213 231 255
213 231 255
213 231 255
213 231 255
213 231 255
213 231 255
213 231 255
213 231 255
213 231 255
213 231 255
213 231 255
213 231 255
212 230 254
160 163 145
127 124 82
123 122 83
135 132 89
123 123 86
133 133 91
131 130 88
128 128 89
123 124 85
135 135 92
129 129 88
135 136 94
131 131 91
138 137 92
148 146 99
138 138 95
145 145 98
147 146 100
144 143 98
153 151 102
153 151 101
146 144 96
145 144 97
146 144 95
152 150 101
157 154 103
142 141 93
152 150 100
151 150 101
160 157 105
153 151 101
159 156 103
154 151 101
158 156 103
154 152 101
163 160 106
159 155 101
165 162 106
167 163 105
158 155 102
164 162 108
156 152 100
164 161 104
160 156 103
166 162 106
164 160 104
169 164 107
170 166 109
166 161 104
166 163 106
164 161 105
167 163 105
168 164 106
168 163 106
172 168 109
164 160 103
167 163 104
167 163 100
170 165 102
168 163 106
166 161 102
170 165 106
167 163 101
168 163 101
169 164 105
170 164 102
166 161 103
172 167 105
173 169 107
170 164 102
167 163 104
173 168 108
171 165 103
169 165 103
169 163 103
166 162 102
172 167 104
170 165 105
171 166 104
167 163 100
168 162 103
174 169 107
171 165 103
170 163 103
169 164 103
174 168 104
166 161 102
166 161 99
169 164 103
169 164 102
167 162 104
172 167 106
169 163 101
171 166 103
168 163 103
169 163 103
165 160 99
166 161 98
164 159 96
166 160 101
166 160 99
162 158 97
162 158 97
164 158 97
168 163 102
159 154 91
162 158 95
157 152 92
161 157 96
165 159 100
160 155 94
161 156 98
163 157 95
158 154 95
167 162 100
163 156 96
164 158 95
159 153 90
163 158 98
159 154 94
158 153 90
153 149 90
158 152 90
161 156 95
159 153 93
164 158 96
154 149 88
153 148 89
162 156 95
154 149 86
162 157 97
166 161 101
162 158 97
154 149 89
161 155 93
148 144 84
155 150 90
156 151 93
152 147 86
217 233 255
217 233 255
217 233 255
217 233 255
217 233 255
217 233 255
215 232 255
213 231 255
212 230 255
210 229 255
210 229 255
209 229 255
208 228 255
207 228 255
207 228 255
206 227 255
206 227 255
205 227 255
205 226 255
204 226 255
204 226 255
203 226 255
203 225 255
202 225 255
202 225 255
201 225 255
201 224 255
201 224 255
200 224 255
200 224 255
199 224 255
199 223 255
199 223 255
198 223 255
198 223 255
198 223 255
197 222 255
197 222 255
197 222 255
196 222 255
196 222 255
196 222 255
195 221 255
195 221 255
195 221 255
194 221 255
194 221 255
194 221 255
193 220 255
193 220 255
193 220 255
193 220 255
192 220 255
192 220 255
192 219 255
191 219 255
191 219 255
191 219 255
191 219 255
191 219 255
192 219 254
190 218 254
191 219 255
190 218 254
189 218 254
189 218 252
190 219 254
190 219 255
188 217 253
189 218 250
189 218 252
188 218 255
189 218 255
189 218 255
189 218 255
188 217 254
188 217 254
188 218 254
189 218 252
187 216 248
189 218 254
188 217 255
185 215 252
187 216 252
187 217 253
188 217 253
186 216 253
185 216 252
185 215 250
184 215 254
186 216 254
186 216 253
186 217 255
186 216 254
187 217 255
186 217 255
185 216 254
184 215 254
186 216 255
185 216 255
184 216 255
184 216 255
184 216 255
185 216 255
185 216 255
185 216 255
185 216 255
185 216 255
186 216 255
186 217 255
187 217 255
187 217 255
187 217 255
188 218 255
189 218 255
189 218 255
190 219 255
191 219 255
192 220 255
193 220 255
194 221 255
196 222 255
198 223 255
200 224 255
204 226 255
209 229 255
213 231 255
214 231 255
213 231 255
213 231 255
213 231 255
213 231 255
213 231 255
213 231 255
213 231 255
213 231 255
213 231 255
213 231 255
213 231 255
213 231 255
213 231 255
213 231 255
213 231 255
213 231 255
213 231 255
213 231 255
213 231 255
213 231 255
213 231 255
213 231 255
213 231 255
213 231 255
213 231 255
213 231 255
213 231 255
213 231 255
178 197 231
65 100 164
62 98 165
62 98 162
61 97 162
61 97 159
62 98 165
62 98 161
63 99 161
62 98 164
62 98 158
62 98 163
62 98 164
63 99 162
61 97 159
62 98 158
62 98 160
62 98 156
61 97 159
61 97 159
61 97 156
62 97 155
63 99 164
62 98 161
61 97 152
62 98 158
62 97 157
62 98 161
63 99 162
61 97 157
60 96 143
61 97 159
60 95 149
61 98 158
61 97 153
62 97 156
62 98 160
61 96 154
61 97 150
61 97 153
61 96 148
62 98 161
61 96 153
61 97 155
63 98 155
61 96 149
62 98 158
61 97 149
61 97 155
62 97 153
61 96 155
61 96 150
60 96 152
61 96 154
62 98 162
61 96 153
61 97 154
61 97 156
61 97 154
60 95 149
61 97 154
60 95 153
63 99 165
61 96 153
61 96 157
62 97 153
60 95 151
61 97 156
60 95 149
61 95 155
61 96 154
61 97 157
61 96 157
61 97 156
60 95 155
59 94 150
59 92 152
61 96 157
60 95 152
60 93 142
59 92 147
60 94 154
60 94 153
59 93 157
60 93 150
58 91 152
59 92 151
182 200 228
213 231 255
213 231 255
213 231 255
213 231 255
213 231 255
213 231 255
213 231 255
213 231 255
213 231 255
213 231 255
213 231 255
213 231 255
213 231 255
213 231 255
213 231 255
213 231 255
165 174 176
126 123 80
128 126 85
127 126 84
122 122 83
119 118 80
116 116 81
127 126 86
128 129 90
125 125 86
128 128 89
135 134 92
138 138 94
131 132 91
137 136 93
126 125 85
136 136 93
138 138 95
139 139 96
140 140 95
140 139 93
141 140 96
138 138 95
140 139 95
152 151 102
147 145 96
150 149 99
151 149 100
151 150 101
151 149 101
161 158 104
150 149 100
158 156 104
160 156 102
159 156 103
162 159 104
163 160 106
163 160 104
160 157 101
163 159 103
162 158 103
164 162 106
158 155 101
165 161 105
160 157 102
160 157 103
165 160 103
164 159 101
169 164 106
170 164 104
164 160 104
169 165 105
164 161 101
166 161 103
167 163 104
167 162 102
171 166 107
169 165 106
172 167 107
165 160 103
176 170 109
171 166 104
172 167 106
165 160 101
166 160 99
169 164 103
174 169 107
170 165 100
172 167 102
172 167 107
170 165 101
172 167 106
167 162 99
167 163 105
164 158 99
172 166 103
168 164 101
167 163 103
174 168 105
170 164 102
170 166 103
171 165 102
165 161 101
169 164 101
166 161 97
165 160 97
166 162 99
168 163 101
165 160 99
171 166 101
168 163 101
172 167 106
164 159 99
170 164 101
167 161 100
168 163 101
168 163 101
171 165 102
168 164 103
162 157 93
162 156 93
166 161 99
169 164 101
173 166 104
163 158 97
163 158 95
161 156 94
163 158 94
162 158 98
162 157 95
166 160 102
169 163 99
163 159 97
160 155 95
163 157 94
157 153 93
159 154 97
164 158 98
159 154 95
163 157 96
163 157 97
163 157 95
163 157 96
161 156 93
162 156 95
161 156 93
159 154 87
157 152 93
152 148 89
164 159 98
152 148 88
156 151 91
157 152 91
147 143 84
158 153 89
150 145 87
159 154 90
161 155 88
157 151 91
153 149 86
217 233 255
217 233 255
217 233 255
217 233 255
217 233 255
216 232 255
213 231 255
212 230 255
211 230 255
210 229 255
209 229 255
209 229 255
208 228 255
207 228 255
207 228 255
206 227 255
206 227 255
205 227 255
205 226 255
204 226 255
204 226 255
203 226 255
203 225 255
203 225 255
202 225 255
202 225 255
201 225 255
201 224 255
201 224 255
200 224 255
200 224 255
200 224 255
199 223 255
199 223 255
199 223 255
198 223 255
198 223 255
198 223 255
197 222 255
197 222 255
197 222 255
196 222 255
196 222 255
196 222 255
195 221 255
195 221 255
195 221 255
194 221 255
194 221 255
194 221 255
194 220 255
193 220 255
193 220 255
193 220 255
192 220 255
192 220 255
192 219 254
192 220 255
191 219 252
191 219 255
192 219 252
192 219 253
192 220 255
191 219 254
191 219 255
191 219 255
191 219 255
190 218 254
191 219 255
191 219 252
191 219 253
190 218 254
192 219 255
190 219 255
190 219 255
191 219 255
190 218 255
190 218 254
189 218 254
189 218 255
190 218 255
189 218 255
188 217 254
189 218 255
189 218 253
189 218 255
186 217 255
188 217 255
188 218 255
186 216 254
187 217 254
187 217 255
187 217 253
187 217 252
186 216 250
185 216 255
187 217 255
186 216 254
186 217 255
186 216 254
185 216 253
185 216 255
184 215 254
185 216 255
185 216 255
186 216 255
186 216 255
186 217 255
186 217 255
187 217 255
187 217 255
187 217 255
188 217 255
188 218 255
189 218 255
189 218 255
190 219 255
191 219 255
192 219 255
193 220 255
194 221 255
195 221 255
197 222 255
199 223 255
201 224 255
204 226 255
209 229 255
214 231 255
214 231 255
214 231 255
214 231 255
214 231 255
214 231 255
214 231 255
214 231 255
214 231 255
214 231 255
213 231 255
213 231 255
213 231 255
213 231 255
213 231 255
213 231 255
213 231 255
213 231 255
213 231 255
213 231 255
213 231 255
213 231 255
213 231 255
213 231 255
213 231 255
213 231 255
213 231 255
213 231 255
207 225 252
88 117 175
61 97 160
61 97 154
61 97 153
61 97 154
61 97 162
62 98 166
61 98 161
62 98 163
61 97 157
62 98 160
62 98 158
62 98 158
61 96 155
62 98 161
62 98 159
61 97 157
62 97 156
62 98 156
62 97 156
62 97 153
62 98 158
62 98 160
62 98 158
61 97 160
61 97 156
61 97 158
61 96 154
62 98 162
60 96 143
63 99 158
62 98 163
62 98 157
61 97 154
62 98 156
61 96 154
62 98 162
61 97 155
62 98 159
62 98 159
62 98 160
63 98 158
60 96 150
62 98 155
62 97 157
62 97 150
62 99 164
61 97 153
62 97 155
62 97 158
62 98 160
61 97 153
62 98 155
61 97 156
61 97 154
61 97 158
61 96 153
62 97 162
61 97 153
61 97 152
62 97 156
61 96 151
60 96 154
61 97 156
61 96 151
61 96 150
60 96 149
60 95 148
61 96 152
62 97 162
62 97 154
61 96 156
61 96 157
60 95 150
61 96 160
59 94 147
60 95 154
60 93 145
60 95 156
58 91 141
60 94 149
59 92 150
59 92 150
57 89 143
60 93 151
60 94 158
57 89 139
99 124 174
209 227 252
213 231 255
213 231 255
213 231 255
213 231 255
213 231 255
213 231 255
213 231 255
213 231 255
213 231 255
213 231 255
213 231 255
213 231 255
213 231 255
213 231 255
192 206 219
129 126 87
129 127 86
124 122 83
134 133 90
119 119 81
125 125 86
135 135 92
121 120 83
122 123 85
124 125 87
134 135 94
127 128 89
141 141 96
130 131 91
136 136 94
141 142 97
133 133 90
142 142 97
143 143 98
143 143 97
146 144 98
148 147 99
135 134 89
139 138 93
140 140 95
152 149 100
149 147 99
156 154 103
150 148 99
144 143 95
146 145 98
161 158 105
153 151 101
152 149 98
157 155 103
155 152 100
157 153 100
153 152 99
161 157 102
162 158 103
163 159 101
163 159 103
163 160 100
160 157 103
164 160 102
164 160 102
170 165 106
164 159 103
173 167 108
167 162 103
173 168 109
167 163 105
169 165 106
168 164 104
165 160 100
167 164 105
165 161 103
170 164 104
168 164 99
171 165 101
172 167 106
170 165 102
168 163 102
170 165 103
172 166 105
171 165 105
163 159 99
169 164 103
176 171 108
169 164 101
170 165 103
169 165 103
168 163 102
176 169 106
172 165 104
170 165 104
165 160 99
175 169 102
167 161 97
168 163 102
173 168 106
164 160 98
172 167 104
167 163 101
164 159 101
163 158 100
169 164 104
168 164 99
174 168 104
165 162 99
164 160 95
166 160 98
164 159 97
169 164 97
168 161 95
162 158 97
162 156 97
170 165 102
167 162 99
172 165 99
169 164 103
166 160 97
169 163 103
169 164 101
169 162 99
166 160 97
167 162 101
162 158 95
164 159 99
167 162 101
167 160 99
162 158 98
167 162 99
160 155 95
164 159 95
166 161 97
165 159 97
158 153 90
162 157 97
164 157 96
163 158 94
160 154 93
167 161 95
158 153 93
163 158 97
162 157 94
164 158 93
158 153 92
161 156 91
151 147 84
162 157 94
148 143 87
158 152 88
162 155 97
161 155 88
151 146 86
160 154 96
154 148 92
157 152 87
158 152 88
217 233 255
217 233 255
217 233 255
217 233 255
216 233 255
214 231 255
212 231 255
211 230 255
210 230 255
210 229 255
209 229 255
208 228 255
208 228 255
207 228 255
207 228 255
206 227 255
206 227 255
205 227 255
205 227 255
205 226 255
204 226 255
204 226 255
203 226 255
203 225 255
203 225 255
202 225 255
202 225 255
201 225 255
201 224 255
201 224 255
200 224 255
200 224 255
200 224 255
199 224 255
199 223 255
199 223 255
198 223 255
198 223 255
198 223 255
197 223 255
197 222 255
197 222 255
197 222 255
196 222 255
196 222 255
196 222 255
195 221 255
195 221 255
195 221 255
195 221 255
194 221 255
194 221 255
194 221 255
194 221 255
194 221 255
193 220 255
194 221 255
193 220 255
194 220 255
193 220 254
194 220 255
192 219 253
193 220 255
192 219 253
192 219 254
192 220 255
192 220 255
191 219 254
191 219 254
191 219 254
191 219 255
192 220 255
192 220 255
192 220 254
190 219 255
191 219 255
190 218 253
189 218 254
189 218 252
189 218 253
191 218 250
188 217 249
190 218 248
189 218 250
189 218 252
188 217 253
189 218 250
188 218 253
190 218 253
188 217 253
189 218 254
188 217 252
190 218 254
188 217 254
187 217 254
188 217 255
188 217 253
188 217 252
188 217 253
186 217 255
188 217 254
187 217 253
187 217 254
187 217 255
187 217 255
186 217 255
187 217 255
187 217 255
187 217 255
187 217 255
188 217 255
188 217 255
188 218 255
189 218 255
189 218 255
190 218 255
190 219 255
191 219 255
192 219 255
193 220 255
194 220 255
195 221 255
196 222 255
197 222 255
199 223 255
201 225 255
204 226 255
210 229 255
214 231 255
214 231 255
214 231 255
214 231 255
214 231 255
214 231 255
214 231 255
214 231 255
214 231 255
214 231 255
214 231 255
214 231 255
214 231 255
214 231 255
214 231 255
214 231 255
214 231 255
214 231 255
214 231 255
213 231 255
213 231 255
213 231 255
213 231 255
213 231 255
213 231 255
213 231 255
213 231 255
154 175 214
61 97 164
61 97 155
63 99 163
62 98 165
61 97 152
60 96 153
62 97 158
62 98 166
62 98 157
62 98 163
61 96 152
60 96 148
62 97 156
62 98 162
61 97 155
62 98 158
61 97 156
61 97 150
61 96 148
63 99 165
62 98 162
61 97 159
61 97 156
62 98 157
62 98 158
61 96 151
62 98 158
62 98 159
61 97 153
62 97 152
62 98 158
60 96 148
62 98 158
63 99 164
61 97 153
61 97 158
62 98 160
62 98 158
61 97 151
62 98 160
62 97 150
62 97 154
62 97 149
62 98 159
61 96 148
61 97 152
61 97 155
61 97 159
61 97 153
61 97 160
60 95 146
62 98 154
61 97 157
61 96 149
61 97 156
62 97 154
62 97 148
61 96 157
62 97 156
63 98 158
60 95 152
60 95 147
61 97 153
61 97 163
61 96 157
60 94 147
61 96 155
62 97 160
61 96 149
61 95 152
61 95 155
60 96 158
60 95 153
62 97 157
61 95 158
60 94 155
61 97 156
61 95 157
61 95 154
60 95 152
60 93 149
61 94 149
61 94 153
59 93 147
59 92 151
58 91 142
57 90 144
59 92 155
143 163 196
213 231 255
213 231 255
213 231 255
213 231 255
213 231 255
213 231 255
213 231 255
214 231 255
214 231 255
214 231 255
214 231 255
214 231 255
214 231 255
211 228 252
148 149 126
113 113 75
124 123 81
124 123 83
125 123 84
116 116 81
127 127 88
118 118 83
131 131 90
127 126 86
124 124 86
136 136 93
127 127 86
125 125 87
124 124 86
127 127 88
139 139 96
133 133 90
132 133 93
141 141 97
146 144 95
145 144 98
148 147 99
143 142 95
149 148 99
145 145 97
150 149 99
154 152 99
148 147 97
148 147 99
148 147 98
153 150 98
149 146 96
156 154 103
161 157 103
156 153 100
157 155 99
163 160 104
156 153 100
163 159 102
156 153 99
164 160 104
164 160 103
160 156 101
165 161 105
167 162 105
160 156 99
164 159 102
165 160 100
162 158 98
165 162 105
169 165 106
164 159 99
166 163 105
163 159 102
172 168 106
170 166 104
170 165 105
174 168 104
169 164 103
170 165 105
170 165 103
164 161 99
167 162 101
172 167 104
169 164 104
173 167 107
170 164 104
170 165 103
169 164 102
167 161 98
168 163 97
169 163 99
172 167 105
170 165 101
168 163 103
173 167 105
173 168 104
170 165 101
168 163 102
173 167 106
173 167 103
167 161 97
167 162 99
167 161 98
173 167 103
171 165 102
173 166 101
166 160 93
169 164 103
171 165 98
162 158 97
164 159 96
169 164 101
169 164 101
166 162 99
170 164 101
167 163 103
164 159 97
169 164 101
167 162 99
172 166 100
172 166 103
166 159 97
171 165 102
163 159 95
167 161 97
160 156 97
170 164 101
164 159 98
168 162 99
165 159 94
163 158 91
167 161 97
166 160 95
164 158 97
161 156 93
163 158 95
161 157 92
165 159 97
158 153 93
156 150 88
155 151 87
159 153 93
159 153 93
161 155 89
156 150 90
157 150 90
164 159 92
159 154 93
165 159 97
163 157 98
159 154 94
162 156 92
152 148 90
154 149 91
156 150 87
154 148 90
159 153 89
162 156 95
158 152 94
217 233 255
217 233 255
217 233 255
216 233 255
214 232 255
213 231 255
212 230 255
211 230 255
210 229 255
210 229 255
209 229 255
208 228 255
208 228 255
207 228 255
207 228 255
206 227 255
206 227 255
206 227 255
205 227 255
205 226 255
204 226 255
204 226 255
204 226 255
203 226 255
203 225 255
203 225 255
202 225 255
202 225 255
202 225 255
201 225 255
201 224 255
201 224 255
200 224 255
200 224 255
200 224 255
199 224 255
199 223 255
199 223 255
198 223 255
198 223 255
198 223 255
198 223 255
197 222 255
197 222 255
197 222 255
196 222 255
196 222 255
196 222 255
196 222 255
195 221 255
195 221 255
195 221 255
195 221 255
195 221 255
195 221 255
194 221 254
194 220 254
195 221 255
194 220 253
193 220 255
194 220 253
193 220 255
195 221 254
194 220 255
193 220 254
194 220 253
195 221 255
192 220 254
194 220 254
193 220 255
193 220 252
191 219 252
191 219 253
191 218 250
191 218 248
190 218 246
190 218 252
190 218 250
190 218 252
190 218 248
189 217 249
189 217 245
189 217 246
189 218 249
188 216 242
188 217 245
188 217 249
187 216 246
189 218 253
188 217 246
189 217 250
188 217 249
189 217 249
190 218 254
190 218 254
189 218 254
189 218 254
189 218 255
188 218 255
189 218 255
187 217 254
187 217 254
187 217 254
189 218 255
188 217 254
188 217 255
188 217 255
188 217 255
188 217 255
188 217 255
188 218 255
188 218 255
189 218 255
189 218 255
190 218 255
190 219 255
191 219 255
191 219 255
192 220 255
193 220 255
193 220 255
194 221 255
195 221 255
197 222 255
198 223 255
200 224 255
202 225 255
206 227 255
211 230 255
214 232 255
214 232 255
214 232 255
214 232 255
214 232 255
214 232 255
214 232 255
214 232 255
214 232 255
214 231 255
214 231 255
214 231 255
214 231 255
214 231 255
214 231 255
214 231 255
214 231 255
214 231 255
214 231 255
214 231 255
214 231 255
214 231 255
214 231 255
214 231 255
214 231 255
197 215 242
74 107 174
60 96 152
62 99 165
62 98 163
62 97 158
61 97 158
61 98 159
61 97 158
61 97 154
62 98 163
61 97 151
61 97 157
62 97 158
62 98 156
62 98 156
61 97 157
62 98 157
63 98 159
62 98 163
62 97 158
62 97 156
60 96 147
61 97 156
60 95 154
61 97 155
61 97 153
62 97 153
62 98 151
62 98 162
61 97 161
61 96 149
61 97 156
61 97 152
61 97 152
62 98 156
60 96 149
62 97 153
62 98 159
62 98 155
61 97 158
62 98 160
61 97 160
60 96 148
61 96 149
61 97 150
62 98 155
61 96 147
62 97 153
62 98 160
62 97 159
62 98 158
61 97 156
61 96 148
61 97 152
62 98 160
61 96 151
63 99 163
61 97 153
62 97 154
61 97 158
62 97 153
61 96 149
62 97 156
61 97 152
62 97 156
61 96 150
60 95 144
60 95 150
62 97 158
62 97 155
60 95 151
61 95 151
61 96 147
60 95 152
59 93 142
61 96 161
59 92 140
61 95 152
61 96 155
60 93 146
60 95 156
59 93 148
60 94 141
58 92 142
59 93 154
58 91 143
58 91 144
57 90 147
60 93 149
65 93 141
198 216 241
214 231 255
214 231 255
214 231 255
214 231 255
214 231 255
214 231 255
214 231 255
214 231 255
214 231 255
214 231 255
214 231 255
214 231 255
165 172 169
121 118 77
111 109 73
123 122 82
114 115 81
124 124 85
119 120 83
113 114 79
117 119 84
120 122 84
124 124 86
124 124 87
123 123 84
125 125 87
139 139 96
135 135 91
127 128 87
131 132 92
135 135 92
143 142 94
140 139 95
132 131 89
147 144 96
142 141 94
135 135 91
149 147 97
145 144 96
154 151 99
145 143 95
149 148 100
153 150 98
150 150 101
158 156 102
158 154 100
155 151 98
160 157 102
159 156 102
159 156 100
159 156 103
162 158 103
167 163 104
159 156 99
161 158 104
165 161 107
167 162 103
167 163 106
165 161 101
167 162 105
165 161 103
165 161 104
165 161 102
167 163 104
170 166 107
171 166 104
165 162 103
173 167 103
171 166 103
168 163 101
171 166 103
168 164 105
172 167 101
173 169 103
172 168 109
173 167 108
172 167 105
171 165 104
169 164 97
171 166 104
170 165 103
173 167 102
172 166 105
171 165 102
170 165 101
170 164 102
168 162 101
174 168 102
173 167 105
174 168 107
170 164 98
171 167 102
170 164 100
172 167 103
170 164 101
172 166 101
172 165 101
164 160 95
171 166 101
169 163 101
174 168 104
169 164 99
171 165 102
167 162 101
172 167 104
170 164 100
171 165 100
164 159 99
169 163 99
171 165 101
171 165 104
175 168 103
163 158 97
165 158 96
169 163 101
172 166 99
171 164 95
170 163 97
171 165 97
165 160 96
170 165 101
163 157 90
162 157 94
166 159 96
164 159 96
169 163 101
163 158 97
167 160 101
167 161 97
169 164 98
165 159 92
163 157 92
163 157 95
160 155 93
157 153 87
158 154 90
162 156 92
161 155 95
158 153 92
156 151 93
155 150 90
159 152 93
164 157 96
154 150 90
158 152 90
151 146 85
157 152 87
159 153 88
157 151 91
150 146 87
151 146 85
162 156 95
160 155 92
160 154 89
217 233 255
217 233 255
217 233 255
215 232 255
213 231 255
212 231 255
212 230 255
211 230 255
210 229 255
210 229 255
209 229 255
209 228 255
208 228 255
208 228 255
207 228 255
207 228 255
206 227 255
206 227 255
206 227 255
205 227 255
205 226 255
204 226 255
204 226 255
204 226 255
203 226 255
203 226 255
203 225 255
202 225 255
202 225 255
202 225 255
202 225 255
201 224 255
201 224 255
201 224 255
200 224 255
200 224 255
200 224 255
199 224 255
199 223 255
199 223 255
199 223 255
198 223 255
198 223 255
198 223 255
198 223 255
197 222 255
197 222 255
197 222 255
196 222 255
196 222 255
196 222 255
197 222 255
196 222 255
196 221 254
195 221 253
196 221 253
195 221 252
196 221 253
195 221 254
196 222 255
195 221 255
194 220 252
196 222 255
195 221 254
195 221 254
194 221 253
193 220 250
192 218 245
192 219 248
192 219 246
192 219 248
192 219 248
192 219 248
191 218 246
192 219 252
190 217 244
191 219 249
191 219 248
191 219 249
192 219 253
191 219 250
191 219 250
191 219 250
191 218 249
191 219 250
190 217 245
190 218 250
190 218 248
190 218 248
190 217 245
189 217 246
189 217 245
189 218 252
189 217 245
189 218 252
189 217 250
189 218 249
192 220 255
191 219 254
190 218 254
190 218 255
189 218 254
189 218 255
188 218 254
189 218 253
189 218 253
189 218 254
190 218 255
189 218 255
189 218 255
189 218 255
189 218 255
189 218 255
190 218 255
190 219 255
191 219 255
191 219 255
192 219 255
192 220 255
193 220 255
194 220 255
194 221 255
195 221 255
196 222 255
198 223 255
199 223 255
201 224 255
203 226 255
206 227 255
213 231 255
215 232 255
214 232 255
214 232 255
214 232 255
214 232 255
214 232 255
214 232 255
214 232 255
214 232 255
214 232 255
214 232 255
214 232 255
214 232 255
214 232 255
214 232 255
214 232 255
214 232 255
214 232 255
214 232 255
214 232 255
214 232 255
214 231 255
214 231 255
214 231 255
145 166 207
62 98 166
62 97 152
62 98 164
62 98 158
61 97 157
62 99 165
61 97 157
62 98 159
62 98 158
61 96 152
60 96 149
61 97 153
62 98 154
61 97 150
61 97 159
61 96 149
61 97 156
62 97 156
61 96 152
60 96 147
61 97 154
62 98 154
62 98 158
62 98 156
61 97 156
61 97 152
61 97 153
62 97 154
61 97 155
62 98 155
62 98 152
62 97 155
61 96 154
62 97 151
61 97 155
60 96 151
61 96 144
61 97 150
60 95 141
62 97 155
62 97 154
61 96 149
60 96 150
61 97 151
61 97 157
62 97 156
63 99 164
60 96 149
62 98 157
62 97 154
61 97 151
60 95 147
62 98 157
62 97 152
60 96 151
62 97 156
61 97 155
60 96 149
61 96 151
61 97 158
61 97 149
61 97 149
62 97 164
61 96 148
62 97 156
61 96 152
59 94 146
61 96 149
61 96 154
62 98 161
61 95 146
62 97 160
59 93 145
62 97 159
61 95 151
62 97 158
62 97 159
60 95 156
60 94 149
59 93 148
60 95 151
60 96 159
61 95 150
59 92 153
59 92 147
60 92 147
60 94 154
59 92 150
57 90 142
58 89 146
114 136 181
214 231 255
214 231 255
214 231 255
214 231 255
214 232 255
214 232 255
214 232 255
214 232 255
214 232 255
214 232 255
214 232 255
203 218 233
115 114 76
131 130 86
126 125 86
127 125 83
115 115 81
116 116 80
124 123 85
112 114 79
120 121 84
117 119 83
116 118 84
113 115 79
135 135 92
116 118 83
139 137 93
144 142 94
130 130 86
127 127 88
129 129 89
137 135 92
135 134 91
127 128 87
148 147 99
145 143 94
153 151 101
150 149 100
147 146 98
145 143 97
151 149 96
150 147 96
155 153 99
150 149 96
145 143 97
159 157 101
154 152 101
152 151 99
150 148 97
159 156 98
159 156 98
161 158 101
165 161 104
163 158 103
168 164 106
164 160 102
165 162 103
159 156 100
164 160 100
169 164 101
164 159 100
167 163 104
167 162 102
170 166 104
168 163 101
163 159 102
167 163 102
170 165 106
172 167 107
170 166 107
173 168 107
169 164 104
173 167 102
170 164 102
172 167 103
175 169 105
168 162 98
171 167 103
171 165 101
170 165 101
170 165 104
175 169 106
166 162 97
171 167 103
169 164 102
172 166 104
169 164 100
171 166 101
170 165 99
167 162 96
166 161 93
172 167 104
173 167 103
171 166 101
171 164 100
177 171 108
167 161 99
167 162 98
170 164 99
172 167 102
165 160 95
176 169 102
170 165 100
171 166 101
166 161 94
164 159 97
167 161 99
165 159 96
168 162 98
165 159 95
171 164 97
166 161 95
164 158 95
166 160 97
166 160 96
172 167 101
163 158 97
161 155 92
162 157 90
169 164 101
166 159 93
162 156 94
169 162 95
170 164 101
165 160 97
164 158 94
169 163 101
160 155 90
164 159 93
159 154 90
162 157 95
160 153 87
159 155 92
159 153 88
163 158 94
168 162 97
159 154 88
163 157 90
160 155 91
168 162 95
160 155 94
160 155 93
164 158 90
162 156 93
161 156 90
161 155 93
160 155 94
161 156 94
158 152 91
156 150 89
151 146 84
150 145 87
155 148 83
157 151 87
217 233 255
217 233 255
215 232 255
214 231 255
213 231 255
212 230 255
211 230 255
211 230 255
210 229 255
210 229 255
209 229 255
209 229 255
208 228 255
208 228 255
207 228 255
207 228 255
207 227 255
206 227 255
206 227 255
206 227 255
205 227 255
205 227 255
205 226 255
204 226 255
204 226 255
204 226 255
203 226 255
203 225 255
203 225 255
202 225 255
202 225 255
202 225 255
202 225 255
201 225 255
201 224 255
201 224 255
200 224 255
200 224 255
200 224 255
200 224 255
199 223 255
199 223 255
199 223 255
199 223 255
198 223 255
198 223 255
198 223 255
198 223 255
198 223 255
198 223 255
197 222 253
198 223 255
197 223 255
197 222 255
198 222 253
196 222 252
196 221 253
196 222 254
197 222 254
197 222 255
197 222 255
196 222 255
196 222 255
195 221 253
194 220 245
193 219 246
194 220 249
194 220 250
193 220 249
194 220 252
194 220 252
194 220 252
194 220 253
194 220 252
194 220 253
194 220 252
193 220 250
192 219 246
192 219 249
192 219 250
192 218 245
193 220 253
193 220 253
193 220 252
192 219 249
192 219 249
192 219 249
192 219 248
192 219 253
192 219 253
192 219 250
190 218 250
192 219 254
191 219 250
190 218 248
189 217 246
190 218 246
190 218 250
190 218 250
191 219 252
191 219 255
191 219 255
189 218 252
191 219 254
189 218 253
191 219 253
192 219 255
191 219 252
190 218 255
190 219 255
190 218 255
190 219 255
190 219 255
191 219 255
191 219 255
191 219 255
192 219 255
192 220 255
193 220 255
193 220 255
194 221 255
195 221 255
195 221 255
196 222 255
197 222 255
199 223 255
200 224 255
202 225 255
204 226 255
208 228 255
214 231 255
215 232 255
215 232 255
215 232 255
215 232 255
215 232 255
215 232 255
215 232 255
215 232 255
215 232 255
215 232 255
215 232 255
214 232 255
214 232 255
214 232 255
214 232 255
214 232 255
214 232 255
214 232 255
214 232 255
214 232 255
214 232 255
214 232 255
194 212 240
64 99 164
61 97 162
61 98 160
61 97 155
62 97 157
62 98 161
61 97 152
63 99 161
62 99 165
62 97 158
61 97 153
61 97 157
61 97 156
61 97 156
62 98 158
60 95 150
63 99 160
61 97 152
62 98 156
61 97 156
60 95 142
61 96 153
62 98 153
62 98 161
61 96 148
62 97 156
62 97 153
61 96 150
62 98 157
61 97 148
62 98 160
62 98 158
62 98 156
61 96 149
61 97 153
62 97 155
62 98 155
61 97 154
63 98 159
60 96 147
61 96 154
60 96 150
61 97 152
61 96 151
62 98 161
61 97 153
61 97 153
61 96 148
61 96 146
62 98 160
61 97 152
61 97 152
61 96 152
62 98 160
61 96 148
61 96 150
62 97 155
61 97 151
60 95 147
61 97 154
61 95 142
61 97 153
61 96 152
60 95 146
62 97 152
61 97 154
61 96 154
61 96 149
60 95 152
61 97 153
61 96 155
61 96 154
61 96 147
60 95 154
59 93 139
61 96 155
61 95 153
61 95 153
60 94 148
61 96 151
60 94 148
60 94 151
60 95 153
60 94 147
60 95 154
59 93 149
60 95 153
58 90 140
60 93 149
58 91 143
58 89 143
58 86 129
199 216 242
214 232 255
214 232 255
214 232 255
214 232 255
214 232 255
214 232 255
214 232 255
214 232 255
214 232 255
214 232 255
142 148 139
125 123 81
104 105 73
116 116 80
103 104 74
115 115 79
105 106 74
118 118 81
113 115 81
118 119 84
117 119 84
123 124 86
120 121 84
126 126 87
116 118 83
129 130 89
123 125 89
128 129 89
131 131 89
125 125 86
134 134 91
140 139 92
127 127 86
151 149 99
147 145 94
140 140 93
147 145 95
142 142 96
150 148 97
148 147 98
154 152 100
154 152 101
154 150 98
151 149 96
156 153 96
157 154 100
146 145 94
154 152 101
157 155 103
160 156 102
158 155 100
164 160 100
163 160 104
167 164 105
166 162 102
166 162 101
162 159 101
166 162 98
168 164 103
162 158 100
158 155 97
167 163 102
167 162 103
171 166 104
171 166 103
166 162 100
170 166 105
164 161 101
166 162 97
161 158 95
166 162 99
169 164 100
171 166 102
170 165 98
172 167 106
174 167 102
170 164 103
171 166 100
171 166 103
171 166 101
171 166 103
173 167 103
172 166 101
169 164 99
167 162 98
169 164 102
168 163 95
176 169 104
171 165 97
167 162 101
171 165 100
172 166 104
176 170 104
174 168 96
172 166 102
174 167 102
168 163 97
166 161 98
170 165 99
173 166 100
175 170 106
171 165 98
170 165 99
167 161 96
168 162 97
166 160 95
168 161 98
165 160 95
167 161 95
163 159 92
168 162 98
167 161 101
169 163 98
167 161 97
169 162 99
163 158 99
167 162 97
168 162 98
173 166 99
160 154 95
158 154 91
171 164 99
168 162 95
165 160 95
165 159 95
167 162 98
160 155 93
167 162 93
157 153 89
165 160 95
161 156 90
162 157 97
164 158 90
159 154 90
166 160 97
159 154 91
156 152 86
161 155 92
156 151 90
165 157 93
155 151 90
155 149 88
156 151 90
155 149 90
155 151 84
159 154 90
162 156 93
161 155 86
160 154 93
160 155 94
158 152 88
156 150 90
155 150 87
218 233 255
216 233 255
214 232 255
213 231 255
213 231 255
212 230 255
211 230 255
211 230 255
210 229 255
210 229 255
209 229 255
209 229 255
209 228 255
208 228 255
208 228 255
207 228 255
207 228 255
207 227 255
206 227 255
206 227 255
206 227 255
205 227 255
205 227 255
205 226 255
204 226 255
204 226 255
204 226 255
204 226 255
203 226 255
203 225 255
203 225 255
202 225 255
202 225 255
202 225 255
202 225 255
201 225 255
201 224 255
201 224 255
201 224 255
200 224 255
200 224 255
200 224 255
200 224 255
199 224 255
199 223 255
199 223 255
199 223 255
199 223 255
199 223 255
199 223 255
198 223 255
198 223 255
198 223 255
196 222 252
198 223 255
197 222 254
198 223 255
198 223 255
197 222 253
198 222 254
199 223 254
196 222 254
195 220 245
195 220 248
195 221 250
196 222 254
194 220 246
195 221 250
195 220 248
195 221 252
194 220 249
195 221 250
195 221 252
195 221 249
195 221 250
195 221 254
195 220 249
194 221 252
194 220 248
193 219 244
195 221 254
193 219 249
195 221 254
194 220 248
195 221 255
193 220 249
194 220 253
193 220 248
193 219 246
193 219 249
192 219 252
193 220 253
192 219 249
192 219 250
192 219 249
192 219 252
192 219 246
191 218 246
190 218 244
190 217 242
192 219 253
191 219 252
194 221 254
194 221 255
192 219 255
191 219 254
192 219 252
192 220 254
191 219 254
191 219 254
191 219 255
191 219 255
191 219 255
191 219 255
192 219 255
192 220 255
192 220 255
193 220 255
193 220 255
194 221 255
194 221 255
195 221 255
196 222 255
196 222 255
197 222 255
199 223 255
200 224 255
201 225 255
203 226 255
206 227 255
210 229 255
215 232 255
215 232 255
215 232 255
215 232 255
215 232 255
215 232 255
215 232 255
215 232 255
215 232 255
215 232 255
215 232 255
215 232 255
215 232 255
215 232 255
215 232 255
215 232 255
215 232 255
215 232 255
215 232 255
215 232 255
215 232 255
215 232 255
146 167 206
61 96 157
62 98 168
60 95 152
61 97 156
61 97 158
61 96 151
60 96 147
61 97 155
62 98 155
61 97 152
61 97 148
62 98 158
62 97 155
61 97 151
62 97 156
61 96 148
62 97 154
62 97 153
62 98 157
62 98 158
61 97 154
61 97 151
61 97 157
60 96 147
62 97 145
62 97 153
61 96 156
62 97 150
62 97 155
62 97 155
61 97 151
61 96 148
61 97 154
62 98 155
61 97 156
61 97 152
62 98 153
62 98 157
61 97 148
62 97 155
61 97 150
61 96 144
61 96 156
62 97 151
59 94 149
62 98 156
62 98 154
61 96 148
61 97 151
62 97 151
61 96 140
60 96 151
61 97 159
62 97 154
60 95 147
61 96 146
60 95 148
62 97 157
61 97 154
61 96 148
60 95 152
61 96 153
60 94 143
61 96 152
59 94 142
61 96 144
60 95 151
61 96 155
59 93 138
59 93 147
60 95 149
58 92 138
60 94 139
61 95 151
62 97 157
60 95 150
60 94 140
61 96 155
61 95 146
60 94 151
61 96 156
61 97 159
59 92 138
59 92 146
59 93 147
60 94 151
58 90 139
59 92 151
57 90 146
57 89 133
58 90 147
57 89 142
137 156 193
215 232 255
215 232 255
215 232 255
215 232 255
215 232 255
215 232 255
215 232 255
215 232 255
215 232 255
185 196 206
104 102 66
118 117 77
121 120 79
116 117 81
124 123 82
114 116 82
121 122 86
117 117 81
111 113 78
115 116 80
116 117 82
119 121 84
125 128 89
114 116 83
126 125 85
118 120 84
120 121 82
135 135 91
133 134 92
123 123 83
131 132 91
133 134 92
148 147 98
147 144 97
137 138 94
138 137 92
147 146 97
147 145 96
146 144 94
147 144 95
160 156 100
151 150 99
147 145 95
155 152 99
153 151 99
153 151 98
156 153 95
155 152 97
156 153 96
158 155 99
160 157 104
161 158 99
164 160 101
160 157 102
164 160 99
164 160 103
164 160 102
164 160 99
168 163 102
162 159 96
167 162 100
165 161 98
170 164 103
163 159 101
163 159 100
169 164 104
169 165 104
168 163 102
172 167 105
169 163 104
170 166 105
164 161 98
173 168 105
173 167 102
173 168 105
170 164 96
177 171 106
168 163 99
173 168 103
166 161 96
172 166 101
168 164 100
171 166 98
171 165 99
165 162 99
172 166 103
171 166 101
170 164 99
168 162 98
166 161 95
171 165 97
168 163 97
171 165 102
170 164 99
171 165 98
171 166 103
174 167 101
170 164 97
170 164 101
168 163 99
172 165 101
165 160 95
168 162 95
171 166 101
168 162 99
172 167 101
169 164 95
174 168 103
165 160 93
167 163 97
165 160 96
173 167 103
170 165 95
170 164 99
163 158 90
173 166 99
168 162 97
164 159 93
168 162 97
169 163 98
165 160 97
168 163 97
170 164 100
166 159 93
163 157 96
163 157 93
162 156 93
169 162 100
167 162 101
165 158 96
172 165 102
161 155 90
166 160 93
163 158 93
161 155 92
164 159 100
159 153 90
162 156 90
162 157 92
163 156 92
162 156 93
163 157 95
156 151 87
165 159 93
159 153 90
159 154 90
151 145 86
161 156 91
157 152 91
148 143 84
162 156 91
155 150 87
156 151 87
217 233 255
215 232 255
214 232 255
213 231 255
213 231 255
212 230 255
211 230 255
211 230 255
211 230 255
210 229 255
210 229 255
209 229 255
209 229 255
209 228 255
208 228 255
208 228 255
207 228 255
207 228 255
207 228 255
206 227 255
206 227 255
206 227 255
206 227 255
205 227 255
205 227 255
205 226 255
205 226 255
204 226 255
204 226 255
204 226 255
203 226 255
203 226 255
203 225 255
203 225 255
202 225 255
202 225 255
202 225 255
202 225 255
201 225 255
201 224 255
201 224 255
201 224 255
200 224 255
200 224 255
200 224 255
200 224 255
199 223 254
200 224 255
200 224 254
199 223 254
199 223 255
199 223 255
198 222 252
198 222 252
198 223 255
199 223 255
200 224 255
199 223 254
199 223 255
198 223 254
197 222 252
195 220 242
197 222 250
197 222 252
197 222 250
197 222 253
196 221 252
196 221 249
196 221 248
195 220 249
195 220 244
196 221 253
197 222 254
197 222 254
195 221 248
196 221 245
196 221 249
195 221 249
196 221 250
196 221 250
196 221 252
196 221 248
196 222 254
196 221 253
194 220 249
195 221 252
195 220 249
195 221 252
195 220 249
195 221 252
192 218 244
194 220 249
194 220 248
193 219 242
194 220 250
194 220 252
193 219 246
193 220 249
193 219 248
192 219 248
192 219 249
193 220 253
192 219 250
194 220 250
194 221 255
194 221 254
193 220 255
192 220 255
191 219 250
194 221 255
193 220 253
193 220 255
192 220 255
192 220 255
193 220 255
193 220 255
193 220 255
194 220 255
194 221 255
194 221 255
195 221 255
196 221 255
196 222 255
197 222 255
198 223 255
199 223 255
200 224 255
201 224 255
202 225 255
204 226 255
207 228 255
211 230 255
215 232 255
215 232 255
215 232 255
215 232 255
215 232 255
215 232 255
215 232 255
215 232 255
215 232 255
215 232 255
215 232 255
215 232 255
215 232 255
215 232 255
215 232 255
215 232 255
215 232 255
215 232 255
215 232 255
215 232 255
197 215 241
70 102 158
61 97 162
61 97 152
62 98 163
62 97 155
61 97 155
62 98 162
61 96 150
61 97 151
61 97 155
62 98 159
62 98 156
62 97 151
62 98 163
61 97 151
61 97 160
61 97 147
63 99 159
61 97 151
62 97 154
61 96 151
62 98 155
61 96 149
62 98 154
62 97 153
62 97 148
61 97 149
62 97 157
61 96 147
63 98 159
62 98 157
62 98 157
62 97 151
61 97 157
62 98 158
63 99 160
62 97 145
62 97 152
62 97 154
62 97 154
61 96 153
62 98 155
63 99 162
61 97 151
62 98 156
61 96 147
61 97 148
62 97 154
61 97 150
63 98 157
61 96 149
61 97 150
62 97 153
62 97 156
61 96 153
62 98 161
61 97 153
61 96 142
60 95 148
61 97 148
61 96 155
63 98 156
61 96 154
62 97 154
60 95 155
62 97 154
60 95 149
62 97 155
59 94 145
60 95 152
61 96 158
61 96 155
61 95 144
61 95 153
60 94 142
60 95 151
60 94 150
61 95 151
60 94 142
61 96 153
60 96 151
60 93 145
60 93 148
61 95 157
57 90 142
60 94 151
59 92 144
57 90 143
59 91 142
58 90 142
58 89 140
58 89 137
56 88 136
62 90 132
202 219 243
215 232 255
215 232 255
215 232 255
215 232 255
215 232 255
215 232 255
215 232 255
214 231 254
128 131 110
117 114 74
103 105 72
116 115 78
103 103 70
102 103 74
116 118 84
121 122 85
118 119 83
113 115 81
122 123 86
114 115 82
124 125 88
116 117 81
117 118 83
124 125 86
123 125 87
124 126 88
122 123 85
133 133 91
130 130 88
138 137 88
136 135 91
141 140 95
136 135 89
137 137 90
148 146 96
149 146 94
143 141 93
146 144 96
151 149 96
154 151 101
144 143 93
157 154 99
146 145 96
151 149 99
159 156 99
152 149 94
154 151 97
160 156 98
152 149 96
156 154 99
159 155 99
159 156 100
165 160 101
167 162 102
162 158 96
169 164 101
163 159 102
167 162 99
167 163 97
166 161 99
168 164 98
173 168 103
168 164 102
167 163 101
170 165 103
170 164 102
168 165 104
174 169 105
172 166 104
172 166 101
176 170 107
172 166 103
172 167 103
173 168 106
172 166 102
176 170 106
167 162 98
174 168 102
165 162 100
176 170 105
170 165 99
175 170 107
171 166 102
168 163 97
173 167 101
173 167 101
179 172 108
169 165 101
176 170 104
167 161 93
174 167 99
163 157 93
174 168 101
170 165 97
177 169 101
171 166 102
167 163 99
171 165 96
166 161 96
168 163 93
169 163 98
171 165 97
173 166 100
171 165 98
164 159 96
165 159 97
167 162 90
166 160 100
172 166 93
171 165 101
157 152 89
168 162 94
172 166 99
171 165 97
170 163 99
168 162 96
156 151 86
168 162 94
164 158 92
164 158 93
165 159 95
168 162 95
168 162 97
167 160 97
169 164 97
169 163 99
171 164 97
167 161 95
163 157 95
168 162 97
164 158 94
170 163 99
166 160 95
163 157 91
165 159 93
158 153 89
164 158 87
156 150 88
155 150 88
160 155 90
160 154 91
160 155 88
165 158 97
155 151 88
165 158 95
164 158 90
157 151 88
152 146 85
163 157 91
161 154 94
152 147 87
159 153 94
216 233 255
215 232 255
214 231 255
213 231 255
213 231 255
212 230 255
212 230 255
211 230 255
211 230 255
210 229 255
210 229 255
210 229 255
209 229 255
209 229 255
209 228 255
208 228 255
208 228 255
208 228 255
207 228 255
207 228 255
207 228 255
206 227 255
206 227 255
206 227 255
206 227 255
205 227 255
205 227 255
205 226 255
205 226 255
204 226 255
204 226 255
204 226 255
204 226 255
203 226 255
203 226 255
203 225 255
203 225 255
202 225 255
202 225 255
202 225 255
202 225 255
202 225 255
201 225 255
201 224 255
201 225 255
200 224 254
201 224 253
200 224 253
200 224 255
200 224 252
200 224 250
200 223 252
201 224 254
200 224 255
200 224 255
200 224 255
200 224 255
200 223 254
198 223 250
198 222 248
198 222 250
198 222 249
199 223 254
197 222 249
196 221 244
198 222 248
198 223 253
198 222 249
198 222 249
198 222 250
198 222 250
196 221 246
198 222 254
197 221 249
198 223 253
197 221 248
197 221 248
197 222 249
196 221 242
197 222 250
197 222 253
197 222 250
197 222 253
197 222 250
197 222 252
197 222 252
197 222 252
197 222 255
197 222 252
196 221 252
196 221 252
196 221 252
195 221 249
196 221 252
195 221 252
196 221 252
195 221 252
194 220 248
194 220 248
194 221 252
193 219 246
194 220 250
193 219 246
193 219 246
194 220 253
196 222 254
195 221 255
195 221 255
195 221 255
194 221 255
193 220 252
194 221 254
195 221 254
193 220 254
194 220 255
194 221 255
194 221 255
194 221 255
195 221 255
195 221 255
196 222 255
196 222 255
197 222 255
197 222 255
198 223 255
199 223 255
200 224 255
201 224 255
202 225 255
204 226 255
206 227 255
209 229 255
214 231 255
216 232 255
216 232 255
216 232 255
215 232 255
215 232 255
215 232 255
215 232 255
215 232 255
215 232 255
215 232 255
215 232 255
215 232 255
215 232 255
215 232 255
215 232 255
215 232 255
215 232 255
215 232 255
215 232 255
151 172 211
60 96 151
61 96 152
62 97 156
61 97 157
60 96 151
62 97 155
61 97 154
61 97 152
61 96 153
61 97 153
61 97 153
62 98 160
62 98 161
60 95 144
61 96 150
61 96 153
60 95 153
60 96 150
61 97 152
61 96 145
60 95 144
61 97 152
62 97 148
61 97 148
61 97 145
61 97 155
60 96 145
62 97 158
61 97 160
61 97 150
61 97 150
62 98 161
61 97 148
62 98 154
62 97 155
61 97 149
60 96 142
60 96 149
61 96 143
61 96 148
61 97 150
61 97 154
61 96 142
61 96 148
61 96 145
60 95 145
62 98 155
61 96 147
60 96 148
61 96 148
62 97 149
61 96 152
61 96 152
62 97 154
61 96 149
62 97 155
62 97 149
61 96 153
61 97 155
63 98 158
61 96 150
63 98 159
62 98 159
61 97 145
61 96 150
61 96 149
61 96 156
60 94 142
61 97 151
61 95 148
61 96 151
59 93 146
60 94 142
62 97 153
60 94 142
61 95 146
59 93 147
60 95 151
60 94 146
59 93 142
59 93 148
60 93 147
61 94 152
59 92 142
58 91 137
57 90 136
57 90 132
58 92 140
57 89 139
59 92 145
56 87 136
57 88 132
56 86 136
54 84 131
158 176 207
215 232 255
215 232 255
215 232 255
215 232 255
215 232 255
215 232 255
215 232 255
186 197 205
127 124 82
98 98 67
115 114 79
118 119 82
113 113 79
108 108 75
104 107 76
104 107 75
99 100 69
110 112 79
119 120 84
118 119 85
101 104 75
117 119 83
119 120 83
122 123 84
127 127 86
132 132 91
126 128 89
131 132 91
132 132 89
133 132 87
134 134 89
140 139 90
138 137 90
140 137 88
133 134 92
150 148 100
151 148 95
150 147 96
150 147 96
157 154 99
156 152 99
152 149 96
153 150 97
154 150 95
155 153 98
160 157 100
148 146 91
160 156 100
153 150 94
160 156 97
164 160 101
156 153 96
163 159 102
165 161 103
163 158 100
166 161 99
166 161 100
170 165 104
160 157 97
161 158 102
172 167 106
174 168 102
167 162 100
168 163 101
167 163 98
174 168 103
174 168 105
167 163 100
171 166 97
162 158 96
168 163 99
169 165 100
171 166 102
172 167 100
170 164 100
171 165 99
170 164 98
172 166 99
174 168 104
170 164 104
174 168 100
172 166 102
165 161 97
174 168 102
171 166 100
171 165 95
171 165 99
173 167 103
170 163 97
169 164 99
168 164 95
169 163 99
174 168 102
171 166 95
173 166 101
167 161 95
170 165 99
170 164 101
174 167 101
165 160 91
167 161 97
170 163 97
172 166 100
172 166 98
174 168 100
167 161 96
162 157 94
170 164 98
169 164 95
166 161 93
163 157 90
173 166 98
170 163 97
168 163 92
164 159 94
162 157 88
164 158 93
168 162 98
167 161 97
162 157 88
166 161 95
166 161 93
168 163 97
160 154 92
168 163 97
168 161 92
169 163 101
162 157 90
165 159 95
158 152 84
167 161 92
166 160 93
165 158 91
162 156 92
153 150 87
161 155 89
161 155 88
162 156 86
165 158 91
166 159 95
163 158 95
162 156 90
162 157 91
151 146 82
151 146 83
155 149 86
158 152 90
155 149 86
164 158 93
161 155 87
150 145 80
149 145 80
215 232 255
215 232 255
214 231 255
213 231 255
213 231 255
212 231 255
212 230 255
211 230 255
211 230 255
211 230 255
210 229 255
210 229 255
210 229 255
209 229 255
209 229 255
209 229 255
208 228 255
208 228 255
208 228 255
208 228 255
207 228 255
207 228 255
207 228 255
207 227 255
206 227 255
206 227 255
206 227 255
206 227 255
205 227 255
205 227 255
205 226 255
205 226 255
204 226 255
204 226 255
204 226 255
204 226 255
204 226 255
203 226 255
203 225 255
203 225 255
203 225 255
202 225 255
202 225 255
202 224 254
202 225 255
203 225 255
202 225 255
202 225 255
202 225 255
201 224 254
201 224 254
202 225 255
202 225 254
202 225 255
202 225 255
202 225 255
200 223 252
198 222 244
199 223 250
199 223 248
199 223 249
199 223 249
198 222 249
199 223 248
198 222 245
198 222 246
199 222 248
199 223 252
199 223 253
199 222 249
200 223 253
200 224 254
199 223 252
199 223 252
199 223 252
199 223 252
198 222 246
198 222 248
198 222 249
199 223 254
197 222 250
199 223 252
198 222 248
198 222 249
198 222 250
197 222 248
198 223 252
197 221 246
196 221 246
198 222 252
198 222 252
197 222 252
197 221 249
197 222 253
197 221 253
196 221 248
196 222 252
196 221 250
196 221 249
196 221 250
196 222 254
195 221 248
195 221 250
195 221 250
194 220 250
194 220 252
195 221 253
196 221 254
196 222 255
197 222 255
196 222 255
196 222 254
197 222 255
195 221 254
195 221 255
195 221 255
195 221 255
195 221 255
196 222 255
196 222 255
197 222 255
197 222 255
198 223 255
198 223 255
199 223 255
199 224 255
200 224 255
201 224 255
202 225 255
204 226 255
205 227 255
207 228 255
211 230 255
216 232 255
216 232 255
216 232 255
216 232 255
216 232 255
216 232 255
216 232 255
216 232 255
216 232 255
216 232 255
216 232 255
216 232 255
216 232 255
216 232 255
216 232 255
216 232 255
216 232 255
215 232 255
212 229 253
74 106 164
60 95 145
61 97 157
61 97 152
61 97 149
62 98 159
62 97 155
61 97 148
60 95 149
61 97 156
61 97 158
61 96 154
61 97 150
62 97 154
61 97 154
61 96 150
60 95 150
61 96 144
61 97 154
61 97 155
60 95 143
62 97 151
62 97 151
62 97 155
61 97 150
60 95 139
60 95 147
61 97 151
60 96 147
62 97 152
63 98 154
62 98 151
61 97 149
60 96 147
61 96 152
61 96 152
61 96 144
61 96 149
59 94 139
62 97 145
62 98 155
62 97 148
62 97 152
61 96 148
61 96 147
61 96 144
61 97 147
62 98 156
62 98 154
62 97 149
61 97 148
63 98 154
60 96 148
61 97 148
62 97 151
61 97 150
60 96 147
61 96 149
61 96 152
61 97 153
61 96 149
61 96 147
61 97 153
60 95 149
61 96 147
61 95 141
60 95 146
61 97 152
61 96 146
61 96 148
60 94 138
62 97 155
61 96 151
60 94 142
60 94 142
60 94 146
61 95 145
60 95 142
60 94 146
60 95 148
61 96 149
59 94 143
61 94 149
60 95 147
60 94 147
60 93 146
58 91 139
60 93 142
58 91 143
58 90 137
57 90 143
56 88 134
55 86 135
54 84 133
56 87 137
84 109 155
212 229 252
215 232 255
215 232 255
216 232 255
216 232 255
216 232 255
214 231 254
123 125 106
111 109 70
106 106 74
112 113 77
106 106 73
111 111 76
88 91 65
114 116 82
108 110 78
103 105 72
113 115 80
115 117 83
105 107 74
124 125 87
118 119 83
118 119 81
119 121 85
128 127 85
111 114 80
125 126 85
128 128 86
133 133 86
128 128 87
132 131 87
141 140 92
138 137 90
148 146 95
139 137 90
143 143 93
151 148 93
144 143 92
137 137 88
149 147 94
146 144 90
150 148 94
155 153 100
158 155 99
152 150 93
156 152 96
155 152 94
161 157 97
161 157 99
158 155 93
157 152 95
164 159 100
164 160 98
159 155 96
166 162 102
164 160 100
164 159 101
166 161 98
170 166 101
167 163 101
171 166 102
169 163 100
167 162 101
172 166 102
169 163 100
163 159 95
170 165 101
171 165 100
169 164 99
174 168 102
171 165 100
174 167 100
171 165 100
171 166 97
173 167 104
174 168 100
172 166 101
172 166 100
172 167 102
169 163 99
171 165 95
174 168 103
170 164 99
174 167 102
174 167 102
169 164 101
172 165 99
174 167 103
169 165 97
173 167 101
174 167 99
167 162 94
172 167 101
170 163 96
166 161 89
170 164 101
169 164 96
170 163 93
169 165 98
169 163 95
175 169 102
170 165 97
169 163 93
174 168 102
171 164 99
171 164 97
162 157 92
169 163 95
173 167 101
166 160 93
162 157 90
169 163 93
168 161 91
166 159 91
168 161 95
167 162 95
168 162 93
168 162 93
168 162 97
162 156 88
168 162 97
170 163 95
165 159 90
161 155 88
164 158 90
168 163 95
162 156 89
167 161 91
170 164 96
165 159 96
157 152 84
166 160 91
163 157 90
160 154 92
161 155 87
159 154 89
164 158 92
161 155 90
161 155 90
167 161 96
159 154 84
161 157 87
159 153 86
157 152 86
160 153 90
156 150 84
158 152 84
154 149 84
157 152 85
166 159 94
162 156 90
156 150 83
215 232 255
214 232 255
214 231 255
213 231 255
213 231 255
213 231 255
212 230 255
212 230 255
211 230 255
211 230 255
211 230 255
210 229 255
210 229 255
210 229 255
209 229 255
209 229 255
209 229 255
209 229 255
208 228 255
208 228 255
208 228 255
208 228 255
207 228 255
207 228 255
207 228 255
207 227 255
206 227 255
206 227 255
206 227 255
206 227 255
206 227 255
205 227 255
205 227 255
205 227 255
205 226 255
205 226 255
204 226 255
204 226 255
204 226 255
204 226 255
203 226 255
203 226 255
203 226 255
203 226 255
203 225 253
202 224 250
204 226 255
203 226 255
203 226 255
203 226 255
203 225 255
203 225 254
202 225 255
202 225 255
204 226 255
201 224 250
200 223 248
200 224 250
200 223 248
200 223 246
202 225 255
200 223 248
198 221 246
200 224 250
200 223 249
200 223 252
200 223 250
200 223 249
200 224 250
199 223 250
200 223 250
200 223 252
200 223 249
200 223 250
199 222 248
200 224 252
201 224 255
198 221 248
200 223 249
201 224 253
200 223 250
200 223 249
199 223 249
197 221 246
200 223 250
200 224 252
199 223 250
199 223 253
198 222 250
198 222 249
199 223 253
198 222 250
198 222 250
199 223 250
198 222 250
198 222 250
198 223 253
198 223 254
197 222 249
197 222 252
197 222 252
197 222 253
197 222 252
197 222 252
197 222 250
195 220 242
196 221 248
196 221 249
196 222 253
197 222 255
198 222 254
198 223 255
196 222 254
198 222 254
198 223 255
197 222 255
196 222 255
196 222 255
197 222 255
197 222 255
197 222 255
198 223 255
198 223 255
199 223 255
199 223 255
200 224 255
201 224 255
202 225 255
202 225 255
204 226 255
205 227 255
207 227 255
209 229 255
213 231 255
216 233 255
216 233 255
216 233 255
216 233 255
216 233 255
216 233 255
216 233 255
216 233 255
216 233 255
216 233 255
216 233 255
216 233 255
216 233 255
216 233 255
216 233 255
216 232 255
216 232 255
189 207 232
61 97 159
61 97 158
62 98 152
61 97 152
61 96 151
62 98 157
62 97 151
62 98 159
62 97 153
61 97 149
62 97 156
61 96 149
63 98 153
60 95 140
62 98 162
62 97 154
62 97 150
61 97 156
61 97 153
63 98 157
62 97 153
61 95 145
62 97 150
60 96 143
62 97 150
62 97 150
59 94 135
60 96 141
61 97 153
61 96 143
61 97 151
61 95 142
62 97 150
61 97 152
61 97 153
61 97 149
61 97 147
60 95 145
61 96 150
61 96 150
62 97 156
63 98 154
61 96 145
62 97 154
61 97 150
61 96 149
61 96 144
61 95 135
61 96 149
61 96 150
61 95 147
60 96 144
61 96 142
61 97 151
61 96 150
60 95 149
61 95 149
61 96 146
59 93 141
61 96 150
61 97 149
61 96 151
61 96 148
61 96 146
62 97 155
60 94 137
60 95 139
62 97 157
60 95 146
61 97 159
61 96 151
60 95 145
60 94 144
60 95 148
60 94 139
59 93 143
61 95 152
60 94 144
61 95 143
60 94 149
61 95 145
60 94 149
61 95 149
59 93 137
59 93 139
59 91 144
60 94 153
59 93 144
59 93 147
58 90 139
60 94 150
56 88 141
56 87 135
59 91 143
55 86 134
54 84 137
183 200 226
216 232 255
216 232 255
216 233 255
216 233 255
216 233 255
192 205 219
119 117 76
118 115 77
103 103 70
97 99 69
111 112 79
104 105 74
110 110 75
104 107 77
100 104 74
105 107 74
116 118 83
123 125 87
114 116 81
119 120 83
127 127 87
114 116 82
115 117 82
120 121 84
124 124 84
122 123 84
129 127 83
129 128 84
135 134 90
136 136 89
140 139 92
136 135 86
133 133 88
147 146 99
144 143 94
140 140 92
143 142 92
147 145 96
149 147 95
156 153 97
147 145 90
160 157 99
157 154 98
155 152 96
153 149 93
161 157 99
157 153 96
160 156 97
158 154 98
160 157 93
164 160 101
161 158 97
160 156 96
164 160 96
170 165 103
160 156 99
162 158 97
167 162 102
165 160 96
167 163 97
170 165 101
168 163 101
168 162 102
170 164 100
167 162 99
167 162 98
169 164 98
171 164 100
167 163 102
168 163 101
171 166 98
175 170 104
174 168 105
168 164 95
172 166 96
176 169 102
169 164 96
170 165 99
174 167 103
174 169 104
174 168 99
171 166 101
176 170 104
173 167 101
169 164 96
171 165 100
171 165 101
173 167 99
171 166 99
170 165 96
166 161 95
170 164 97
169 164 95
168 162 91
171 164 98
173 166 99
173 166 97
168 162 93
175 168 104
174 167 99
172 166 97
169 163 97
167 161 90
174 168 97
167 161 97
172 166 97
171 164 96
170 164 97
164 158 94
170 165 95
168 162 97
170 164 97
166 160 91
167 161 93
166 161 90
171 165 95
170 164 98
171 164 97
162 157 93
168 162 96
167 161 95
170 164 99
167 160 96
163 157 87
167 161 90
165 159 92
168 161 97
171 164 97
161 155 88
164 158 89
168 160 93
169 162 98
166 160 93
165 159 86
163 157 87
157 152 84
157 151 87
165 159 90
161 155 88
160 154 88
156 151 87
159 154 88
158 152 85
165 159 95
154 148 84
152 147 86
162 155 88
164 158 90
163 158 89
163 157 86
152 147 80
215 232 255
215 232 255
214 232 255
214 231 255
213 231 255
213 231 255
212 231 255
212 230 255
212 230 255
211 230 255
211 230 255
211 230 255
211 230 255
210 229 255
210 229 255
210 229 255
210 229 255
209 229 255
209 229 255
209 229 255
209 228 255
208 228 255
208 228 255
208 228 255
208 228 255
207 228 255
207 228 255
207 228 255
207 228 255
207 227 255
206 227 255
206 227 255
206 227 255
206 227 255
206 227 255
205 227 255
205 227 255
205 227 255
205 226 255
205 226 255
204 226 255
205 226 254
203 226 254
204 226 254
205 226 255
204 226 255
204 226 254
204 226 255
204 226 255
204 226 254
204 226 255
204 226 255
204 226 255
203 226 255
202 225 252
202 225 253
202 225 252
199 222 246
201 223 249
201 224 249
200 223 244
201 223 248
201 224 249
202 224 249
201 224 248
202 224 250
201 224 252
202 224 249
202 224 250
201 223 246
202 225 253
201 224 252
201 224 250
201 224 248
200 223 250
199 222 246
201 224 250
200 223 246
202 224 252
202 225 255
202 224 253
201 223 252
201 225 254
201 224 254
201 224 252
200 223 249
201 224 252
201 224 252
200 224 252
200 223 250
200 223 250
198 221 248
200 223 252
200 224 253
199 223 248
199 223 250
199 223 250
200 224 255
199 223 250
199 223 250
199 223 250
199 223 250
198 222 249
199 223 254
198 222 252
197 222 249
197 222 250
197 222 252
196 221 246
197 221 248
198 223 255
199 223 254
198 223 255
197 222 254
199 223 255
198 223 255
198 223 255
198 223 255
198 223 255
198 223 255
198 223 255
199 223 255
199 223 255
200 224 255
200 224 255
201 224 255
201 225 255
202 225 255
203 225 255
204 226 255
205 227 255
206 227 255
208 228 255
211 230 255
216 232 255
216 233 255
216 233 255
216 233 255
216 233 255
216 233 255
216 233 255
216 233 255
216 233 255
216 233 255
216 233 255
216 233 255
216 233 255
216 233 255
216 233 255
216 233 255
216 233 255
122 145 188
61 97 154
61 97 147
60 96 153
61 96 141
62 97 155
62 98 160
61 97 152
61 97 149
61 96 144
62 97 153
61 97 143
61 97 156
62 97 153
60 95 140
61 96 150
61 97 153
62 97 148
61 97 147
62 97 159
61 96 149
62 97 157
61 97 155
61 96 143
61 97 152
62 98 152
61 97 153
62 98 156
62 98 157
61 96 149
61 96 147
61 97 142
61 97 149
62 98 156
61 97 151
61 97 154
60 95 144
61 96 148
61 96 144
62 97 148
61 96 145
62 98 157
61 97 149
62 97 145
61 95 143
62 98 151
61 96 142
61 96 147
60 95 136
61 97 152
61 96 143
60 95 137
61 97 155
62 97 153
62 96 148
61 97 153
61 95 140
62 98 154
61 96 149
60 95 141
61 96 150
60 95 141
60 96 148
61 96 151
59 94 133
59 94 146
60 95 147
61 96 147
59 94 145
60 95 148
59 94 139
60 95 151
61 96 151
61 96 153
60 95 141
62 97 152
60 95 138
60 94 141
59 94 144
60 94 139
60 93 143
61 95 148
61 95 152
60 94 145
60 93 147
61 95 143
60 93 143
59 92 139
58 92 149
59 92 151
58 90 136
58 91 136
56 88 138
58 90 134
55 86 135
56 86 135
55 85 127
147 165 195
216 233 255
216 233 255
216 233 255
216 233 255
216 233 255
144 148 135
107 105 68
109 109 72
103 103 70
100 100 68
113 114 80
109 110 78
104 108 77
108 111 81
100 101 70
96 99 71
101 105 78
112 113 77
107 109 77
110 112 79
121 122 84
111 114 81
122 123 84
136 135 89
127 127 86
125 126 85
132 133 90
132 132 91
138 137 90
139 137 89
126 126 83
142 140 91
141 140 92
145 143 93
148 146 95
145 143 93
144 142 92
144 142 87
148 146 93
154 151 96
152 150 98
156 154 96
155 152 92
157 153 93
161 158 99
153 150 94
157 153 94
163 159 100
167 163 101
159 156 98
165 161 99
166 161 96
157 155 94
163 159 97
171 166 104
169 164 102
165 161 98
166 162 98
162 158 96
164 160 99
167 162 100
172 166 102
164 159 100
165 161 93
165 161 97
171 166 101
170 165 101
170 165 101
167 162 98
167 163 93
168 162 92
169 164 96
172 167 98
174 166 100
171 165 100
173 168 100
172 166 99
170 164 92
176 170 103
169 163 98
174 168 101
168 163 94
177 170 103
170 164 98
173 166 99
175 169 101
172 166 98
172 166 96
172 166 95
171 166 102
169 163 93
172 166 97
171 165 101
172 165 96
169 164 96
173 165 95
169 164 94
167 162 97
169 163 93
169 163 95
167 162 95
170 164 92
167 162 95
164 160 92
165 159 90
168 162 91
172 166 100
173 165 97
169 163 97
167 163 95
171 165 96
165 159 94
170 164 95
169 162 95
171 165 93
167 160 89
172 166 99
170 164 97
167 162 95
164 159 90
165 159 87
172 164 97
165 160 94
165 159 93
163 156 90
157 152 81
166 160 92
168 162 97
156 151 87
162 157 87
165 159 90
160 154 91
164 159 94
159 153 88
164 157 90
162 156 87
159 152 88
161 156 92
163 156 88
158 153 87
155 149 85
161 155 91
151 145 78
160 155 87
154 149 85
165 158 91
168 160 87
156 150 87
163 156 90
151 146 84
150 145 82
215 232 255
215 232 255
214 232 255
214 231 255
213 231 255
213 231 255
213 231 255
212 231 255
212 230 255
212 230 255
212 230 255
211 230 255
211 230 255
211 230 255
211 230 255
210 229 255
210 229 255
210 229 255
210 229 255
209 229 255
209 229 255
209 229 255
209 229 255
209 228 255
208 228 255
208 228 255
208 228 255
208 228 255
208 228 255
207 228 255
207 228 255
207 228 255
207 228 255
207 227 255
206 227 255
206 227 255
206 227 255
206 227 255
206 227 255
206 227 255
206 227 255
206 227 254
206 227 255
204 226 254
205 227 255
205 226 254
205 226 254
205 227 254
205 227 254
206 227 255
205 227 255
206 227 255
204 226 254
203 225 249
202 224 246
203 225 250
203 225 253
204 226 253
203 225 252
202 224 248
204 226 253
201 223 245
202 224 248
202 224 246
203 225 252
200 222 245
202 224 250
203 225 252
201 223 250
203 225 250
202 224 249
201 223 245
204 226 254
202 224 246
203 225 250
202 225 252
201 223 246
203 225 252
203 225 249
200 222 242
202 224 249
200 222 248
201 223 250
202 224 250
201 224 249
202 224 250
202 224 252
202 225 250
201 224 249
202 225 254
201 224 252
201 223 249
202 225 254
200 223 245
200 223 249
201 224 250
200 223 252
200 223 249
200 223 250
200 223 249
200 223 252
200 223 250
200 223 252
199 223 250
199 223 250
199 223 250
199 222 248
199 223 250
199 223 253
198 222 248
199 223 253
201 224 255
199 223 254
200 224 255
199 223 253
199 223 255
199 223 254
199 223 255
192 216 250
167 191 231
167 191 232
174 198 238
174 198 237
199 222 254
201 224 255
202 225 255
202 225 255
203 225 255
203 226 255
204 226 255
205 227 255
206 227 255
208 228 255
210 229 255
214 231 255
217 233 255
217 233 255
217 233 255
217 233 255
217 233 255
217 233 255
217 233 255
216 233 255
216 233 255
216 233 255
216 233 255
216 233 255
216 233 255
216 233 255
216 233 255
210 227 252
70 103 157
60 96 154
61 97 153
60 96 152
60 95 144
60 96 141
61 96 148
61 96 147
61 96 151
61 96 150
61 97 152
61 96 144
62 97 151
60 95 143
61 97 152
62 98 156
61 97 149
61 97 155
60 96 148
60 96 144
61 97 150
63 98 159
60 95 143
61 97 150
60 96 147
62 97 153
60 95 145
62 97 153
61 96 142
60 96 145
62 97 144
61 97 149
62 97 147
61 96 150
62 97 151
60 96 144
61 97 149
60 95 142
61 96 142
62 97 141
62 97 149
60 95 141
61 96 142
62 98 158
61 97 149
61 96 151
61 96 151
61 96 148
61 96 141
61 97 145
61 97 152
62 98 158
61 96 148
60 95 139
61 97 145
61 96 148
61 97 146
62 97 155
61 97 151
61 97 150
61 96 150
60 95 141
62 97 151
61 95 144
60 94 145
61 96 152
62 97 153
60 95 146
61 97 151
61 96 152
59 94 149
61 96 148
60 95 145
59 93 134
60 95 144
61 96 147
60 95 147
60 95 154
59 93 142
59 94 149
59 93 133
58 91 135
60 93 145
59 92 142
60 94 149
60 93 145
61 95 149
60 94 147
59 93 148
59 92 140
57 90 141
58 91 132
58 91 137
58 91 146
54 83 130
57 88 138
54 84 125
58 86 136
211 228 250
216 233 255
216 233 255
216 233 255
206 220 238
119 117 79
112 110 73
102 103 72
96 98 69
103 103 71
101 103 72
114 115 82
96 98 69
98 101 73
104 107 76
109 110 78
105 108 77
119 121 84
111 113 78
98 101 72
110 112 79
121 122 83
110 113 81
118 120 83
124 125 85
130 130 85
119 121 83
132 130 85
137 136 91
135 134 89
131 131 88
128 128 80
127 126 80
144 142 91
152 150 97
143 141 89
141 141 90
153 150 94
150 147 94
154 152 96
153 150 92
151 148 92
149 147 90
146 143 92
158 155 96
162 157 98
155 151 93
159 155 92
159 155 96
161 157 95
158 154 95
162 157 96
164 159 99
155 153 96
164 160 100
162 159 96
161 157 94
172 167 102
170 164 99
168 163 101
167 162 99
169 163 99
171 165 101
167 162 98
167 161 95
169 164 98
165 161 94
167 162 96
173 167 99
171 166 98
173 167 103
167 161 95
171 166 98
171 166 99
173 167 101
174 168 96
172 167 96
174 169 100
172 165 99
173 167 97
177 170 100
165 162 93
171 166 94
172 166 98
175 168 99
171 165 100
171 165 93
171 165 97
169 163 92
172 167 98
174 167 101
174 167 96
175 168 100
171 165 101
173 167 101
166 160 97
173 167 97
168 163 93
171 164 90
172 165 97
164 159 88
173 165 99
171 165 96
168 163 95
172 165 97
166 160 95
168 162 93
172 165 97
165 160 94
163 158 92
169 163 92
168 162 97
168 162 94
168 162 90
171 164 94
170 163 97
168 162 94
165 159 93
164 158 87
170 163 99
162 157 90
165 160 90
167 161 92
166 158 93
170 163 95
162 157 90
165 160 93
163 157 93
163 157 87
162 156 88
167 162 96
158 153 87
157 152 87
163 157 85
166 161 93
164 157 93
162 156 80
162 156 90
161 155 93
158 153 87
158 152 85
155 150 84
161 155 93
159 153 90
159 153 94
157 152 88
160 155 84
159 154 82
159 154 84
153 147 86
156 152 80
215 232 255
215 232 255
214 232 255
214 232 255
214 231 255
213 231 255
213 231 255
213 231 255
213 231 255
212 231 255
212 230 255
212 230 255
212 230 255
211 230 255
211 230 255
211 230 255
211 230 255
210 230 255
210 229 255
210 229 255
210 229 255
210 229 255
210 229 255
209 229 255
209 229 255
209 229 255
209 229 255
209 228 255
208 228 255
208 228 255
208 228 255
208 228 255
208 228 255
207 228 255
207 228 255
207 228 255
207 228 255
207 228 255
207 227 255
207 227 255
206 227 254
207 227 255
207 228 255
206 227 254
206 227 254
205 227 253
206 227 254
207 227 255
206 227 255
206 227 255
206 227 254
206 227 254
204 226 250
203 225 246
203 225 248
204 226 250
204 225 248
204 225 249
204 225 250
204 225 248
205 226 253
203 225 249
204 226 252
203 225 249
204 226 252
204 226 253
204 226 252
204 226 252
205 226 254
203 225 249
204 225 249
204 225 249
204 225 253
205 226 255
203 225 252
204 226 253
203 225 250
203 225 248
203 225 250
204 225 253
203 225 252
202 224 249
204 226 253
204 226 253
204 226 253
203 224 252
203 225 253
202 224 249
203 225 252
203 225 254
202 224 253
202 224 248
202 224 249
202 224 249
203 225 253
202 224 250
203 225 253
202 224 250
203 225 254
202 225 254
199 222 242
201 224 249
200 223 248
201 224 249
201 224 253
200 224 249
201 224 252
201 224 252
200 223 250
201 224 255
200 223 250
198 222 249
201 225 255
201 224 255
201 224 253
201 224 255
200 224 255
198 222 253
117 144 199
62 99 175
63 100 177
62 99 172
62 99 171
62 98 174
120 147 202
169 193 233
202 225 255
203 226 255
204 226 255
205 226 255
206 227 255
207 228 255
208 228 255
210 229 255
212 230 255
216 233 255
217 233 255
217 233 255
217 233 255
217 233 255
217 233 255
217 233 255
217 233 255
217 233 255
217 233 255
217 233 255
217 233 255
217 233 255
217 233 255
217 233 255
174 193 222
62 97 156
61 96 150
60 96 145
61 96 149
62 97 152
61 96 150
61 96 144
61 96 147
61 97 149
60 96 143
62 97 154
60 95 141
60 96 144
61 96 148
60 95 140
62 97 156
62 97 151
61 96 143
61 96 152
61 97 152
62 98 156
60 95 142
61 96 143
61 96 148
61 96 148
61 97 150
62 98 152
61 96 144
62 97 154
61 96 147
62 97 148
61 97 153
62 97 152
62 97 148
63 98 154
61 96 149
60 96 147
61 97 148
60 96 145
61 96 150
60 95 139
61 97 148
60 95 141
61 96 149
62 97 153
61 95 145
61 96 142
61 96 147
61 96 140
62 97 152
61 97 150
62 97 150
61 96 149
61 96 141
61 95 148
59 94 144
60 94 137
60 95 141
61 95 146
60 95 147
60 94 135
61 95 150
59 94 150
60 95 149
61 96 150
60 95 145
60 95 145
60 95 139
60 95 145
60 95 148
60 94 139
60 95 150
60 95 143
61 95 152
60 94 140
61 96 148
60 95 139
60 94 142
60 95 148
62 96 155
59 93 137
60 94 142
58 90 130
59 93 145
60 94 142
60 94 141
61 94 149
59 93 146
60 93 145
59 92 139
57 89 141
57 89 142
59 91 131
59 91 146
57 89 139
56 87 134
54 84 128
56 87 135
180 196 219
217 233 255
217 233 255
217 233 255
176 184 185
104 104 70
97 98 65
98 99 68
98 99 68
85 87 61
95 98 70
83 88 65
94 97 68
90 94 69
86 91 69
97 101 72
88 93 71
105 107 76
111 113 77
114 116 83
108 110 76
119 119 79
112 113 79
126 127 83
115 117 77
118 120 83
125 125 83
125 125 82
134 134 91
125 125 83
124 124 82
131 131 84
135 135 87
138 137 86
144 142 91
141 140 89
147 145 91
148 147 95
142 140 91
151 149 95
148 146 88
153 149 90
153 150 90
153 150 88
158 154 97
159 156 98
162 158 101
157 153 96
160 157 98
156 152 94
163 159 96
165 160 99
163 159 99
160 156 96
166 161 97
165 161 96
158 156 96
168 163 98
167 162 100
166 161 97
174 168 102
171 165 98
173 167 100
167 162 96
168 163 96
168 163 97
173 167 100
171 165 99
173 166 100
171 166 100
167 163 95
171 165 94
175 168 101
170 164 97
173 167 98
169 164 97
172 167 100
167 162 94
173 167 99
169 163 95
174 167 97
174 167 99
169 163 99
176 169 97
170 165 98
171 165 97
170 164 95
169 164 93
172 165 97
171 166 96
173 166 97
172 165 96
167 162 93
169 163 94
174 167 99
171 165 97
169 163 95
168 162 95
172 166 95
169 163 94
171 165 97
171 164 97
165 160 92
167 161 93
173 166 95
169 162 95
177 170 103
165 160 90
175 168 98
173 166 99
173 167 97
166 161 91
167 160 93
163 158 89
163 158 90
172 165 99
173 166 95
168 162 93
171 164 93
166 159 91
164 158 89
166 160 90
165 160 90
166 159 92
170 163 90
163 158 88
164 158 91
162 156 89
161 155 86
167 161 90
163 157 88
161 155 87
161 154 87
159 153 84
167 160 93
160 155 84
156 151 86
166 160 95
162 156 91
162 155 88
152 147 83
164 158 90
158 153 83
158 153 84
160 155 90
158 153 85
156 149 85
159 154 89
151 147 85
158 153 80
154 148 87
216 232 255
215 232 255
215 232 255
214 232 255
214 232 255
214 231 255
214 231 255
213 231 255
213 231 255
213 231 255
213 231 255
212 231 255
212 230 255
212 230 255
212 230 255
212 230 255
211 230 255
211 230 255
211 230 255
211 230 255
211 230 255
210 229 255
210 229 255
210 229 255
210 229 255
210 229 255
209 229 255
209 229 255
209 229 255
209 229 255
209 229 255
209 229 255
209 228 255
208 228 255
208 228 255
208 228 255
208 228 255
208 228 255
208 228 255
209 228 255
208 228 254
208 228 255
207 228 254
207 227 253
207 227 254
208 228 255
207 228 255
207 228 254
208 228 255
207 228 255
207 228 255
205 226 249
205 226 250
205 226 250
205 226 248
205 226 249
206 227 253
205 226 250
205 226 250
204 225 250
206 227 254
206 227 253
205 226 249
206 227 252
205 226 249
205 226 250
205 226 250
206 227 254
206 227 253
203 224 246
205 226 252
205 226 252
204 225 248
206 227 253
204 225 250
206 227 254
205 226 252
204 225 250
206 227 254
204 225 250
204 225 250
205 227 254
205 226 252
204 225 252
204 225 250
204 225 252
203 224 249
204 225 250
203 225 249
204 226 253
204 225 249
203 224 248
205 226 255
204 225 250
204 226 254
202 224 250
204 225 252
203 225 249
202 224 250
203 225 252
204 226 253
202 225 249
203 225 252
203 225 253
202 225 252
202 225 252
201 223 245
202 225 253
201 224 249
202 225 254
201 224 249
200 223 246
200 223 249
203 226 255
202 225 255
200 223 253
199 222 253
196 219 248
181 205 239
65 101 172
62 99 170
61 97 161
61 97 167
62 98 172
62 98 170
62 98 171
100 128 191
184 206 240
205 227 255
206 227 255
206 227 255
207 228 255
208 228 255
210 229 255
211 230 255
215 232 255
217 233 255
217 233 255
217 233 255
217 233 255
217 233 255
217 233 255
217 233 255
217 233 255
217 233 255
217 233 255
217 233 255
217 233 255
217 233 255
217 233 255
139 159 193
60 95 141
60 95 145
61 96 145
61 96 156
60 95 150
61 97 149
61 97 152
61 97 152
61 96 151
61 97 153
61 97 154
61 97 155
60 95 141
61 96 150
61 96 153
61 96 151
62 97 153
63 99 162
59 94 137
61 96 142
61 96 144
59 93 125
61 96 145
61 96 144
61 96 144
61 97 142
60 95 142
63 98 158
62 97 147
61 97 151
61 96 145
60 95 144
62 97 154
62 98 157
61 96 153
62 97 150
60 95 144
61 96 147
60 95 139
63 98 157
60 95 143
61 97 150
61 96 145
61 96 142
61 97 152
61 96 141
60 95 139
62 97 152
61 97 150
60 95 137
61 96 152
61 96 147
61 96 142
61 96 145
61 96 143
62 97 150
60 95 145
62 97 147
61 96 144
61 96 143
61 96 151
61 96 153
60 95 148
61 96 150
61 96 148
61 96 148
59 94 139
61 95 147
61 96 149
61 97 151
61 97 156
59 94 148
60 95 145
61 96 150
59 94 142
61 95 146
61 95 152
60 94 142
60 95 147
58 92 132
60 94 139
60 94 139
60 94 143
59 92 139
59 92 146
57 90 134
59 93 144
59 92 137
59 92 127
58 90 135
58 91 139
57 89 139
58 90 143
57 89 135
57 88 131
57 88 135
54 84 128
53 82 123
142 159 184
217 233 255
217 233 255
217 233 255
141 141 115
99 99 67
96 96 66
105 105 72
93 93 64
105 106 75
89 91 63
86 90 67
102 104 73
103 105 75
101 104 73
86 90 64
98 101 73
91 95 68
101 104 73
115 116 78
104 107 75
110 112 79
124 125 84
113 114 76
118 118 79
124 125 86
106 109 72
127 127 84
125 126 81
128 128 86
127 127 79
136 135 87
136 135 84
133 134 87
144 143 92
137 135 85
140 138 85
151 148 87
149 146 89
149 146 94
152 150 93
144 143 94
156 152 96
151 149 87
160 156 94
159 155 96
152 149 86
157 153 96
159 156 93
151 148 91
162 158 98
161 156 90
164 160 97
164 159 91
161 156 93
167 162 97
165 160 95
166 161 96
166 161 97
166 161 98
168 162 91
160 156 90
168 163 96
173 166 98
171 166 100
169 163 97
168 162 90
171 165 99
174 167 96
170 164 94
170 164 94
169 163 96
173 167 98
173 167 100
174 167 102
172 166 99
171 166 93
174 167 96
164 161 90
175 168 99
170 165 97
172 166 92
175 168 97
171 165 93
167 163 91
173 167 97
175 169 100
171 166 93
174 167 93
172 166 96
173 167 97
166 161 93
170 164 91
177 169 100
171 164 97
169 164 93
167 162 93
165 159 91
169 164 95
170 164 95
170 163 94
168 161 93
170 164 93
171 164 96
170 164 93
167 160 90
167 161 91
172 165 95
166 160 94
167 161 93
172 166 97
172 165 99
164 158 93
171 164 91
165 159 91
166 160 90
168 163 90
170 164 94
169 163 88
165 158 92
163 156 90
167 161 93
161 155 90
169 163 93
160 155 82
168 161 97
173 166 93
162 157 89
163 156 86
167 161 91
166 160 93
162 156 90
158 152 84
162 155 88
157 152 89
167 160 92
161 155 90
158 153 83
155 149 86
155 149 82
165 158 92
158 152 84
163 156 88
157 151 86
163 156 86
160 154 85
162 156 87
157 151 87
151 146 81
159 153 90
148 142 77
216 232 255
215 232 255
215 232 255
215 232 255
215 232 255
214 232 255
214 232 255
214 231 255
214 231 255
213 231 255
213 231 255
213 231 255
213 231 255
213 231 255
212 231 255
212 230 255
212 230 255
212 230 255
212 230 255
211 230 255
211 230 255
211 230 255
211 230 255
211 230 255
211 230 255
210 230 255
210 229 255
210 229 255
210 229 255
210 229 255
210 229 255
209 229 255
209 229 255
209 229 255
209 229 255
209 229 255
209 229 255
209 229 255
209 229 255
208 228 254
209 228 255
208 228 255
209 229 255
209 229 255
209 228 255
208 228 255
208 228 254
209 229 255
208 228 253
209 228 255
206 226 249
206 227 250
205 226 245
207 227 252
207 227 252
206 227 249
207 227 252
206 227 250
206 227 249
207 227 252
206 226 249
207 227 252
204 224 244
206 227 252
206 227 250
205 226 249
206 226 252
205 226 245
206 226 249
207 227 253
205 226 250
206 227 253
206 226 250
205 225 252
207 227 254
205 225 252
206 227 252
204 225 246
206 226 253
206 227 253
205 226 249
207 227 254
206 227 253
207 227 255
206 226 252
205 226 250
206 226 252
206 227 255
204 225 250
204 225 249
205 226 250
205 226 252
205 226 250
205 226 252
205 226 249
202 223 238
205 226 249
205 226 250
204 226 249
204 226 250
203 225 250
205 226 254
204 226 252
204 225 250
204 226 252
204 226 253
203 225 252
203 225 250
203 225 249
203 226 254
203 225 253
202 224 246
203 225 253
203 225 255
202 224 254
199 221 252
201 223 251
199 221 252
197 219 249
148 172 217
63 99 171
61 97 165
61 98 163
62 99 173
62 98 167
62 98 169
61 98 165
62 98 165
145 169 211
206 227 255
207 228 255
208 228 255
209 229 255
210 229 255
211 230 255
214 231 255
217 233 255
217 233 255
217 233 255
217 233 255
217 233 255
217 233 255
217 233 255
217 233 255
217 233 255
217 233 255
217 233 255
217 233 255
217 233 255
217 233 255
96 123 169
61 97 153
60 96 150
61 96 148
60 95 145
62 97 155
61 97 157
60 96 144
61 96 149
62 98 155
62 97 154
62 97 144
60 95 140
61 97 152
61 96 145
61 97 148
61 96 154
61 96 145
60 95 147
61 96 145
61 96 141
60 96 136
61 97 148
61 97 145
61 96 147
60 95 144
60 95 137
61 96 147
61 96 145
60 95 142
61 96 151
61 96 141
60 95 131
61 97 153
61 96 139
60 95 139
61 96 144
61 95 142
59 94 134
61 96 143
61 97 148
61 97 148
61 96 149
61 96 144
60 95 145
60 95 136
61 97 141
61 96 143
61 95 142
60 95 137
62 97 148
60 95 150
60 95 142
61 97 153
60 94 140
61 96 143
61 97 147
60 95 138
61 96 149
59 94 136
61 96 150
62 97 149
61 96 141
62 97 147
62 98 151
60 95 134
60 95 143
59 92 140
61 96 153
61 96 149
61 96 148
59 93 139
61 96 151
61 96 149
60 95 146
59 94 145
60 95 140
60 95 146
60 95 138
60 94 144
60 95 148
58 92 141
59 93 135
60 94 147
60 93 142
59 93 146
58 92 142
60 93 149
59 93 145
58 91 135
58 90 131
59 92 143
60 94 146
59 92 136
58 90 138
56 88 135
54 84 112
54 84 127
54 83 128
92 112 144
217 233 255
217 233 255
204 218 234
101 99 62
88 87 57
98 98 66
79 81 56
95 95 65
77 80 56
79 83 62
86 89 64
88 92 66
93 96 69
95 98 69
99 102 73
106 109 78
102 105 75
104 106 73
110 113 76
112 113 78
111 112 76
111 113 76
118 120 83
114 116 78
116 117 79
120 120 77
128 128 85
129 128 86
119 120 76
135 134 86
139 137 90
138 137 87
148 146 94
137 136 89
141 139 89
135 134 83
153 150 91
152 149 91
145 143 88
146 145 89
151 148 93
158 154 93
152 149 94
150 147 88
157 152 94
159 155 97
159 154 88
163 158 98
160 156 97
161 157 93
164 160 96
159 156 94
164 160 96
166 161 96
163 159 94
165 161 96
166 160 95
163 159 93
165 160 91
163 159 89
172 166 102
166 161 90
169 164 101
169 164 98
167 162 91
166 162 94
171 165 101
174 168 102
171 165 99
164 159 96
174 168 99
165 159 94
169 163 93
173 167 100
172 166 95
174 168 103
173 166 96
169 164 95
174 168 98
169 163 94
169 162 95
168 163 94
170 165 92
170 163 96
171 165 90
173 166 97
171 165 92
165 160 88
172 166 96
171 165 91
175 169 104
173 167 96
171 167 93
168 163 90
170 164 91
173 166 96
169 164 96
174 167 98
173 166 97
169 163 95
164 159 82
164 159 90
171 164 99
167 161 95
170 164 93
170 165 92
162 157 83
168 162 91
166 160 88
170 164 95
168 162 87
170 164 93
171 164 94
168 161 90
165 160 93
161 156 87
168 162 96
165 158 88
168 160 94
166 159 87
167 162 94
166 160 95
158 152 86
164 158 89
166 159 87
167 160 90
166 160 89
167 162 94
163 157 92
168 161 93
163 157 89
165 157 91
161 155 87
158 152 84
165 159 90
165 158 91
161 155 90
157 150 83
166 159 92
163 156 87
156 150 85
157 151 85
161 155 90
160 154 86
156 151 80
155 149 85
158 153 84
159 153 87
162 155 87
150 144 78
216 233 255
216 232 255
216 232 255
215 232 255
215 232 255
215 232 255
215 232 255
214 232 255
214 232 255
214 231 255
214 231 255
213 231 255
213 231 255
213 231 255
213 231 255
213 231 255
213 231 255
212 231 255
212 231 255
212 230 255
212 230 255
212 230 255
212 230 255
212 230 255
211 230 255
211 230 255
211 230 255
211 230 255
211 230 255
211 230 255
211 230 255
210 229 255
210 229 255
210 229 255
210 229 255
210 229 255
210 229 255
210 229 255
210 229 255
209 229 255
209 229 255
209 229 255
210 229 255
209 229 254
209 229 255
210 229 255
210 229 255
210 229 255
210 229 255
209 229 255
208 228 252
206 226 244
208 227 250
207 227 249
208 228 252
206 226 250
207 227 248
206 226 248
208 228 253
207 227 254
207 227 249
208 228 253
208 228 252
207 227 250
208 228 252
207 227 250
208 228 253
206 226 248
206 226 246
208 228 252
208 228 254
207 227 250
206 226 250
208 228 253
207 227 252
205 225 246
206 226 249
206 226 249
206 226 250
207 227 252
207 227 253
206 226 249
207 228 254
205 225 249
207 227 252
203 223 242
205 226 250
207 227 254
206 227 253
206 226 253
204 224 248
205 225 248
206 227 253
207 227 252
207 227 254
205 226 246
205 225 246
207 227 254
206 226 252
205 226 249
205 226 248
205 225 250
206 227 253
205 226 250
206 227 254
206 227 254
205 226 252
205 226 250
205 226 252
203 224 245
203 224 248
204 225 249
199 221 244
200 221 246
201 223 249
200 222 251
199 221 252
197 219 248
195 217 248
190 212 244
94 123 181
62 98 164
61 97 167
62 98 163
62 98 165
61 97 164
61 97 165
62 98 166
62 98 169
144 167 210
208 228 255
208 228 255
209 229 255
210 229 255
211 230 255
213 231 255
217 233 255
218 234 255
218 234 255
218 234 255
218 234 255
218 234 255
218 234 255
218 234 255
218 234 255
218 234 255
218 234 255
218 234 255
218 234 255
205 221 244
61 97 154
60 95 144
60 95 145
60 95 144
61 97 147
60 95 143
59 94 140
61 96 147
60 95 143
59 94 136
61 97 148
60 96 145
61 97 150
61 96 143
61 95 142
62 97 147
60 95 137
61 96 143
61 96 143
61 96 148
60 94 133
61 97 145
60 95 139
60 94 128
61 96 143
60 95 134
60 95 139
60 95 140
60 95 141
61 96 142
61 96 135
61 96 150
60 95 141
61 96 145
61 97 149
62 97 153
61 96 144
60 94 136
61 96 148
62 97 152
61 96 144
62 97 148
61 96 147
60 95 140
61 97 150
60 95 136
61 97 144
60 95 140
60 95 141
62 97 147
60 95 140
60 95 137
61 96 136
61 96 147
61 96 135
62 98 158
61 96 142
61 97 153
62 97 154
61 96 144
61 96 151
61 95 143
60 94 138
60 94 140
61 96 150
60 95 141
60 95 142
61 96 143
61 96 149
60 95 140
60 94 138
61 95 142
60 94 139
60 95 142
60 94 139
60 94 142
60 94 143
60 95 143
61 95 139
60 95 146
60 94 143
61 96 150
59 92 135
60 94 138
58 91 133
58 90 128
59 93 139
58 91 136
59 91 134
59 93 139
58 91 132
57 88 129
55 86 114
57 88 131
57 89 141
56 86 132
55 85 125
57 88 127
53 81 118
51 79 119
205 221 243
218 233 255
171 179 181
104 104 67
94 93 63
92 93 64
86 89 65
79 81 57
79 84 62
89 91 64
101 103 72
81 85 63
84 89 65
92 95 67
81 86 62
99 102 72
104 107 73
91 96 68
95 99 70
115 116 77
112 114 76
100 103 72
128 127 82
120 121 83
129 130 85
122 123 80
134 132 84
132 131 83
128 128 81
126 126 80
138 137 88
133 132 85
136 136 86
132 131 83
142 140 88
146 144 88
145 142 85
147 144 87
143 140 84
147 145 91
154 151 95
153 150 92
158 153 94
148 145 86
153 150 90
159 156 96
160 156 91
158 154 92
166 161 100
159 155 92
159 154 89
162 157 94
164 159 96
165 160 97
169 163 95
164 159 92
166 160 94
171 165 100
163 158 95
171 165 95
168 163 98
170 164 97
171 165 95
170 165 99
167 162 95
169 164 95
170 164 96
171 165 96
170 163 91
175 169 102
172 166 95
169 164 93
172 166 96
169 163 92
172 166 93
174 167 96
170 164 94
168 163 94
171 165 94
171 165 95
173 167 97
170 164 91
171 166 97
177 169 98
170 164 93
174 168 100
173 167 98
173 167 95
170 165 93
171 166 96
169 163 93
170 164 93
172 165 93
172 166 98
172 166 97
173 167 96
168 163 94
170 163 93
167 160 90
175 167 99
170 164 92
174 167 90
170 163 92
167 162 89
171 165 94
171 164 93
169 162 95
170 163 88
168 162 89
171 165 95
164 158 86
166 160 86
166 160 90
168 162 90
170 163 94
167 161 84
164 158 86
168 162 92
168 161 87
167 161 89
168 162 90
166 159 93
167 161 88
159 153 87
158 152 75
166 160 89
165 159 90
158 153 84
160 155 84
163 157 84
164 158 90
166 159 90
163 157 88
163 158 90
161 154 90
167 161 92
168 161 91
161 155 84
167 161 93
157 151 87
161 155 88
168 161 94
166 159 89
163 157 88
158 152 83
151 145 83
157 152 85
164 157 85
161 154 89
156 150 80
216 233 255
216 233 255
216 233 255
216 232 255
215 232 255
215 232 255
215 232 255
215 232 255
215 232 255
214 232 255
214 232 255
214 232 255
214 231 255
214 231 255
214 231 255
213 231 255
213 231 255
213 231 255
213 231 255
213 231 255
213 231 255
213 231 255
212 231 255
212 231 255
212 230 255
212 230 255
212 230 255
212 230 255
212 230 255
211 230 255
211 230 255
211 230 255
211 230 255
211 230 255
211 230 255
211 230 255
211 230 255
211 230 255
211 230 255
211 230 255
210 229 253
210 230 255
210 229 253
211 230 255
210 230 255
211 230 255
211 230 255
210 230 255
211 230 255
209 228 249
208 228 249
207 226 249
209 228 252
207 226 247
208 227 250
207 227 249
207 226 244
208 227 250
208 227 250
209 229 254
209 229 253
208 228 249
208 228 249
208 228 249
209 229 253
208 228 252
207 227 248
208 228 252
208 227 250
208 228 249
208 228 253
207 227 252
209 229 254
207 227 248
207 227 250
208 227 253
209 228 254
208 227 250
207 227 250
207 227 249
209 228 253
208 228 254
207 227 249
208 228 252
208 228 253
208 228 252
207 227 249
208 228 252
207 227 250
207 227 249
208 228 253
206 226 249
207 227 252
207 227 250
208 228 254
208 228 254
207 228 252
206 227 249
206 227 248
207 227 252
207 227 252
206 226 248
206 227 249
207 227 252
207 227 252
205 226 246
206 226 249
206 227 252
206 226 250
206 227 254
206 227 253
203 224 249
199 220 246
202 223 242
195 216 243
204 225 254
202 223 252
204 225 254
200 221 250
201 222 251
151 174 214
60 96 163
60 96 164
61 97 165
60 96 155
61 97 165
62 98 169
60 96 157
60 96 159
60 96 166
153 175 213
209 229 255
210 229 255
211 230 255
212 230 255
213 231 255
215 232 255
218 234 255
218 234 255
218 234 255
218 234 255
218 234 255
218 234 255
218 234 255
218 234 255
218 234 255
218 234 255
218 234 255
218 234 255
167 185 212
60 95 151
61 96 151
61 96 149
61 97 153
60 96 145
61 96 144
59 94 139
60 95 140
60 96 144
61 96 141
61 96 145
61 97 151
61 96 145
60 96 141
60 95 137
61 96 142
62 98 152
62 97 154
60 95 139
61 96 137
61 96 148
60 95 141
61 96 140
61 97 148
61 97 155
60 96 145
61 96 145
61 96 144
62 96 148
59 94 135
62 97 148
60 95 130
61 96 148
61 96 149
62 97 149
62 97 148
61 96 139
60 94 140
61 97 145
61 97 149
61 96 147
61 96 144
61 97 151
60 94 135
61 96 149
60 95 143
61 96 144
60 95 142
62 97 149
61 97 149
61 97 152
61 96 147
59 94 135
59 94 131
61 96 140
59 94 135
60 95 142
62 97 143
60 95 144
61 97 144
60 95 144
59 93 129
59 93 134
60 95 141
60 94 134
60 95 145
60 95 141
61 97 146
61 96 142
60 94 142
61 96 146
59 92 117
61 95 144
61 96 149
61 97 151
62 96 153
61 96 141
59 93 138
60 94 140
59 93 136
60 94 141
59 92 137
60 93 137
61 94 144
60 94 147
60 94 142
57 89 134
58 92 133
60 93 137
59 92 134
59 92 145
58 91 136
59 92 141
57 90 133
55 86 130
55 86 125
56 86 123
53 83 127
55 85 122
53 81 114
177 192 215
218 234 255
131 134 117
89 90 61
87 88 61
99 99 66
73 76 54
74 78 56
87 89 62
71 76 57
74 79 59
87 91 65
85 89 63
81 86 61
83 87 62
101 104 73
92 97 71
88 92 63
100 102 69
108 109 74
110 111 74
124 124 83
117 118 78
115 116 76
116 117 80
129 128 83
125 126 80
118 118 80
130 129 82
139 138 81
123 122 77
135 133 85
135 133 82
146 145 93
139 137 89
144 143 89
145 143 87
150 147 88
142 139 85
153 149 90
154 149 93
149 146 89
159 156 90
154 150 93
154 151 90
156 152 94
159 155 94
157 153 91
159 154 91
162 157 95
165 160 93
156 152 89
161 156 90
158 154 84
166 161 99
164 159 91
162 157 89
167 161 93
165 160 90
167 162 92
168 164 98
172 166 100
169 164 99
168 163 95
168 163 90
168 163 90
167 161 89
162 158 87
172 165 97
172 166 96
171 165 99
171 165 94
171 165 100
173 166 91
172 165 96
171 165 94
172 165 96
168 162 93
171 165 93
170 165 95
172 166 96
172 166 91
174 168 99
169 162 94
171 165 96
168 162 89
169 162 91
175 168 95
171 164 93
171 165 93
174 167 97
172 166 91
167 162 85
171 164 95
170 165 89
170 164 95
165 158 93
164 159 89
175 168 97
174 167 97
173 167 97
174 168 97
170 163 91
166 160 87
172 166 96
168 163 95
169 163 87
166 159 89
164 158 86
167 160 90
171 165 92
169 163 87
170 163 93
166 160 92
165 159 90
168 162 90
166 160 91
167 160 90
168 162 96
167 160 88
161 156 87
168 162 87
162 155 87
164 157 89
171 165 92
161 156 89
166 160 89
166 159 93
165 158 88
165 159 87
165 159 92
171 164 95
157 151 78
166 159 90
163 157 84
156 151 84
162 156 84
169 162 91
165 158 90
160 154 86
161 155 82
164 158 88
159 153 88
153 148 78
164 158 85
162 156 86
162 156 87
155 150 83
164 159 85
156 150 81
217 233 255
217 233 255
216 233 255
216 233 255
216 233 255
216 232 255
216 232 255
215 232 255
215 232 255
215 232 255
215 232 255
215 232 255
215 232 255
214 232 255
214 232 255
214 232 255
214 231 255
214 231 255
214 231 255
214 231 255
214 231 255
213 231 255
213 231 255
213 231 255
213 231 255
213 231 255
213 231 255
213 231 255
212 231 255
212 231 255
212 231 255
212 230 255
212 230 255
212 230 255
212 230 255
212 230 255
212 230 255
212 230 254
211 230 254
212 230 254
211 230 254
211 229 253
211 230 255
211 229 252
211 230 255
212 230 255
211 230 254
212 230 255
212 230 255
209 228 249
210 229 252
211 230 254
209 228 249
209 228 248
209 228 249
210 229 253
209 228 249
209 228 249
209 228 250
210 229 254
210 229 252
210 229 253
210 229 253
210 229 252
209 228 252
209 228 252
208 228 248
209 228 250
208 227 249
210 229 253
208 227 246
210 229 254
208 227 250
210 229 253
210 229 252
209 228 250
210 229 252
208 227 252
210 229 255
210 229 254
210 229 254
209 228 252
209 228 250
208 227 249
208 227 250
208 228 252
209 228 253
209 228 252
206 226 249
210 229 254
208 228 249
208 227 248
208 227 250
209 228 252
208 227 246
209 229 253
209 229 253
208 228 252
208 227 249
209 228 254
209 229 254
208 228 250
207 227 248
207 227 250
208 228 252
208 228 253
207 227 249
205 225 244
206 227 248
207 227 252
206 226 249
204 224 246
203 223 248
202 223 248
204 224 250
200 220 248
203 223 252
206 226 254
205 226 254
204 225 251
182 203 237
101 128 186
62 98 167
61 97 158
61 97 156
61 97 163
61 97 162
60 96 158
61 97 161
60 96 161
61 97 159
177 197 230
211 230 255
211 230 255
212 231 255
213 231 255
215 232 255
218 234 255
218 234 255
218 234 255
218 234 255
218 234 255
218 234 255
218 234 255
218 234 255
218 234 255
218 234 255
218 234 255
218 234 255
147 167 198
59 94 146
60 95 135
59 94 139
59 94 140
60 95 137
61 97 154
59 93 134
61 97 145
60 94 144
61 96 144
61 96 142
62 97 153
61 97 148
62 97 147
61 97 147
60 94 139
61 96 137
61 95 144
60 96 147
61 96 144
61 96 142
60 96 145
61 96 141
61 96 145
60 95 143
60 96 142
60 95 136
59 94 134
60 94 140
62 97 143
61 96 145
60 95 150
60 95 139
61 96 143
61 96 148
60 94 139
60 95 151
60 96 143
61 96 140
62 98 152
60 95 137
61 96 141
62 97 145
60 94 142
61 95 144
61 96 142
60 95 142
61 95 148
62 97 150
59 94 133
59 94 139
60 95 137
61 96 146
61 96 144
61 96 143
59 94 137
60 95 139
59 93 137
60 95 138
61 96 145
59 94 133
59 94 141
60 94 139
61 96 152
62 97 144
59 94 141
60 95 142
61 96 147
61 95 143
61 96 140
60 94 142
59 93 142
60 94 137
60 94 136
60 95 143
60 95 147
60 95 135
60 95 139
60 94 141
61 95 151
60 94 141
60 93 140
61 95 140
60 94 150
58 91 136
59 92 138
58 91 129
59 92 129
59 92 137
58 90 135
57 89 127
57 89 132
58 90 133
58 91 140
55 86 124
55 86 129
56 86 135
55 85 121
49 76 108
52 79 115
150 165 188
217 232 253
113 111 74
88 88 58
81 83 57
83 83 55
72 74 50
89 91 64
72 76 55
82 86 61
77 82 62
68 74 54
78 82 57
74 81 61
86 91 64
92 96 71
94 97 67
85 87 56
96 100 69
107 110 73
118 118 78
115 115 78
109 113 75
111 112 72
117 118 73
122 123 78
111 112 74
129 129 80
124 125 79
126 126 78
134 132 84
128 128 81
135 135 84
146 144 91
147 143 90
142 140 84
138 137 84
145 143 82
149 146 88
152 148 93
143 140 82
148 145 83
157 152 89
153 150 89
153 150 89
149 145 87
155 151 89
155 150 88
159 155 88
157 154 87
162 157 92
157 153 87
162 157 89
158 155 89
166 161 96
163 159 96
167 160 93
171 165 96
163 158 89
168 163 96
166 161 94
164 159 88
165 160 92
168 162 97
169 164 92
173 167 97
169 164 94
173 167 97
169 164 95
175 168 96
169 164 94
170 165 96
170 164 93
176 169 99
169 163 93
173 166 94
168 162 90
172 165 96
174 167 96
170 163 85
173 166 94
167 162 90
170 165 93
171 166 94
176 169 99
169 163 90
173 166 94
172 165 95
168 163 89
172 166 95
169 163 91
168 163 90
173 166 96
171 165 95
172 165 98
168 163 92
168 161 89
173 166 95
171 165 90
172 166 95
172 165 96
169 163 94
174 168 96
172 166 95
170 165 97
169 163 93
166 161 89
171 164 91
166 160 95
171 165 89
171 165 92
162 157 86
166 160 87
172 165 94
169 163 86
161 155 86
167 162 90
171 165 97
165 160 89
162 156 84
166 161 86
163 157 86
167 161 91
168 162 90
164 159 87
162 155 87
164 158 83
166 160 90
162 156 90
154 149 79
161 155 88
165 159 90
166 160 91
161 154 86
161 155 88
157 152 77
156 151 82
166 160 91
160 154 87
161 156 83
160 155 83
154 149 87
163 158 87
161 155 85
154 148 86
154 148 79
158 152 82
154 148 81
148 143 75
158 152 87
217 233 255
217 233 255
217 233 255
217 233 255
216 233 255
216 233 255
216 233 255
216 233 255
216 232 255
216 232 255
215 232 255
215 232 255
215 232 255
215 232 255
215 232 255
215 232 255
215 232 255
215 232 255
214 232 255
214 232 255
214 232 255
214 232 255
214 231 255
214 231 255
214 231 255
214 231 255
214 231 255
213 231 255
213 231 255
213 231 255
213 231 255
213 231 255
213 231 255
213 231 255
213 231 255
213 231 255
212 230 254
213 231 255
213 231 255
213 231 255
212 231 255
212 230 254
212 231 254
212 230 253
212 230 254
213 231 255
212 230 254
212 230 254
212 230 253
211 229 250
210 229 249
210 229 248
210 228 250
212 230 254
209 228 248
210 229 249
210 229 249
209 228 245
211 230 253
211 229 250
211 229 252
212 230 254
212 230 255
211 229 250
208 226 248
209 228 248
212 230 254
210 229 252
212 230 254
212 230 255
209 228 250
208 227 249
210 229 253
208 226 248
210 229 253
207 226 246
210 229 252
207 226 248
211 230 253
210 229 252
208 227 250
208 227 252
209 228 252
210 229 253
209 228 249
210 228 252
210 229 252
210 229 252
211 230 255
210 229 253
210 229 250
207 226 242
210 229 252
209 228 249
210 229 252
210 229 253
210 229 253
209 228 249
209 228 250
208 228 248
210 229 254
210 229 254
209 228 250
210 229 253
210 229 254
210 229 254
208 228 250
209 228 250
208 227 248
209 228 253
207 227 251
203 223 246
201 221 247
199 219 242
204 224 246
204 224 246
207 227 253
206 226 252
203 223 250
204 224 251
198 218 248
127 150 197
59 95 152
60 96 157
60 95 149
58 93 147
59 95 157
60 96 159
61 97 155
61 96 156
60 95 149
88 116 166
207 225 250
212 230 255
213 231 255
214 231 255
215 232 255
218 234 255
219 234 255
219 234 255
219 234 255
219 234 255
219 234 255
219 234 255
219 234 255
219 234 255
219 234 255
219 234 255
219 234 255
107 131 167
59 94 147
60 95 143
60 95 146
60 95 148
60 95 140
61 96 142
60 95 145
61 97 150
61 95 139
60 94 135
60 95 140
60 94 129
61 96 143
60 95 137
62 97 147
62 97 153
62 97 148
61 96 150
62 97 150
62 97 152
60 96 140
60 94 133
60 94 142
61 96 142
62 97 151
60 95 140
61 96 144
61 96 148
60 95 140
58 92 128
61 96 140
61 96 148
59 94 133
60 95 139
61 96 144
60 95 137
60 95 143
60 94 134
60 95 140
61 97 151
61 95 148
61 96 139
61 97 142
61 96 141
61 96 148
61 97 150
60 95 145
61 96 140
61 96 147
60 95 139
59 94 140
61 96 142
60 95 136
60 94 142
60 94 133
61 96 147
58 92 130
61 96 143
61 95 141
61 97 151
62 97 150
60 95 141
62 96 146
60 94 137
60 94 140
60 94 135
60 95 149
61 95 136
61 95 149
61 95 139
58 91 130
60 94 145
60 95 138
60 94 140
59 93 137
61 94 140
61 95 139
61 95 148
61 95 139
59 92 136
59 93 142
59 93 137
59 92 139
58 91 134
58 92 139
58 92 138
60 95 148
59 93 137
57 90 128
59 91 138
58 90 133
59 92 136
56 87 123
60 93 140
58 91 138
57 89 132
55 86 123
54 83 124
56 88 134
52 79 117
111 127 156
202 215 229
95 94 61
91 90 59
73 73 48
63 64 44
71 74 53
70 73 51
66 69 51
79 84 60
66 71 52
70 75 54
75 80 59
68 73 52
92 96 68
80 85 61
97 101 71
92 95 64
96 99 67
91 95 65
112 113 74
111 113 72
115 115 71
107 108 71
114 115 71
131 130 80
135 132 84
126 125 78
126 125 81
130 130 80
121 122 76
122 122 77
145 142 88
140 138 84
137 135 85
136 134 80
144 143 86
145 143 88
140 138 82
148 145 91
141 140 83
153 149 89
152 148 92
155 152 93
156 153 89
154 151 91
155 152 88
158 154 90
157 154 91
159 154 87
163 159 94
155 151 91
159 154 89
164 159 94
160 156 90
165 160 93
165 160 91
162 157 93
165 160 91
166 162 95
167 160 90
162 158 90
165 159 91
166 161 93
169 163 91
169 164 93
170 165 94
166 161 87
166 160 90
171 165 89
169 163 93
171 165 96
170 164 94
172 166 95
167 161 88
173 167 96
167 162 86
175 169 97
169 163 92
171 165 90
174 168 93
173 166 94
169 162 90
173 167 95
169 163 94
170 163 90
174 167 90
170 164 95
167 161 89
173 166 91
168 162 84
170 164 96
173 166 93
174 167 93
174 167 95
171 165 93
170 163 87
169 163 85
167 162 91
169 163 89
164 159 88
172 165 93
169 163 93
166 160 88
170 163 87
164 159 87
166 160 93
167 160 84
169 162 97
167 161 91
172 166 93
165 159 90
167 161 93
170 164 91
164 158 88
169 161 88
165 160 90
167 161 89
168 162 90
166 160 84
163 158 89
162 155 80
168 161 85
165 159 89
160 154 82
168 161 92
169 162 93
164 158 85
166 160 86
160 153 86
166 159 90
168 161 89
165 159 93
163 156 92
161 156 85
163 156 87
164 157 84
166 159 85
166 160 86
157 151 81
157 152 84
163 156 87
158 152 87
161 155 84
158 152 88
151 146 80
153 148 76
157 152 84
163 157 89
152 147 78
218 233 255
217 233 255
217 233 255
217 233 255
217 233 255
217 233 255
217 233 255
216 233 255
216 233 255
216 233 255
216 233 255
216 233 255
216 233 255
216 232 255
216 232 255
215 232 255
215 232 255
215 232 255
215 232 255
215 232 255
215 232 255
215 232 255
215 232 255
215 232 255
215 232 255
214 232 255
214 232 255
214 232 255
214 232 255
214 232 255
214 232 255
214 231 255
214 231 255
214 231 255
214 231 255
214 231 254
213 231 254
213 231 254
214 231 255
213 231 255
214 231 255
213 231 254
213 231 253
214 231 255
214 231 255
213 231 254
214 231 255
214 231 255
213 231 254
212 230 250
212 230 252
211 229 249
211 229 246
212 230 250
212 230 252
212 230 253
212 230 250
212 230 253
213 231 254
212 230 253
211 230 250
212 230 252
211 229 250
212 230 252
213 231 254
210 228 249
212 230 253
210 228 249
211 229 250
211 229 252
212 230 252
209 228 248
211 229 248
213 231 254
211 229 252
209 227 250
212 230 253
208 226 246
210 229 250
212 230 253
212 230 253
210 228 250
209 227 250
211 229 252
211 229 248
210 228 252
209 228 248
212 231 255
210 229 250
210 228 249
212 230 253
209 227 245
212 230 254
210 229 249
211 229 250
211 229 250
210 229 249
212 230 253
209 228 249
210 228 248
210 229 250
209 228 248
211 230 253
209 228 248
209 228 249
210 229 250
210 229 250
210 229 252
211 230 254
208 227 250
206 225 246
205 225 246
207 226 249
206 225 246
205 225 248
206 225 246
207 226 252
207 226 251
204 224 252
204 224 250
206 226 252
152 174 207
91 119 176
59 95 150
61 97 155
59 94 151
60 96 155
59 95 157
61 97 165
60 95 153
61 96 155
61 97 154
161 182 215
213 231 255
214 231 255
214 232 255
215 232 255
217 233 255
219 234 255
219 234 255
219 234 255
219 234 255
219 234 255
219 234 255
219 234 255
219 234 255
219 234 255
219 234 255
219 234 255
77 107 154
59 94 139
59 93 144
59 94 143
60 96 144
60 95 142
61 96 142
61 96 150
59 93 133
60 95 144
60 96 144
60 95 139
61 96 148
59 93 131
60 95 142
60 95 137
60 95 139
60 95 142
59 94 136
61 96 150
59 93 131
60 96 136
62 97 151
61 96 144
61 96 141
60 95 137
58 93 128
61 96 142
60 95 130
60 95 137
58 93 125
61 96 144
60 95 139
60 95 135
61 96 142
60 95 141
60 95 148
61 96 139
62 98 149
61 96 144
62 97 141
60 95 137
60 95 136
62 97 150
61 96 150
60 95 145
61 96 144
60 95 144
61 95 135
61 96 137
61 97 142
61 96 141
61 96 145
60 94 141
61 95 139
61 96 144
61 96 140
61 96 149
60 95 145
59 93 122
60 95 146
60 95 135
61 95 143
60 96 143
60 95 140
59 93 131
61 95 140
60 94 138
60 95 141
60 95 142
57 90 118
60 94 136
61 96 149
60 94 143
58 92 133
61 96 143
59 94 139
61 95 142
61 96 149
61 96 153
61 95 147
60 94 146
59 92 134
59 92 136
60 94 146
58 91 131
60 93 138
60 94 141
58 90 132
58 89 136
59 92 141
57 89 134
55 86 117
58 91 136
58 91 139
58 90 135
56 88 136
55 86 126
56 85 109
53 83 122
51 79 120
67 88 116
184 195 204
84 83 56
87 87 56
77 77 54
84 85 59
61 65 46
78 81 58
66 69 47
57 63 47
60 67 50
74 78 57
85 88 62
91 94 66
76 80 56
76 82 61
98 101 70
99 101 67
98 101 67
103 106 75
104 106 68
101 103 70
128 128 82
118 118 76
111 113 67
132 131 82
129 130 84
133 131 83
132 131 83
129 129 77
139 138 85
140 137 85
135 134 85
137 134 81
145 142 87
143 140 82
138 136 82
146 144 86
146 143 84
156 152 89
143 139 84
152 150 86
157 153 90
152 148 90
152 148 88
160 155 94
153 150 86
156 151 89
157 152 83
156 152 89
158 155 92
159 155 89
157 153 85
162 159 89
164 159 96
165 160 86
168 161 93
169 164 94
168 162 93
165 161 94
161 156 87
167 162 90
170 164 90
167 161 91
167 161 83
168 162 89
166 161 86
172 166 97
168 163 88
173 167 94
168 163 91
171 164 88
168 163 93
172 166 90
168 163 92
170 165 91
167 162 85
168 163 87
174 168 98
172 165 90
175 168 93
171 165 90
172 166 91
172 165 95
171 165 96
172 166 93
175 168 93
170 164 92
171 165 90
174 168 94
174 168 95
168 163 87
170 164 94
171 166 90
167 161 90
173 166 92
171 165 93
169 163 86
167 160 87
167 161 87
170 163 90
171 165 95
170 164 88
171 164 92
172 165 94
163 157 85
166 160 87
169 162 90
163 157 84
170 163 92
165 159 87
166 160 91
170 164 90
169 163 90
168 163 89
168 161 90
157 151 82
164 158 90
175 168 99
167 160 91
167 161 89
168 161 88
159 154 80
168 162 90
164 158 86
161 155 88
162 156 81
170 163 87
169 163 94
160 155 84
166 159 88
160 155 80
164 157 86
162 156 87
158 152 82
158 152 79
154 149 77
163 156 87
162 156 86
163 157 84
162 155 87
168 161 94
165 158 82
159 154 80
160 153 81
161 155 84
161 155 84
158 152 83
160 152 82
156 151 80
218 234 255
218 234 255
218 234 255
218 233 255
217 233 255
217 233 255
217 233 255
217 233 255
217 233 255
217 233 255
217 233 255
217 233 255
217 233 255
216 233 255
216 233 255
216 233 255
216 233 255
216 233 255
216 233 255
216 233 255
216 232 255
216 232 255
216 232 255
215 232 255
215 232 255
215 232 255
215 232 255
215 232 255
215 232 255
215 232 255
215 232 255
215 232 255
215 232 255
215 232 255
215 232 255
215 232 255
215 232 255
215 232 255
214 232 254
215 232 255
215 232 255
214 231 252
215 232 255
215 232 255
214 231 254
214 232 254
215 232 254
215 232 254
215 232 255
213 230 250
212 230 249
213 231 253
213 231 252
213 231 253
212 230 249
212 230 249
213 230 253
211 229 248
213 230 250
211 229 248
212 229 249
213 231 253
214 231 254
212 230 250
213 230 250
214 231 254
212 229 253
210 228 245
213 231 252
213 231 253
210 227 249
208 226 245
209 226 248
209 226 248
209 227 249
210 227 250
212 230 253
210 228 250
209 226 248
213 231 253
212 229 250
213 231 253
213 231 253
212 230 252
213 230 254
211 229 250
213 230 252
211 229 249
213 230 252
212 230 252
213 231 253
212 230 249
212 230 252
212 230 252
211 230 249
212 230 252
210 228 245
210 229 245
212 230 253
212 230 250
212 230 253
211 229 248
212 231 254
212 230 254
211 230 250
212 230 252
210 229 248
211 230 252
210 229 248
205 224 247
205 223 246
208 227 250
206 224 246
204 223 240
208 227 248
205 224 246
210 229 254
206 224 248
211 229 254
207 226 252
209 227 253
156 177 211
122 145 185
60 96 159
59 94 150
60 95 150
60 96 155
60 96 157
59 95 153
60 96 154
61 96 153
61 96 158
70 102 156
209 226 250
214 232 255
215 232 255
216 233 255
217 233 255
219 234 255
219 234 255
219 234 255
219 234 255
219 234 255
219 234 255
219 234 255
219 234 255
219 234 255
219 234 255
209 225 248
57 92 123
60 96 151
59 93 143
60 95 131
60 95 142
60 95 139
61 97 147
60 95 143
62 98 156
61 96 148
60 95 140
61 96 139
59 93 128
60 95 137
61 95 135
60 95 142
60 95 144
61 96 141
62 97 145
60 95 133
61 97 152
60 95 135
60 95 133
60 94 140
60 94 139
61 96 140
60 95 144
59 94 135
61 96 136
61 95 142
60 95 134
61 96 141
60 95 141
60 95 139
62 97 152
61 96 147
61 96 136
59 94 133
61 96 142
62 97 151
61 96 147
60 95 133
61 96 142
60 95 140
61 96 145
61 97 147
62 97 151
60 96 143
60 95 144
62 97 152
59 93 133
60 94 135
60 95 142
60 94 149
59 93 136
60 95 133
60 95 141
59 94 142
61 96 147
61 95 138
60 94 138
60 93 134
61 95 147
60 94 140
60 95 140
59 94 140
59 93 124
62 97 149
61 96 146
60 94 133
60 95 140
61 95 145
60 94 143
59 93 138
62 96 155
60 94 142
59 93 140
60 93 141
62 96 143
60 94 137
61 95 145
60 94 132
60 94 142
59 93 136
59 92 134
59 93 138
60 94 143
58 90 128
58 91 134
57 89 129
58 91 133
58 90 136
57 89 130
57 88 125
58 90 137
53 83 121
56 86 122
58 91 129
53 80 108
52 80 122
52 79 104
49 76 110
138 143 141
89 87 49
76 77 51
80 80 52
66 68 50
69 74 52
62 65 48
51 56 42
71 75 53
73 77 55
63 68 48
78 82 57
76 82 58
79 85 58
100 102 66
101 103 68
90 92 61
105 108 71
99 101 67
105 107 71
120 120 77
119 120 73
116 118 76
121 122 73
124 124 78
125 125 74
129 127 77
127 126 76
127 125 74
123 123 75
133 130 77
136 134 81
136 133 81
140 138 80
141 138 85
138 137 79
133 132 79
149 147 89
149 146 85
151 148 90
152 148 83
150 147 89
156 152 90
152 149 88
149 144 80
151 148 80
160 155 91
158 153 89
154 151 89
161 156 88
164 159 89
156 152 85
159 155 89
161 156 88
163 159 92
165 159 89
162 157 94
167 162 91
164 160 89
168 163 93
164 159 87
169 164 96
174 167 95
172 166 94
169 163 94
171 165 95
169 163 93
171 165 94
166 161 89
170 164 91
166 161 91
169 164 96
173 167 96
168 163 86
173 167 96
176 168 99
172 165 88
169 163 90
175 167 99
173 166 90
172 166 96
171 165 97
170 164 89
172 166 87
168 162 85
173 167 93
169 162 89
171 165 90
170 164 88
173 167 96
167 162 87
173 166 90
172 165 93
173 166 93
175 168 97
166 161 89
169 163 89
169 162 90
167 162 87
174 167 94
169 163 89
168 161 91
173 166 91
170 163 91
167 162 91
173 166 93
168 162 89
165 159 87
164 158 84
171 164 92
166 160 87
170 164 92
165 158 90
166 161 86
166 160 77
165 160 82
170 162 90
167 161 85
166 160 89
168 162 92
163 156 85
168 162 90
166 160 81
161 155 85
164 158 89
161 155 84
168 162 90
161 155 84
159 152 80
167 160 84
155 149 80
155 149 81
157 151 83
161 155 82
163 157 84
162 155 86
166 159 93
157 151 84
160 154 80
170 163 95
151 145 83
155 149 81
165 158 88
154 148 82
156 150 81
156 149 78
160 153 80
159 153 84
159 153 87
218 234 255
218 234 255
218 234 255
218 234 255
218 234 255
218 234 255
218 234 255
218 234 255
217 233 255
217 233 255
217 233 255
217 233 255
217 233 255
217 233 255
217 233 255
217 233 255
217 233 255
217 233 255
217 233 255
217 233 255
217 233 255
216 233 255
216 233 255
216 233 255
216 233 255
216 233 255
216 233 255
216 233 255
216 233 255
216 233 255
216 233 255
216 232 255
216 232 255
216 232 255
216 232 255
215 232 254
215 232 254
216 232 255
215 232 255
215 232 255
216 232 255
215 232 254
216 232 255
215 232 254
215 232 255
215 232 255
215 232 255
216 232 255
215 232 255
214 231 253
214 231 253
214 231 250
213 231 249
214 231 252
213 230 252
213 230 249
215 232 255
214 231 250
215 232 254
213 230 248
214 231 249
214 231 250
211 229 244
213 231 249
214 231 250
212 229 250
213 230 248
213 230 253
214 231 252
211 228 249
210 227 249
211 228 249
214 231 254
214 231 254
212 229 252
211 228 250
213 230 253
214 231 254
214 231 254
213 230 252
214 231 252
213 231 249
212 229 252
212 230 252
212 230 248
214 231 253
212 230 250
212 230 250
214 232 254
212 230 250
212 230 249
213 231 252
214 231 253
212 230 248
214 231 254
212 230 249
213 231 252
212 230 248
214 231 253
213 231 252
213 230 250
213 231 253
213 231 253
214 231 254
213 230 250
212 229 248
213 230 252
213 230 252
212 229 248
213 230 252
209 227 246
210 228 249
209 227 248
209 227 251
209 227 250
206 225 242
209 227 253
212 229 252
208 226 252
210 228 251
208 226 250
189 208 237
128 150 188
60 96 159
60 95 141
59 95 151
59 93 143
60 96 157
60 95 150
60 96 152
59 94 149
58 93 141
60 95 153
173 192 223
215 232 255
216 232 255
216 233 255
218 233 255
219 234 255
219 235 255
219 235 255
219 235 255
219 235 255
219 235 255
219 235 255
219 235 255
219 235 255
219 235 255
206 221 242
60 95 145
60 95 140
59 94 137
60 95 139
59 94 133
59 94 149
60 95 143
61 96 151
61 96 150
61 96 144
61 96 147
61 96 141
60 95 135
60 94 137
61 96 142
62 97 153
59 94 121
59 94 135
62 97 153
61 96 145
60 95 142
60 95 134
60 94 131
61 96 147
59 93 125
60 95 136
59 94 126
60 95 134
60 95 140
61 96 137
60 95 140
59 93 139
62 97 141
59 94 134
61 96 142
60 95 137
61 96 144
61 96 139
60 95 139
60 95 135
61 96 144
62 98 149
60 95 143
61 95 140
60 94 136
61 96 144
61 96 148
62 97 149
60 95 142
60 94 134
60 94 139
60 94 135
60 95 138
60 95 143
60 95 137
60 95 142
61 96 140
61 96 139
60 95 142
61 96 148
62 97 145
61 96 140
60 95 143
60 95 139
59 93 130
61 96 143
60 95 141
59 93 129
60 94 142
60 94 141
60 94 140
61 95 147
60 95 141
61 96 148
61 96 147
61 95 142
59 92 131
59 93 131
59 93 134
60 94 146
60 94 138
58 91 129
58 91 134
57 90 123
59 91 129
58 91 130
57 88 116
58 90 126
58 91 128
57 88 128
57 89 120
58 89 134
58 89 119
58 90 134
56 87 115
57 88 128
58 89 132
55 85 114
54 83 117
53 81 114
51 79 120
45 69 91
94 98 76
96 94 56
79 78 50
66 67 46
78 77 53
66 69 50
53 58 43
66 71 52
58 64 48
69 73 47
68 74 54
71 76 54
70 75 56
66 73 55
84 89 61
91 96 68
90 95 66
92 94 61
94 97 62
100 102 66
117 117 74
109 111 73
112 113 71
111 112 72
118 120 73
116 116 73
110 110 66
129 128 80
128 127 77
135 132 81
135 133 73
136 134 81
122 123 75
142 139 83
141 138 82
143 140 81
147 144 89
135 134 83
146 144 85
148 146 86
147 144 84
152 149 85
151 147 86
158 153 89
164 159 89
159 154 92
159 155 89
156 153 88
159 154 84
157 152 86
160 155 90
168 161 96
156 153 88
164 159 91
159 155 85
163 158 92
166 161 85
167 161 93
170 164 91
167 161 91
174 168 95
169 164 93
167 162 90
168 162 90
169 163 94
172 166 91
166 161 85
173 167 91
166 160 92
173 166 90
170 164 87
166 161 88
166 160 84
166 160 86
167 163 94
168 162 91
171 165 93
170 164 87
169 164 91
167 162 88
166 161 88
175 167 94
175 167 99
171 165 92
171 165 91
170 163 88
175 168 97
169 163 90
172 166 92
176 169 96
170 162 88
170 164 89
170 164 88
167 163 88
172 166 91
169 162 90
174 166 93
171 164 91
171 164 90
168 161 83
172 166 89
169 162 84
166 160 84
170 164 87
169 163 93
165 159 86
169 162 89
168 161 84
169 162 92
165 160 90
168 161 90
162 157 85
166 159 89
162 156 87
169 163 92
166 159 88
167 160 91
169 162 85
167 160 86
160 155 80
166 159 87
161 155 80
166 159 87
162 156 87
163 156 84
163 157 85
166 160 84
162 156 82
163 157 86
157 151 77
158 153 77
165 158 86
169 162 95
157 151 83
158 151 84
166 160 87
161 155 85
155 150 81
155 150 84
164 157 84
158 152 83
154 148 80
154 149 76
160 153 83
150 144 84
167 161 90
155 149 84
152 146 78
152 146 78
219 234 255
219 234 255
219 234 255
219 234 255
218 234 255
218 234 255
218 234 255
218 234 255
218 234 255
218 234 255
218 234 255
218 234 255
218 234 255
218 234 255
218 234 255
218 234 255
218 233 255
218 233 255
217 233 255
217 233 255
217 233 255
217 233 255
217 233 255
217 233 255
217 233 255
217 233 255
217 233 255
217 233 255
217 233 255
217 233 255
217 233 255
217 233 255
217 233 255
217 233 255
216 233 255
217 233 255
216 232 253
216 233 254
217 233 255
216 233 255
216 233 255
217 233 255
215 232 252
216 233 255
216 233 254
216 233 254
216 232 254
217 233 255
216 233 255
216 233 255
214 231 249
214 231 250
214 231 246
214 231 252
214 231 249
215 232 253
215 231 253
213 230 247
215 231 250
215 232 253
214 231 248
213 230 248
215 232 253
214 231 249
215 232 253
215 232 253
214 231 250
215 232 252
214 230 252
212 229 250
212 229 251
213 230 252
211 227 249
212 229 251
213 229 252
212 228 251
211 228 250
213 229 252
210 226 248
213 230 252
214 231 248
212 229 248
214 231 252
213 230 245
214 231 252
212 229 245
214 231 250
215 232 253
214 231 250
214 231 252
212 229 245
215 232 252
214 231 249
214 231 252
214 231 249
215 232 255
212 229 242
214 231 250
214 231 252
214 231 252
213 230 251
212 229 248
213 230 251
215 232 254
214 231 250
214 231 253
214 231 252
214 231 253
212 230 249
210 227 248
209 226 248
209 227 245
211 228 250
207 225 244
205 223 239
208 225 247
212 229 252
215 232 254
209 226 250
210 228 253
211 229 252
204 221 246
126 148 187
73 104 154
60 95 148
59 94 142
59 95 147
59 93 147
60 95 152
58 93 146
59 94 144
58 93 153
59 95 144
116 139 180
216 233 255
217 233 255
217 233 255
218 234 255
219 235 255
220 235 255
220 235 255
220 235 255
220 235 255
220 235 255
220 235 255
220 235 255
220 235 255
220 235 255
179 196 219
59 92 142
60 95 144
59 94 134
59 94 140
60 95 140
60 95 144
59 94 134
58 93 131
61 96 145
60 95 140
59 94 139
60 95 139
61 96 143
60 95 141
59 94 129
60 95 140
60 95 137
59 94 131
61 96 144
59 94 133
60 94 135
60 95 140
60 94 136
59 93 129
61 96 141
60 95 139
61 96 140
59 94 137
61 96 141
60 95 144
59 94 137
60 94 139
61 97 151
60 96 143
62 97 149
60 94 135
59 94 133
60 94 131
60 95 137
61 95 141
61 96 147
61 96 148
60 95 139
60 94 126
60 95 134
61 96 139
59 93 131
60 94 129
60 94 141
59 94 139
60 95 137
60 94 133
59 94 135
59 93 131
60 94 142
61 96 140
60 94 134
59 94 139
60 95 139
60 94 139
59 93 135
61 97 145
59 93 135
58 92 125
60 95 143
59 94 135
60 94 140
60 94 147
61 96 143
61 96 142
60 94 140
59 93 132
60 95 136
59 93 131
60 94 136
61 95 140
58 91 126
60 95 135
60 95 142
60 94 139
60 95 141
59 92 138
58 91 129
58 91 136
59 92 126
57 89 125
58 91 132
59 93 131
59 92 129
58 90 131
58 90 126
58 91 137
56 88 129
56 87 124
57 89 131
56 87 123
57 87 121
54 83 118
54 83 113
53 82 113
52 80 104
49 75 99
75 80 70
78 79 42
57 59 40
66 67 44
59 62 43
61 65 44
53 60 45
64 69 48
64 71 50
68 74 51
74 80 59
61 67 48
76 81 59
85 89 62
82 87 59
83 87 60
83 86 54
99 100 65
104 106 66
109 110 70
117 117 75
101 102 62
113 114 74
110 113 74
113 115 75
111 110 65
124 124 79
126 125 79
126 126 77
133 131 76
142 140 86
135 133 84
138 135 75
136 135 79
141 138 83
142 139 83
142 139 78
144 142 84
143 141 88
145 142 80
139 137 78
155 152 87
143 139 87
148 145 84
148 144 85
147 145 87
153 149 80
158 154 85
159 155 89
155 152 83
156 152 84
158 154 86
161 156 86
158 154 84
162 157 86
165 160 90
158 153 87
162 157 83
169 163 95
166 161 90
166 160 88
162 157 87
166 160 94
167 162 88
168 162 82
164 159 85
167 161 83
167 162 82
172 167 93
171 164 93
168 162 86
171 164 95
170 164 92
171 164 86
170 164 90
169 163 90
169 163 86
172 166 87
173 166 93
170 164 88
172 166 90
171 165 89
172 165 94
169 163 89
169 163 89
170 164 89
171 164 87
170 163 87
168 161 90
168 161 88
170 163 86
173 166 93
171 163 93
168 163 86
168 163 87
170 164 87
169 163 87
167 160 87
171 165 89
172 165 92
169 162 91
169 163 86
169 162 91
168 163 92
169 163 87
166 160 87
168 162 90
168 161 88
171 163 91
167 161 86
170 164 90
171 164 86
165 158 84
167 161 87
164 158 85
168 161 87
166 160 88
165 159 92
165 159 92
165 159 82
161 156 79
157 151 81
168 162 87
164 158 84
162 156 81
158 153 87
163 158 90
163 156 82
162 155 84
172 165 94
158 152 75
164 159 86
152 148 76
162 156 83
154 148 78
157 151 80
160 153 82
159 153 80
157 150 78
161 155 84
163 156 87
163 156 87
159 153 83
157 151 77
159 153 83
162 156 82
149 144 74
163 155 87
163 156 87
219 234 255
219 234 255
219 234 255
219 234 255
219 234 255
219 234 255
219 234 255
219 234 255
219 234 255
219 234 255
219 234 255
219 234 255
218 234 255
218 234 255
218 234 255
218 234 255
218 234 255
218 234 255
218 234 255
218 234 255
218 234 255
218 234 255
218 234 255
218 234 255
218 234 255
218 234 255
218 234 255
218 234 255
218 234 255
218 233 255
218 234 255
218 234 255
217 233 255
217 233 255
217 233 255
217 233 255
217 233 255
217 233 255
218 233 255
217 233 255
218 234 255
218 233 255
217 233 254
217 233 255
217 233 255
218 233 255
218 233 255
217 233 255
217 233 255
218 233 255
217 233 254
215 231 250
216 232 252
214 230 245
215 231 251
217 233 255
216 232 252
217 233 254
216 232 250
215 231 248
215 232 249
216 232 252
215 231 248
216 232 252
215 231 252
216 232 252
216 232 250
216 232 254
211 227 245
214 230 253
211 227 249
211 227 248
210 226 248
214 230 252
216 232 254
215 231 254
212 228 250
213 229 251
215 231 254
213 229 250
216 232 254
215 231 249
215 232 250
215 231 252
215 231 249
215 231 249
215 231 249
215 231 252
214 231 249
215 231 249
216 232 253
215 232 252
214 230 249
216 232 253
215 231 249
215 232 252
216 232 253
215 232 250
215 232 252
215 231 249
216 232 253
215 232 252
214 231 248
216 233 255
216 233 254
214 230 249
215 231 250
214 231 248
212 228 250
214 231 249
213 230 248
206 223 242
211 228 247
208 225 242
212 229 249
214 231 248
213 229 252
214 231 254
211 228 250
211 228 251
209 226 248
210 226 250
130 152 179
105 130 171
59 94 140
59 94 139
59 95 147
58 93 142
58 94 142
60 96 149
58 93 142
59 95 145
59 94 150
76 107 151
217 233 255
217 233 255
218 234 255
219 234 255
220 235 255
220 235 255
220 235 255
220 235 255
220 235 255
220 235 255
220 235 255
220 235 255
220 235 255
220 235 255
178 194 218
57 92 121
60 95 144
59 93 130
59 94 141
61 96 148
60 96 145
60 95 137
59 94 133
59 94 131
60 95 135
60 95 141
59 94 131
61 96 144
60 95 135
59 94 134
61 96 143
61 95 141
59 94 125
60 95 142
60 94 136
61 96 145
58 93 129
62 97 145
61 96 137
60 95 139
61 97 148
60 94 135
61 97 143
60 95 142
61 96 144
60 95 143
59 93 131
62 97 142
60 95 129
60 95 134
60 95 140
60 94 133
60 95 137
60 95 135
60 95 137
61 96 140
60 95 139
59 93 133
61 96 149
60 94 129
60 95 139
61 96 142
60 95 142
59 94 129
60 94 130
59 93 125
59 94 133
60 94 134
61 95 142
60 94 137
61 95 145
59 93 138
58 93 128
61 96 144
61 96 143
60 95 141
59 94 139
61 96 155
60 95 136
61 96 148
58 93 128
60 94 139
59 93 133
59 93 134
61 96 145
61 96 146
58 91 127
60 95 138
59 93 131
58 92 128
61 95 139
60 95 147
60 94 143
59 93 137
60 94 133
59 93 128
57 90 122
57 90 126
59 92 137
57 91 131
59 93 134
60 94 133
58 91 136
59 92 134
58 91 132
57 90 124
57 90 119
59 92 137
56 86 119
55 85 115
57 88 130
57 89 133
58 90 136
53 82 114
56 86 124
50 77 107
50 77 104
65 74 68
71 69 41
71 73 50
61 63 42
66 67 44
47 51 38
49 53 36
48 52 39
61 67 49
54 60 44
75 79 52
83 87 62
71 77 54
78 81 55
98 102 68
88 92 61
79 85 56
91 94 61
102 104 70
101 104 65
102 104 63
111 112 68
112 112 68
124 123 74
126 125 75
122 121 74
109 111 68
126 126 71
132 131 73
123 121 73
121 121 72
129 129 79
143 140 87
136 134 78
140 137 80
140 138 81
145 142 82
142 140 79
148 145 82
143 140 78
156 151 85
151 146 76
151 148 90
160 155 91
158 153 87
148 145 84
156 152 90
159 156 94
153 149 84
159 154 82
163 158 89
154 151 82
161 156 92
162 156 87
161 156 87
160 155 80
166 162 92
166 161 89
159 155 85
166 161 90
165 160 88
164 159 85
164 159 87
167 161 88
166 161 87
163 158 78
169 163 87
169 163 88
171 164 91
169 162 91
170 164 90
165 160 86
169 163 85
169 163 85
172 166 89
168 162 84
164 157 84
169 162 87
169 164 87
169 163 89
167 161 82
172 165 94
169 163 84
168 162 93
173 166 93
169 163 88
168 162 87
171 165 89
175 168 92
166 161 83
170 164 84
165 160 85
171 164 87
171 164 89
172 165 91
167 161 86
166 160 85
173 166 90
167 162 84
168 163 91
171 164 90
170 164 92
168 161 87
166 161 83
166 160 85
170 164 89
167 160 83
169 163 88
167 161 87
167 161 90
168 162 86
164 157 87
167 159 84
165 158 84
160 155 83
163 158 85
163 157 84
167 160 91
162 156 76
166 160 84
173 166 88
162 156 81
166 159 82
167 161 87
165 158 87
164 156 84
158 152 80
169 161 88
167 160 88
167 161 87
158 152 78
169 162 87
162 155 82
160 153 84
159 153 85
159 153 79
162 156 84
162 156 82
157 151 79
163 157 87
152 146 73
158 151 80
160 153 85
156 150 79
159 153 80
157 152 80
149 145 75
153 147 74
161 155 80
220 235 255
220 235 255
220 235 255
220 235 255
220 235 255
219 235 255
219 235 255
219 235 255
219 234 255
219 234 255
219 234 255
219 234 255
219 234 255
219 234 255
219 234 255
219 234 255
219 234 255
219 234 255
219 234 255
219 234 255
219 234 255
219 234 255
219 234 255
219 234 255
219 234 255
219 234 255
219 234 255
219 234 255
219 234 255
219 234 255
219 234 255
218 234 255
218 234 255
218 234 255
217 233 254
219 234 255
218 234 255
218 234 255
218 234 255
218 234 255
219 234 255
218 234 255
218 234 255
219 234 255
218 234 255
219 234 255
218 234 255
218 234 255
218 234 255
218 234 255
218 234 255
219 234 255
218 234 254
218 234 255
217 233 250
217 233 252
216 232 249
217 232 250
218 234 254
217 233 250
217 233 252
216 232 250
216 232 250
217 232 250
217 233 252
217 233 252
216 232 248
217 233 255
215 231 252
215 231 252
216 232 254
215 231 252
216 232 254
214 230 252
216 232 254
212 228 248
213 229 250
214 230 250
218 234 255
216 232 254
217 232 253
216 232 252
215 231 250
217 232 253
216 232 249
218 233 254
217 232 252
217 233 253
215 231 248
216 232 249
216 232 250
216 232 250
216 232 249
215 231 248
217 233 253
217 233 252
217 233 252
217 233 253
217 233 253
217 233 252
217 233 253
215 231 250
215 231 246
216 232 250
217 233 253
217 233 253
216 232 250
216 232 250
214 230 249
208 224 242
210 227 244
213 229 249
213 229 249
216 232 253
212 229 251
213 230 253
212 228 250
213 229 251
215 231 253
212 228 251
213 229 252
214 230 254
122 144 179
124 145 181
60 95 140
58 92 134
59 94 140
58 92 131
57 92 133
58 93 139
59 94 147
58 92 129
59 94 145
60 95 140
190 207 232
218 234 255
219 234 255
219 234 255
220 235 255
220 235 255
220 235 255
220 235 255
220 235 255
220 235 255
220 235 255
220 235 255
220 235 255
220 235 255
160 178 203
59 94 143
59 94 133
58 93 131
60 95 139
57 92 136
59 94 135
59 94 140
61 96 143
61 95 144
60 95 137
59 94 131
59 94 135
61 96 144
59 93 134
59 94 128
60 96 142
60 95 129
59 94 135
61 95 136
61 96 144
60 94 137
60 94 137
61 96 143
60 95 137
60 95 136
60 94 137
61 96 140
59 93 129
60 95 136
60 95 136
60 95 140
61 96 141
59 94 135
60 94 136
60 95 137
61 96 143
60 95 142
60 95 131
61 96 147
61 96 136
62 97 153
60 95 139
60 94 140
60 96 136
59 94 131
59 94 130
60 95 135
59 93 129
60 95 149
60 95 140
59 94 134
63 98 151
60 95 131
58 92 120
60 95 134
60 95 139
60 94 133
62 97 154
60 94 134
61 96 140
61 96 145
59 94 134
60 94 134
58 92 131
59 94 140
59 94 135
60 94 142
60 95 129
61 95 144
59 93 125
59 94 137
58 91 127
60 95 141
60 94 134
59 92 126
60 94 135
59 93 131
59 93 139
59 92 136
60 94 136
59 93 138
59 93 133
60 94 139
60 94 135
58 92 128
58 90 127
61 95 147
59 92 137
58 90 133
57 89 120
59 92 134
60 93 139
56 89 128
57 89 133
56 87 118
56 88 131
55 85 114
53 82 100
54 83 117
53 82 120
51 79 114
48 73 99
64 71 71
64 65 37
71 71 44
60 62 40
45 48 31
54 57 39
54 60 43
54 60 43
66 70 49
46 54 39
56 62 42
60 68 51
68 74 49
75 80 56
82 86 56
85 91 62
78 83 56
89 93 59
95 97 61
96 98 65
107 109 65
114 114 70
103 105 65
111 113 69
115 115 69
122 122 73
118 119 69
106 108 63
124 123 72
134 131 73
128 127 75
136 134 77
134 133 80
140 138 76
139 136 78
139 136 78
146 142 81
149 145 87
130 130 68
151 147 80
151 147 83
150 147 84
147 144 83
152 148 90
154 150 84
156 151 87
154 151 84
157 152 82
157 153 84
158 153 86
153 150 79
156 151 86
164 158 91
159 155 86
158 153 81
159 155 84
161 157 82
167 160 82
162 157 89
167 161 89
163 159 80
162 157 84
164 158 86
164 158 82
170 164 94
171 165 87
165 159 89
168 162 92
168 162 89
168 163 86
170 163 89
170 163 88
169 163 89
172 166 91
169 163 92
169 163 87
174 167 92
171 165 87
172 165 92
170 164 88
169 164 84
170 164 85
168 162 85
173 166 93
168 162 86
171 164 86
174 166 93
172 165 89
169 162 90
165 159 85
166 161 84
171 164 90
168 162 86
165 160 85
169 163 87
165 160 82
165 158 78
171 164 90
170 164 87
167 160 83
168 161 87
173 165 89
172 165 92
171 163 80
166 159 90
164 159 80
167 162 82
166 159 85
162 156 83
167 161 88
168 161 84
166 159 87
170 163 92
170 163 93
167 160 84
168 162 84
166 159 83
163 156 79
172 164 90
166 159 83
167 161 84
167 160 87
170 163 85
165 158 84
173 165 93
165 159 82
158 152 75
164 157 83
159 154 77
159 153 81
171 164 92
167 160 89
160 153 81
161 156 87
162 155 84
163 156 82
164 158 81
167 160 92
163 156 85
159 153 84
164 158 87
156 149 75
159 153 84
164 157 84
154 148 76
156 151 78
156 150 75
157 151 77
159 153 81
220 235 255
220 235 255
220 235 255
220 235 255
220 235 255
220 235 255
220 235 255
220 235 255
220 235 255
220 235 255
220 235 255
220 235 255
220 235 255
220 235 255
220 235 255
220 235 255
220 235 255
220 235 255
220 235 255
220 235 255
220 235 255
220 235 255
220 235 255
220 235 255
220 235 255
220 235 255
219 235 255
219 235 255
219 235 255
219 235 255
219 234 255
219 234 255
219 234 255
219 234 255
218 233 254
219 234 255
219 235 255
219 234 255
219 234 255
219 235 255
219 234 255
219 234 255
219 234 255
219 234 255
219 234 255
219 234 255
219 234 255
219 234 255
219 234 255
218 234 255
219 235 255
219 234 255
219 234 255
219 234 255
220 235 255
220 235 255
219 234 255
219 234 254
218 233 252
219 234 253
217 233 249
218 233 250
218 233 250
217 233 249
218 233 250
216 231 244
217 233 252
214 229 251
216 231 253
215 230 252
216 231 252
216 231 252
215 230 250
214 229 249
213 228 249
213 228 249
213 228 250
214 229 252
213 228 249
217 232 253
218 233 254
217 232 249
219 234 254
216 232 249
218 233 252
218 234 253
216 232 248
217 233 249
218 233 252
217 232 249
217 233 250
219 234 254
217 233 252
217 232 248
219 234 254
217 233 249
218 233 252
218 234 253
218 233 252
217 233 250
217 232 249
216 232 246
217 233 250
217 233 250
217 233 250
216 231 247
215 231 247
218 233 253
211 227 241
212 228 247
213 228 245
216 232 251
214 230 250
214 229 250
215 230 250
213 228 251
214 229 252
212 228 250
216 231 252
213 229 251
212 228 248
215 230 251
147 166 193
96 122 158
60 95 143
59 94 144
57 92 129
59 93 135
57 91 123
57 91 142
60 95 155
57 92 140
58 92 135
58 93 139
178 195 222
219 234 255
220 235 255
220 235 255
220 235 255
221 235 255
221 235 255
221 235 255
221 235 255
221 235 255
221 235 255
221 235 255
221 235 255
221 235 255
154 172 198
60 95 144
60 95 145
59 93 132
59 94 133
61 96 143
60 95 135
60 95 134
58 93 133
61 96 147
60 95 142
59 94 136
60 96 142
59 93 134
59 94 131
60 95 141
59 94 135
60 94 141
60 95 140
61 96 142
59 93 129
62 97 149
60 94 129
61 96 140
61 96 139
60 95 133
62 97 153
62 97 147
60 95 136
60 95 140
60 94 134
61 95 129
61 96 136
61 95 136
60 95 134
60 96 143
60 94 134
61 95 136
57 91 120
59 93 131
59 94 133
62 97 149
60 95 133
59 93 128
60 95 143
61 96 142
59 94 135
60 95 135
60 94 131
61 96 141
60 95 135
61 96 144
60 95 134
61 96 141
61 95 136
60 94 136
59 94 140
58 92 129
58 92 122
60 94 133
59 93 133
60 94 135
60 94 131
61 95 136
60 95 145
60 94 134
59 93 133
60 95 142
57 91 113
61 96 146
59 92 134
61 95 142
59 93 133
60 94 135
59 93 133
59 92 135
60 94 145
58 92 132
57 91 134
58 91 139
59 93 136
59 91 131
59 92 133
57 89 133
57 89 126
58 90 126
58 90 126
59 93 134
58 91 123
57 89 125
59 92 135
56 88 119
59 93 137
57 90 130
56 87 124
59 93 138
57 88 124
52 81 118
56 87 123
54 83 104
54 82 111
50 77 103
49 74 99
57 66 59
67 67 35
69 70 41
46 48 30
47 50 34
48 54 39
43 48 30
52 57 36
59 65 45
62 67 43
61 67 46
73 75 46
82 86 57
62 68 45
83 89 62
92 95 66
93 96 60
96 97 55
94 96 59
101 103 59
100 102 63
114 115 70
104 105 62
114 113 64
115 114 66
127 125 77
121 120 73
137 135 77
128 127 71
131 130 80
122 122 69
133 132 77
136 133 78
134 132 71
139 138 71
133 130 78
139 137 77
144 140 75
142 140 83
142 139 78
152 148 85
150 145 85
153 150 86
149 146 82
153 150 81
154 150 83
157 153 87
155 151 83
153 149 82
158 153 83
161 156 86
154 151 86
154 150 76
164 158 88
168 162 94
160 156 83
160 155 82
160 155 82
159 154 83
165 160 90
159 154 81
160 155 80
165 159 86
162 156 85
167 161 82
167 162 88
169 163 85
165 159 86
171 164 94
165 160 82
167 162 89
167 161 85
166 161 85
165 159 83
168 162 84
167 161 80
169 163 89
170 164 89
174 167 94
173 166 88
170 162 89
166 160 86
168 162 87
170 163 90
168 162 84
165 160 80
170 163 82
166 160 80
173 166 92
168 162 80
168 162 85
171 164 91
162 157 79
168 162 84
173 166 93
168 162 88
169 162 86
171 165 90
166 159 83
168 162 87
170 164 90
166 160 84
166 160 81
168 162 87
169 162 90
163 157 80
160 155 81
165 160 85
164 158 83
170 163 87
168 160 87
164 158 82
169 162 83
163 158 81
164 158 79
163 156 80
169 162 87
165 159 87
166 160 84
168 162 85
159 153 76
163 157 82
161 155 81
160 154 80
166 160 79
165 158 80
167 160 87
153 147 73
167 160 82
164 158 82
155 149 73
158 153 75
157 151 80
162 156 83
165 158 84
155 150 77
154 148 73
162 155 80
159 153 75
157 150 81
160 154 76
158 153 82
163 156 83
162 155 79
160 153 83
159 154 85
159 154 80
160 154 80
158 151 84
221 235 255
221 235 255
221 235 255
221 235 255
221 235 255
221 235 255
221 235 255
221 235 255
221 235 255
221 235 255
221 235 255
221 235 255
221 235 255
221 235 255
220 235 255
220 235 255
220 235 255
220 235 255
220 235 255
220 235 255
220 235 255
220 235 255
220 235 255
220 235 255
220 235 255
220 235 255
220 235 255
220 235 255
220 235 255
220 235 255
220 235 255
220 235 255
220 235 255
220 235 255
220 235 255
220 235 255
220 235 255
220 235 255
220 235 255
220 235 255
220 235 255
220 235 255
219 234 254
220 235 255
220 235 255
220 235 255
220 235 255
220 235 255
220 235 255
220 235 255
220 235 255
220 235 255
220 235 255
220 235 255
220 235 255
220 235 255
220 235 255
220 235 255
220 235 255
220 235 255
220 235 255
220 235 255
220 235 255
220 235 255
220 235 255
220 235 255
219 234 255
214 229 250
216 231 250
214 229 249
215 230 250
214 229 250
218 233 254
215 230 249
219 234 254
216 231 252
217 232 253
215 230 250
214 229 249
216 231 252
217 232 253
220 235 254
219 234 252
219 234 250
219 234 253
219 234 250
220 235 254
219 234 253
220 235 254
219 234 252
219 234 253
220 235 254
218 233 248
220 235 255
218 233 249
219 234 253
219 234 253
219 234 253
219 234 253
219 234 252
219 234 252
219 234 250
220 235 254
219 234 253
220 235 255
220 235 255
220 235 255
219 234 254
214 229 250
219 234 255
219 234 255
214 229 250
213 228 250
216 231 251
218 233 253
218 233 254
217 232 253
215 230 250
218 233 253
218 233 254
216 231 252
212 228 248
144 163 196
123 144 177
58 93 134
58 93 138
59 93 144
57 91 133
61 95 146
58 93 134
58 92 136
59 94 139
60 96 140
57 91 138
167 184 207
220 235 255
220 235 255
221 235 255
221 235 255
221 235 255
221 235 255
221 235 255
221 235 255
221 235 255
221 235 255
221 235 255
221 235 255
221 235 255
158 176 207
59 93 129
61 96 145
59 93 128
60 94 143
59 94 130
59 94 134
60 95 143
61 96 139
60 95 135
60 95 144
59 94 133
58 93 124
58 92 126
58 92 130
59 94 129
60 95 139
60 94 130
61 96 136
60 95 130
60 94 141
60 94 135
60 94 134
60 95 137
60 94 130
60 95 137
60 95 134
60 95 145
61 96 144
60 95 135
61 96 141
60 94 135
60 94 131
60 95 145
61 96 145
59 94 134
61 95 139
60 95 145
60 94 134
60 94 128
60 95 141
59 93 134
60 95 135
59 94 137
59 93 130
60 95 139
60 95 141
60 95 137
60 94 139
59 93 135
59 93 137
61 95 141
61 96 144
60 94 136
59 93 133
60 94 136
59 93 133
61 96 137
59 93 125
60 95 139
59 94 134
60 95 134
60 94 138
61 96 141
60 95 143
60 94 135
61 96 140
60 94 129
60 95 142
59 92 127
59 94 135
60 94 129
58 92 133
59 93 135
58 92 131
58 92 125
59 94 136
56 89 125
58 91 130
58 91 129
59 93 132
60 94 136
59 93 131
59 92 129
59 93 137
56 89 119
59 92 130
58 90 127
57 90 129
57 89 128
59 92 132
57 88 128
56 88 126
56 87 124
56 88 128
54 85 109
56 86 121
57 87 120
54 84 118
52 81 106
53 81 106
51 78 107
51 77 106
68 77 79
68 67 41
55 56 29
46 50 30
50 53 36
46 50 28
50 55 38
50 56 38
48 54 38
44 53 38
52 58 41
57 67 47
65 71 41
82 87 57
69 75 52
76 81 53
84 88 59
92 96 57
102 103 61
108 108 63
106 108 66
98 101 64
103 103 62
107 109 69
114 115 68
118 119 68
119 119 64
130 129 77
119 118 64
131 128 73
130 129 69
132 130 73
133 131 72
141 139 80
135 132 71
137 134 74
149 144 81
144 142 82
144 141 75
140 137 78
141 138 78
147 144 78
148 145 78
152 147 83
146 143 79
151 148 79
157 153 85
154 150 81
160 155 80
155 151 84
154 149 75
153 149 79
158 153 79
153 149 79
155 152 82
158 153 80
167 161 91
163 158 85
161 155 78
166 159 84
165 158 85
164 159 83
167 162 83
164 158 83
164 158 84
162 158 81
162 157 83
170 164 90
167 161 88
166 161 80
169 164 91
168 161 87
167 162 83
169 162 82
173 166 94
169 162 82
163 158 77
166 160 85
168 161 84
170 163 86
168 162 87
169 162 87
170 164 91
168 162 84
169 163 89
170 163 86
167 162 87
171 165 89
171 164 87
169 163 84
169 162 84
165 161 82
170 163 84
166 160 80
171 165 90
171 164 91
173 166 92
172 165 84
167 160 87
168 163 84
171 164 90
169 163 86
170 163 84
168 162 84
166 160 84
167 161 86
168 162 86
163 156 84
166 159 84
167 162 85
167 160 89
158 152 76
162 155 80
157 151 84
170 162 90
170 163 85
172 164 96
167 161 86
169 162 87
165 158 89
161 154 77
166 160 84
163 155 81
164 157 85
163 156 82
168 161 88
163 157 80
163 157 80
161 154 78
164 158 84
161 155 84
161 156 81
166 159 89
165 158 84
167 160 87
162 156 81
162 156 84
160 153 79
165 159 85
160 155 80
159 153 78
161 154 85
151 145 75
159 152 80
163 156 83
161 155 83
159 153 77
153 148 70
158 151 80
221 236 255
221 236 255
221 236 255
221 236 255
221 236 255
221 236 255
221 236 255
221 236 255
221 236 255
221 236 255
221 236 255
221 236 255
221 236 255
221 236 255
221 236 255
221 236 255
221 236 255
221 236 255
221 236 255
221 236 255
221 236 255
221 236 255
221 236 255
221 236 255
221 236 255
221 236 255
221 235 255
221 236 255
221 235 255
221 236 255
221 236 255
221 236 255
221 236 255
221 236 255
221 236 255
221 236 255
221 236 255
221 236 255
221 236 255
221 236 255
221 236 255
221 236 255
221 236 255
221 236 255
221 236 255
221 236 255
221 236 255
221 236 255
221 236 255
221 236 255
221 236 255
221 236 255
221 236 255
221 236 255
221 236 255
221 236 255
221 236 255
221 236 255
221 236 255
221 235 255
221 236 255
221 236 255
221 236 255
221 236 255
221 236 255
221 235 255
219 234 254
217 232 252
218 232 252
217 232 252
218 233 253
215 229 250
217 232 252
215 229 249
217 232 252
219 234 254
218 233 252
217 231 252
216 230 250
215 229 250
219 234 254
221 236 255
221 236 255
221 236 255
221 236 255
221 236 255
221 236 255
221 235 255
221 236 255
221 236 255
221 235 255
221 236 255
221 236 255
221 236 255
221 236 255
221 236 255
221 236 255
221 236 255
221 236 255
221 235 255
221 236 255
221 236 255
221 236 255
221 235 255
221 236 255
220 235 255
221 236 255
219 233 251
221 236 255
220 235 254
214 229 250
213 227 246
217 232 253
215 229 250
213 227 248
218 232 252
218 233 252
217 232 253
220 235 255
217 231 250
214 228 249
216 230 250
145 164 190
128 148 184
57 91 131
57 91 125
58 92 130
57 91 136
59 93 131
58 93 133
56 90 127
58 93 138
59 93 133
56 90 124
171 188 211
221 236 255
221 236 255
221 236 255
221 236 255
221 236 255
221 236 255
221 236 255
221 236 255
221 236 255
221 236 255
221 236 255
221 236 255
221 236 255
145 163 187
59 94 142
60 95 137
58 92 124
58 92 129
59 94 135
60 95 140
60 94 134
59 93 130
60 95 135
61 96 144
60 94 140
61 96 144
59 94 133
59 94 128
61 95 145
61 96 142
59 93 134
60 94 133
59 94 129
59 94 125
59 93 129
61 95 142
59 94 122
59 94 128
59 94 128
60 95 142
60 95 148
61 97 149
59 94 131
60 94 134
58 93 130
59 94 133
60 95 131
61 95 137
60 94 130
59 94 139
60 94 129
60 95 134
60 94 134
60 95 139
62 97 148
59 94 135
59 94 125
61 96 139
60 95 141
59 93 130
60 95 137
59 94 129
59 93 122
60 95 141
61 96 141
61 96 144
61 96 144
59 94 131
60 94 134
60 95 130
60 95 133
58 92 129
60 94 134
59 94 134
60 94 134
58 92 126
59 92 128
59 94 136
60 94 140
60 94 134
59 94 130
59 93 127
58 92 133
59 92 122
59 93 135
57 90 120
60 94 142
60 94 138
58 91 125
59 93 132
59 93 132
58 91 132
58 92 137
59 92 137
59 93 136
58 91 125
59 93 128
60 93 138
58 90 124
55 88 117
58 91 130
60 93 143
56 88 120
57 90 134
56 89 125
54 84 108
58 91 132
56 86 109
55 87 118
54 84 117
54 84 113
53 82 116
53 82 120
55 85 113
51 79 107
47 71 88
73 82 77
77 76 38
59 59 34
54 56 35
49 52 35
36 40 27
32 38 23
42 48 30
45 51 29
52 59 40
44 53 40
72 78 50
67 71 46
66 73 46
88 92 57
82 85 46
69 73 43
78 84 54
92 95 58
92 93 56
98 99 54
110 111 63
104 105 57
112 113 67
109 109 61
122 120 65
116 117 64
125 124 66
127 125 69
119 118 65
133 132 75
122 123 66
138 135 74
139 136 70
132 130 77
133 132 71
137 134 74
143 140 79
155 151 85
148 144 76
144 140 78
148 145 83
142 140 74
150 147 83
151 146 83
149 145 71
156 151 88
163 158 89
156 152 81
149 146 74
156 152 81
150 146 82
151 147 74
153 149 80
154 151 79
153 149 78
164 158 87
159 154 79
167 161 86
164 158 81
161 156 83
168 163 87
163 158 78
164 158 83
169 163 87
161 156 78
170 164 87
167 162 82
166 160 82
171 164 90
168 162 83
169 162 87
172 165 90
168 161 89
168 162 87
169 163 84
167 160 85
170 163 87
172 166 87
168 162 81
166 160 83
166 160 86
167 160 81
167 161 80
170 163 83
172 165 90
170 165 85
169 162 89
171 165 84
170 162 87
170 163 83
169 163 86
167 160 83
170 163 81
166 160 81
165 158 78
168 161 83
171 164 93
165 159 81
170 163 85
166 160 82
162 156 80
168 162 87
168 161 88
168 161 88
174 166 93
167 161 86
168 161 87
168 161 89
164 158 79
168 161 79
162 156 73
168 161 90
173 165 94
164 158 84
163 157 86
166 159 81
165 158 83
168 162 80
161 155 81
163 156 82
165 157 86
161 155 82
157 152 78
163 157 84
160 155 75
159 153 78
167 161 85
161 155 81
160 153 79
160 153 76
162 156 83
160 154 79
162 155 85
160 154 81
162 156 84
160 154 75
161 154 81
162 156 84
157 150 81
154 148 75
159 153 78
148 144 71
152 147 71
165 158 87
159 153 87
158 153 80
143 138 71
156 150 80
222 236 255
222 236 255
222 236 255
222 236 255
222 236 255
222 236 255
222 236 255
222 236 255
222 236 255
222 236 255
222 236 255
222 236 255
222 236 255
222 236 255
222 236 255
222 236 255
222 236 255
222 236 255
222 236 255
222 236 255
222 236 255
222 236 255
222 236 255
222 236 255
222 236 255
222 236 255
222 236 255
222 236 255
222 236 255
222 236 255
222 236 255
222 236 255
222 236 255
222 236 255
222 236 255
222 236 255
222 236 255
222 236 255
222 236 255
222 236 255
222 236 255
222 236 255
222 236 255
222 236 255
222 236 255
222 236 255
222 236 255
222 236 255
222 236 255
222 236 255
222 236 255
222 236 255
222 236 255
222 236 255
222 236 255
221 235 254
222 236 255
222 236 255
222 236 255
222 236 255
222 236 255
222 236 255
222 236 255
222 236 255
222 236 255
222 236 255
219 233 253
218 232 253
217 231 252
218 232 252
220 234 254
217 231 252
219 233 253
217 231 252
218 232 251
220 234 254
218 232 252
219 233 253
219 233 253
219 233 251
218 232 252
222 236 255
222 236 255
222 236 255
222 236 255
222 236 255
222 236 255
222 236 255
222 236 255
222 236 255
222 236 255
222 236 255
222 236 255
222 236 255
222 236 255
222 236 255
222 236 255
222 236 255
222 236 255
222 236 255
222 236 255
222 236 255
222 236 255
222 236 255
222 236 255
222 236 255
222 236 255
222 236 255
218 232 251
218 232 253
218 232 252
221 235 255
218 232 252
219 233 254
219 233 253
217 231 250
219 233 253
218 232 252
219 233 253
218 232 250
218 232 252
219 233 252
153 171 192
127 146 169
57 91 122
60 95 141
60 95 139
59 93 136
58 92 127
57 91 129
57 90 125
57 91 126
57 91 125
58 93 128
185 201 228
222 236 255
222 236 255
222 236 255
222 236 255
221 236 255
221 236 255
221 236 255
221 236 255
221 236 255
221 236 255
222 236 255
222 236 255
221 236 255
145 164 188
59 93 137
59 93 129
60 94 131
59 94 133
59 94 135
58 92 129
60 95 136
58 93 131
61 95 142
59 94 135
60 94 137
60 96 139
60 94 139
60 94 136
60 96 140
61 95 144
59 94 135
61 95 143
60 95 140
60 95 134
60 95 137
59 93 125
59 94 126
58 92 124
61 96 145
59 94 134
60 94 134
60 95 144
61 95 135
58 93 128
59 93 128
60 94 135
60 95 141
59 94 125
60 95 139
60 95 133
59 94 130
59 93 122
59 93 129
60 94 134
59 94 130
59 93 130
60 94 130
61 96 139
59 93 126
60 95 136
61 95 140
60 94 130
59 93 133
59 93 129
58 92 128
60 95 137
60 95 142
59 93 124
61 96 143
59 94 134
60 95 142
60 94 133
59 93 137
60 94 135
59 94 136
59 93 130
59 93 130
59 93 118
58 91 131
61 95 145
59 93 131
61 95 135
59 93 133
59 93 134
58 91 131
57 91 126
59 93 122
61 95 139
59 93 134
60 94 133
60 95 141
59 92 132
59 93 121
60 94 144
60 94 132
59 93 135
58 91 124
56 88 119
56 88 120
58 91 132
59 93 133
58 91 128
58 91 124
57 90 124
57 88 131
56 88 118
57 88 114
53 83 114
56 88 118
55 87 114
54 83 115
55 84 124
56 86 125
51 76 100
51 79 102
49 75 99
74 79 70
69 67 40
48 48 24
60 61 29
40 46 30
52 57 35
42 48 32
47 53 32
39 46 29
48 53 30
44 51 33
45 55 35
60 66 39
85 88 53
71 77 51
84 86 52
81 85 52
87 89 50
99 100 62
89 92 52
93 94 56
112 112 68
113 112 67
100 102 58
120 118 72
128 126 69
117 117 65
123 121 69
128 127 75
136 134 76
120 120 64
138 135 74
132 130 72
132 130 69
137 134 74
140 136 75
133 131 67
144 141 72
151 146 86
140 138 81
144 142 81
146 142 78
142 139 77
150 147 78
149 145 75
155 149 81
151 146 79
157 153 78
158 153 82
158 153 80
158 153 82
161 155 79
158 153 85
152 148 79
159 154 83
160 155 82
162 157 83
156 151 76
167 161 89
166 161 80
165 158 82
166 161 81
158 153 79
164 158 83
166 160 82
165 160 82
170 164 86
167 161 85
167 161 76
166 160 82
167 161 86
167 162 84
166 160 80
167 162 83
168 161 85
168 162 85
169 162 82
169 162 84
164 158 76
169 164 84
168 162 84
168 162 85
170 163 84
172 164 90
170 163 90
169 162 84
167 161 82
172 165 88
170 164 86
166 160 84
166 160 79
173 165 88
165 158 82
167 161 80
169 163 80
166 159 86
164 157 80
169 162 85
169 162 83
167 161 83
172 165 88
164 158 80
164 157 81
163 157 83
166 160 81
166 160 84
169 163 86
165 158 87
165 159 84
166 160 79
166 161 81
163 156 83
165 158 87
168 161 81
169 162 87
162 156 80
161 155 75
163 157 80
165 158 82
162 157 77
163 157 80
161 154 83
166 160 84
170 164 91
165 158 82
164 158 81
165 158 79
164 158 86
160 154 79
159 152 76
159 152 77
163 157 86
161 155 76
161 154 78
155 150 74
160 154 73
160 154 80
154 147 75
158 152 77
151 146 71
156 149 78
151 145 72
156 150 75
153 147 74
155 149 75
157 150 80
156 150 81
164 158 79
156 149 75
222 236 255
222 236 255
222 236 255
222 236 255
222 236 255
222 236 255
222 236 255
222 236 255
222 236 255
222 236 255
223 236 255
223 236 255
223 236 255
223 236 255
223 236 255
223 236 255
223 236 255
223 236 255
223 236 255
223 236 255
223 236 255
223 236 255
223 236 255
223 236 255
223 236 255
223 236 255
223 236 255
223 236 255
223 236 255
223 236 255
223 237 255
223 237 255
223 237 255
223 237 255
223 237 255
223 237 255
223 237 255
223 237 255
223 237 255
223 237 255
223 237 255
223 236 255
223 237 255
223 237 255
223 237 255
223 237 255
223 237 255
223 237 255
221 235 254
223 237 255
223 237 255
223 237 255
223 237 255
223 237 255
223 236 255
223 237 255
223 236 255
223 237 255
223 236 255
223 237 255
223 237 255
223 236 255
223 237 255
223 237 255
223 236 255
223 236 255
221 235 254
220 234 253
219 233 252
219 233 252
221 235 254
218 232 252
220 234 253
221 235 254
221 235 253
219 233 253
222 236 254
217 231 250
216 230 248
221 235 254
221 235 254
223 237 255
223 236 255
223 237 255
223 236 255
223 236 254
223 237 255
223 237 255
223 236 255
223 237 255
223 237 255
223 236 254
223 237 255
222 236 253
223 236 254
223 236 254
223 237 255
223 237 255
222 236 254
223 236 254
223 237 255
223 237 255
222 236 253
223 237 255
223 236 254
223 236 254
222 236 253
221 235 253
219 233 252
216 230 250
219 233 251
219 233 252
222 235 254
218 232 252
221 235 253
217 231 250
221 234 254
218 232 250
219 233 252
222 235 254
216 230 246
218 232 244
159 176 196
114 135 157
58 92 128
58 92 126
55 88 120
57 91 128
57 91 126
59 93 129
58 92 125
57 91 120
57 91 118
56 89 106
193 208 228
223 237 255
223 236 255
223 236 255
222 236 255
222 236 255
222 236 255
222 236 255
222 236 255
222 236 255
222 236 255
222 236 255
222 236 255
222 236 255
160 177 203
59 94 133
59 94 135
59 93 134
58 92 129
59 94 140
59 93 126
58 93 126
61 97 140
59 93 120
59 93 129
61 96 141
59 94 128
59 93 133
60 96 136
59 93 133
61 95 134
59 94 131
60 95 137
60 94 136
60 94 142
59 94 131
60 95 136
60 95 137
59 93 124
60 95 135
60 94 128
60 94 139
61 96 136
61 95 135
58 92 125
61 95 137
58 91 118
61 96 139
60 94 140
59 93 136
60 95 140
60 94 126
61 96 133
60 94 136
61 96 145
60 95 137
59 94 130
60 94 140
61 95 133
60 95 133
59 93 122
59 94 131
60 95 133
60 95 142
60 94 134
57 91 118
60 94 137
59 94 133
60 94 131
60 94 137
60 95 141
61 96 141
60 95 138
59 93 131
59 93 130
59 92 126
57 91 125
59 93 126
60 93 129
61 96 142
60 94 139
59 93 136
60 94 141
60 95 137
59 93 134
58 91 132
60 95 135
60 94 136
59 93 128
60 94 144
58 91 128
58 92 127
59 93 140
57 90 126
59 93 132
58 91 117
57 90 130
59 92 131
58 91 124
57 90 120
58 91 129
57 89 127
57 89 115
58 92 131
58 90 130
58 89 132
57 89 117
56 88 114
55 85 113
57 87 124
53 83 108
54 83 104
53 81 113
56 86 118
54 83 118
54 82 99
45 69 78
59 67 65
56 56 32
59 59 30
54 55 26
36 41 17
45 48 20
38 42 21
41 48 29
56 62 44
33 42 26
49 55 36
52 56 30
72 76 44
79 83 47
58 64 45
69 75 49
88 90 49
89 89 42
87 90 49
97 99 61
105 106 63
107 108 58
102 103 58
90 93 57
101 102 61
107 109 62
121 121 65
126 124 70
123 122 71
120 121 69
124 122 68
125 124 68
131 128 70
134 132 75
139 137 71
132 130 77
138 136 81
151 146 80
146 143 76
141 138 77
144 141 75
144 140 78
147 143 70
148 145 73
151 147 75
151 147 78
157 152 83
148 145 75
145 142 78
158 154 80
159 154 80
152 148 73
161 155 80
161 156 82
155 149 80
158 153 79
161 156 80
157 152 78
163 157 78
160 156 84
168 162 86
162 157 84
160 155 79
166 160 80
156 152 74
163 157 78
165 159 81
163 159 84
163 157 81
164 158 82
163 157 74
169 162 84
163 157 74
170 163 84
165 159 82
169 163 86
168 162 80
167 160 80
167 160 83
163 158 79
167 161 83
170 163 84
167 161 83
168 162 84
165 157 76
173 165 91
168 162 84
167 161 87
167 160 82
168 161 85
163 157 78
168 162 83
169 163 83
168 162 87
168 161 87
165 159 83
170 163 84
167 160 90
166 159 83
166 161 79
164 157 80
164 158 80
167 161 83
163 158 77
166 160 79
160 154 73
162 156 80
161 156 80
167 160 84
167 160 84
162 156 75
162 155 80
166 160 80
170 163 84
166 160 84
158 151 75
168 160 86
167 161 87
164 157 78
160 153 72
157 151 80
163 156 84
162 156 84
165 158 86
165 159 83
163 156 77
154 149 69
160 153 76
159 153 75
162 156 77
154 148 73
165 158 83
164 157 80
158 151 80
169 162 84
157 151 75
159 153 81
154 149 70
157 151 80
163 155 84
156 151 77
158 152 74
152 148 75
155 149 75
156 150 79
153 146 77
156 150 67
153 147 77
157 150 83
223 236 255
223 236 255
223 236 255
223 236 255
223 236 255
223 236 255
223 237 255
223 237 255
223 237 255
223 237 255
223 237 255
223 237 255
223 237 255
223 237 255
223 237 255
223 237 255
223 237 255
223 237 255
223 237 255
223 237 255
224 237 255
224 237 255
224 237 255
224 237 255
224 237 255
224 237 255
224 237 255
224 237 255
224 237 255
224 237 255
224 237 255
224 237 255
224 237 255
224 237 255
224 237 255
224 237 255
224 237 255
224 237 255
224 237 255
224 237 255
224 237 255
224 237 255
224 237 255
223 236 255
224 237 255
224 237 255
224 237 255
224 237 255
224 237 255
224 237 255
224 237 254
224 237 254
223 237 254
223 236 253
221 235 250
223 237 254
224 237 255
224 237 254
224 237 255
224 237 255
224 237 255
224 237 254
224 237 255
224 237 255
223 236 254
224 237 254
222 236 250
223 236 255
221 235 250
222 235 250
217 231 246
219 233 248
219 233 250
222 236 250
220 234 251
220 233 251
220 234 248
221 234 250
218 232 248
221 234 252
222 236 250
222 236 250
222 236 250
224 237 254
222 236 250
223 236 252
222 235 250
223 236 252
222 235 249
220 234 244
223 236 253
221 235 249
220 234 245
222 235 249
221 235 246
221 235 248
218 232 238
218 232 237
217 232 236
214 229 228
217 231 234
213 228 225
212 228 220
210 225 212
208 224 204
207 223 203
208 224 207
204 221 194
203 219 197
193 212 168
194 212 163
197 215 177
198 216 172
188 208 140
191 210 156
187 206 141
184 204 129
181 202 122
180 201 90
176 198 84
180 201 76
176 198 107
123 144 144
92 118 129
57 90 126
55 87 113
57 91 114
55 89 120
58 92 132
56 90 129
57 91 121
58 92 124
56 89 124
59 93 124
208 222 238
224 237 255
224 237 255
223 237 255
222 236 255
222 236 255
222 236 255
222 236 255
222 236 255
222 236 255
222 236 255
222 236 255
222 236 255
222 236 255
169 185 205
60 94 135
60 94 143
60 95 125
58 92 126
59 94 131
59 93 128
60 95 133
59 93 134
59 94 136
59 93 129
59 94 125
60 95 140
59 94 126
59 93 134
59 94 135
59 93 131
61 96 145
60 95 133
59 93 130
58 93 122
60 95 137
59 94 128
61 96 142
60 94 129
60 95 135
60 94 134
59 94 130
60 95 141
58 92 114
61 96 140
60 94 129
60 95 135
59 94 125
60 94 129
61 95 136
60 95 139
60 95 136
60 94 135
59 93 129
59 93 128
60 94 137
59 93 128
61 96 140
60 95 139
61 95 139
60 95 143
60 94 136
59 94 130
58 92 126
60 94 133
60 94 135
59 93 126
58 91 131
59 93 128
60 94 132
59 93 128
61 96 144
59 93 125
60 94 126
60 94 131
60 95 138
61 96 143
59 94 137
59 94 135
59 93 122
58 92 133
60 94 132
59 94 133
56 89 113
60 93 131
58 92 120
58 91 126
59 92 123
60 93 130
59 92 137
59 92 128
59 93 133
58 91 126
60 94 138
58 92 128
59 93 128
57 90 117
60 93 134
58 91 134
59 93 135
59 92 129
57 90 122
58 90 126
57 89 131
55 87 121
58 89 123
56 88 124
56 87 117
56 86 117
56 87 119
55 85 105
54 82 108
54 83 123
55 84 115
55 84 119
51 78 99
48 73 87
63 69 49
62 61 31
46 48 24
36 39 19
47 50 30
32 37 21
41 45 26
44 50 30
41 48 29
58 63 35
61 67 46
59 65 36
53 61 35
59 65 38
70 75 45
79 79 43
80 84 48
79 83 47
86 91 58
89 91 57
98 99 58
119 117 64
101 103 57
103 104 60
115 114 59
98 101 60
112 112 59
124 124 68
122 121 66
110 110 57
131 129 73
127 125 67
130 129 64
129 128 70
137 134 71
135 133 69
141 138 74
139 137 75
136 134 70
147 142 74
148 144 72
147 143 72
144 141 67
143 141 73
155 149 79
144 141 73
146 142 75
153 148 77
153 149 74
154 150 80
148 144 78
157 153 78
164 159 85
162 157 78
158 153 75
163 159 87
164 158 81
159 154 73
158 153 76
159 155 78
164 158 82
163 156 73
164 158 80
167 161 86
164 159 80
168 161 82
164 159 78
166 160 81
169 163 87
169 163 90
166 160 82
168 161 83
167 161 78
170 163 88
167 161 78
168 162 82
171 164 87
168 161 80
167 161 78
168 162 85
171 164 87
167 162 77
172 165 84
168 162 84
169 162 84
164 159 78
170 164 88
165 161 79
168 161 79
163 158 72
168 161 79
171 164 84
167 160 79
168 162 80
164 157 75
166 160 78
170 163 84
166 160 81
169 162 80
164 157 77
162 156 80
167 161 82
163 157 84
167 160 83
166 160 85
164 159 78
160 155 73
166 159 85
170 163 82
163 156 79
167 161 80
161 154 79
161 155 75
164 158 74
160 153 74
158 152 75
156 149 73
165 159 75
160 154 77
166 160 84
163 157 81
164 158 75
165 158 80
168 161 87
161 156 77
161 155 80
158 153 74
164 157 81
155 150 76
155 150 72
165 158 84
160 153 80
151 145 70
163 156 77
168 160 84
162 155 80
159 153 79
158 153 80
153 147 70
155 149 79
157 152 74
156 150 72
148 142 72
157 151 72
156 150 72
160 154 76
155 148 77
160 154 79
160 152 83
223 237 255
223 237 255
223 237 255
223 237 255
223 237 255
223 237 255
224 237 255
224 237 255
224 237 255
224 237 255
224 237 255
224 237 255
224 237 255
224 237 255
224 237 255
224 237 255
224 237 255
224 237 255
224 237 255
224 237 255
224 237 255
224 237 255
224 237 255
224 237 255
225 237 255
224 237 255
225 237 255
225 237 255
225 237 255
223 236 250
220 233 241
218 232 236
212 227 214
210 226 211
205 221 198
209 225 207
206 222 198
205 222 196
204 221 194
204 221 193
203 220 186
203 220 191
201 219 179
203 220 189
202 220 188
199 217 175
196 215 161
199 216 169
200 218 179
205 222 196
200 217 177
201 219 184
203 220 189
199 217 171
202 219 188
202 219 179
199 217 177
198 216 169
200 218 177
200 218 181
200 218 177
197 216 165
201 218 179
203 220 186
203 220 188
197 216 167
199 217 175
196 215 169
194 212 161
198 216 178
194 212 169
190 210 157
189 208 155
191 210 152
191 210 152
189 209 144
190 209 151
189 208 152
187 206 143
193 213 155
190 210 137
189 209 133
186 207 117
187 208 130
184 205 105
187 208 122
183 204 102
183 204 102
180 202 84
181 203 92
177 200 67
180 202 80
177 199 72
179 201 72
175 198 36
175 198 57
177 199 44
174 198 25
175 198 25
176 199 51
175 198 0
177 199 36
175 198 51
175 198 36
177 199 36
177 200 51
176 199 36
176 199 57
172 196 0
174 197 60
173 197 65
173 197 54
171 194 51
169 192 65
175 198 67
173 196 67
174 196 74
176 199 67
173 196 78
173 196 65
178 200 94
178 200 102
123 147 121
100 125 120
58 93 132
58 92 128
55 88 112
57 91 111
55 89 110
57 91 115
57 90 118
59 94 136
56 90 115
69 100 115
171 195 31
194 213 153
218 232 236
224 237 255
223 236 255
222 236 255
222 236 255
222 236 255
222 236 255
222 236 255
222 236 255
222 236 255
222 236 255
222 236 255
172 188 210
58 91 117
57 91 126
59 93 131
58 92 121
58 92 122
60 94 135
59 94 134
59 93 128
59 93 131
60 95 133
59 93 122
60 95 134
61 95 144
60 95 136
59 93 122
58 92 121
59 93 124
59 93 124
59 94 131
59 93 130
61 96 141
59 93 131
60 95 136
59 92 120
60 94 134
60 95 136
60 94 124
59 93 125
58 93 125
59 94 137
60 95 126
60 94 124
61 96 144
59 93 120
60 94 133
59 94 130
58 92 125
60 95 137
59 94 135
60 95 139
60 94 135
59 93 131
60 94 133
58 92 124
61 96 144
58 93 126
60 94 129
59 93 130
62 96 145
61 95 136
60 94 126
59 93 129
61 95 140
60 95 135
59 93 126
60 94 129
59 93 134
60 94 134
60 94 139
60 95 136
58 92 126
58 92 130
58 92 124
61 96 134
60 94 130
60 94 133
60 95 134
60 94 135
59 93 130
60 93 134
59 93 135
60 94 132
58 91 121
58 91 125
58 93 129
60 95 138
60 93 134
58 92 134
57 90 120
58 91 122
58 92 129
58 91 124
58 91 126
58 90 128
57 89 118
59 92 128
56 87 106
58 91 135
56 89 127
57 89 114
56 88 127
54 83 109
56 88 121
55 85 113
55 86 117
56 86 115
56 87 117
53 82 111
52 80 111
54 83 120
51 77 104
48 72 83
56 63 61
56 56 32
52 52 22
48 49 24
44 47 21
44 46 23
41 46 28
41 47 24
47 53 33
43 51 30
47 53 34
46 52 29
55 59 35
78 81 37
72 76 39
81 84 45
71 77 47
93 95 48
89 91 53
94 97 54
97 98 50
96 97 47
95 97 48
106 106 61
104 106 55
113 113 60
112 112 66
121 121 68
113 113 62
120 119 69
123 121 67
128 126 65
119 118 64
131 130 70
142 138 75
142 139 75
134 132 67
145 142 78
145 141 77
146 143 70
147 143 78
140 138 66
141 138 76
149 146 69
153 148 80
141 138 74
139 137 69
156 151 75
140 137 68
155 151 81
149 146 79
158 152 79
158 153 79
154 150 75
161 155 78
160 154 78
155 150 79
161 156 81
158 153 74
166 160 87
158 153 71
162 156 80
158 153 79
165 159 79
157 153 74
163 158 82
164 158 79
169 161 85
166 159 81
165 159 75
167 160 84
163 157 78
163 157 77
170 163 83
166 160 80
166 161 80
165 159 82
166 160 78
170 162 77
166 159 79
170 163 81
164 159 74
161 155 69
167 161 76
164 157 77
166 161 82
170 163 80
166 160 76
168 161 83
164 157 80
163 157 75
160 154 75
169 162 78
166 160 79
165 160 76
162 157 71
166 160 79
166 159 78
163 157 72
167 160 84
167 161 87
169 162 80
167 160 81
163 156 76
167 161 81
165 158 79
167 161 82
161 155 71
164 157 77
167 160 85
159 154 75
163 155 74
166 159 84
163 157 83
162 156 80
162 156 78
166 159 81
168 160 89
164 157 79
155 151 71
166 159 80
163 157 82
165 158 85
160 154 76
161 154 80
166 160 81
163 156 81
161 155 80
160 154 80
161 155 75
159 153 75
154 149 74
161 154 78
157 151 75
160 155 71
156 150 76
158 152 75
159 152 81
153 148 64
156 149 78
156 149 80
154 148 71
158 152 75
156 149 74
160 154 84
152 147 76
159 153 72
162 155 80
154 148 71
224 237 255
224 237 255
224 237 255
224 237 255
224 237 255
224 237 255
224 237 255
224 237 255
224 237 255
224 237 255
224 237 255
224 237 255
225 237 255
225 237 255
225 237 255
225 238 255
224 237 254
221 234 242
217 231 231
210 226 212
209 225 211
201 219 182
200 218 175
197 215 163
189 209 130
190 210 133
185 205 102
181 202 80
177 199 51
173 197 0
174 198 0
175 198 0
175 198 0
175 198 0
176 199 25
184 205 102
184 205 105
184 206 111
184 205 102
182 204 99
181 202 76
178 200 72
182 204 99
181 203 84
177 200 72
177 200 67
176 199 57
179 202 76
177 200 57
177 200 62
177 201 80
176 199 44
175 199 36
175 198 54
176 199 54
178 200 51
173 197 31
175 199 36
177 200 57
176 199 57
175 198 36
177 200 62
176 199 44
175 198 25
175 198 36
176 199 51
175 199 44
173 198 44
177 200 62
173 197 31
175 197 36
172 196 25
174 197 18
173 196 31
171 195 31
176 199 0
173 196 25
172 196 18
174 198 36
176 199 57
176 200 62
176 199 51
176 199 44
176 199 51
173 197 25
176 199 62
177 200 62
178 200 44
174 198 51
176 199 57
176 199 51
176 199 57
178 200 51
172 196 44
175 198 36
175 198 44
172 196 51
176 199 51
174 198 44
176 199 25
175 198 51
176 199 44
176 199 57
175 199 67
178 200 72
176 199 57
176 200 62
176 199 0
174 197 18
168 192 47
174 197 65
171 195 40
174 197 54
170 193 57
172 195 67
174 196 67
174 197 36
173 196 67
170 194 60
177 199 92
178 199 85
163 186 70
104 128 103
71 99 119
56 89 109
56 89 113
58 92 126
56 89 114
55 88 103
58 92 123
56 89 115
58 91 123
55 88 108
102 128 107
174 198 0
173 197 0
179 201 72
217 231 233
223 237 255
223 236 255
223 236 255
223 236 255
223 236 255
223 236 255
223 236 255
223 236 255
223 236 255
223 236 255
184 200 222
58 92 124
59 94 135
58 92 125
58 92 110
60 94 125
60 95 136
58 93 131
58 92 131
61 96 139
59 93 129
60 94 135
60 94 126
59 93 130
62 97 139
59 94 122
59 93 125
60 94 131
59 94 124
60 94 128
60 94 139
60 94 130
59 93 133
60 95 139
58 92 125
59 94 122
59 94 134
59 93 130
60 94 134
60 95 133
59 94 134
60 95 141
59 94 130
60 95 126
60 94 129
59 93 126
61 95 130
60 95 134
60 95 135
59 93 129
60 94 130
61 95 141
61 95 134
59 94 133
60 95 136
62 96 143
59 93 120
60 95 133
59 92 125
60 94 131
60 95 130
59 94 126
60 95 136
61 95 135
59 93 131
60 95 134
59 94 135
61 95 132
59 93 133
60 94 131
59 94 131
60 94 134
58 92 129
59 93 118
60 94 129
58 91 119
58 92 138
58 92 129
59 93 134
59 93 128
60 94 136
58 91 126
58 91 129
59 92 138
58 91 128
59 93 133
59 92 132
58 92 129
58 91 125
59 92 138
59 93 138
59 91 131
60 93 135
56 88 120
57 89 119
60 93 137
57 90 132
59 92 136
57 88 120
58 90 123
57 89 121
56 88 120
57 89 129
54 84 110
56 86 121
55 86 110
55 85 113
50 78 94
53 80 106
51 80 104
52 80 109
47 71 92
47 73 89
83 85 53
60 62 22
59 60 24
40 41 22
50 51 20
45 48 25
41 47 27
44 47 12
36 44 22
46 53 26
48 53 27
60 67 31
57 61 35
67 73 38
67 72 40
69 72 35
89 90 47
90 91 51
82 85 49
103 104 47
100 100 58
95 97 52
100 100 56
117 115 65
100 102 56
109 109 62
103 104 61
124 122 70
115 115 58
126 125 62
121 119 57
133 131 71
125 124 67
136 132 67
136 134 67
136 133 69
146 141 73
136 132 71
131 128 66
129 128 67
143 140 72
144 140 69
142 140 74
148 144 73
151 145 70
149 146 74
148 146 70
154 149 75
148 144 73
153 149 74
151 147 75
156 152 79
153 148 80
157 153 76
157 152 65
158 153 77
150 145 72
162 157 78
159 153 78
167 161 87
156 151 73
162 157 78
161 154 77
163 157 80
160 154 78
166 160 78
165 159 77
167 160 81
165 160 78
164 158 74
166 161 83
164 158 79
166 159 76
168 161 81
167 161 77
169 161 78
163 157 72
164 159 80
165 159 78
165 158 83
172 165 86
167 159 78
166 160 75
164 158 76
167 161 79
161 155 75
167 161 81
166 160 83
167 161 78
166 160 71
164 158 81
162 155 77
166 160 79
166 159 79
163 158 70
161 155 72
166 160 83
169 162 80
161 155 81
165 157 78
165 159 75
168 161 80
166 159 82
163 157 76
166 160 73
162 157 75
161 155 72
162 157 76
167 160 77
160 154 74
163 157 80
164 157 81
160 154 73
165 157 77
156 152 70
167 160 87
160 153 74
160 155 76
166 160 82
158 153 72
162 156 75
168 160 80
163 158 71
160 153 79
158 153 71
160 154 79
165 157 82
166 158 80
158 151 75
166 160 77
160 154 79
159 153 76
156 149 72
161 155 79
148 142 70
160 153 79
158 151 80
157 150 80
160 153 75
159 153 76
151 145 75
151 144 69
149 144 61
150 145 69
152 148 75
150 145 74
156 150 75
162 156 80
160 154 83
224 237 255
224 237 255
224 237 255
224 237 255
224 237 255
225 237 255
225 237 255
225 238 255
225 238 255
219 233 237
215 229 226
203 220 188
201 219 182
193 212 149
189 209 125
177 200 62
174 198 0
174 197 0
175 198 0
174 198 0
174 197 0
176 199 0
176 198 0
174 198 0
175 198 0
175 198 0
175 198 0
175 198 0
174 198 0
177 199 0
174 198 0
173 197 0
176 199 0
174 197 0
174 197 36
177 200 72
182 204 92
178 200 62
182 204 92
181 203 88
180 202 84
177 200 51
179 201 72
179 201 76
177 199 51
173 198 36
175 198 62
176 199 57
178 200 57
178 201 72
177 200 67
177 200 62
174 198 31
177 199 36
176 199 57
174 197 36
176 199 25
175 198 36
175 199 57
177 200 62
176 199 44
177 200 67
174 198 36
177 200 57
177 199 36
175 199 51
174 197 51
177 200 67
175 199 57
176 199 44
176 199 51
172 196 51
173 197 36
172 195 47
174 198 31
172 196 40
177 200 78
175 199 62
175 198 36
173 197 36
172 196 44
176 199 51
174 198 44
177 200 57
175 199 57
174 198 36
174 198 36
176 200 62
178 200 62
175 199 62
176 198 36
175 199 51
174 197 62
174 197 36
178 200 67
176 199 36
176 199 36
174 198 44
173 197 36
174 198 51
175 199 51
178 200 57
175 198 62
175 199 51
172 196 25
176 199 76
172 195 25
176 199 51
174 197 44
174 197 44
172 196 47
171 194 54
171 194 62
169 193 54
172 195 67
171 195 40
176 198 78
173 196 70
175 198 97
172 194 62
173 197 44
156 178 88
104 129 88
55 89 103
55 88 113
55 88 115
57 91 111
56 90 115
56 89 106
56 89 113
56 90 115
55 89 109
56 89 111
142 166 60
174 197 0
175 198 0
174 197 0
195 214 157
223 237 255
223 236 255
223 237 255
223 237 255
223 237 255
223 237 255
223 237 255
223 237 255
223 237 255
223 237 255
204 218 238
57 91 125
58 92 131
58 92 128
58 92 128
60 94 139
58 92 126
60 94 129
60 94 130
59 93 137
59 93 125
59 94 131
61 96 143
60 94 142
59 93 124
59 94 129
59 93 124
60 94 130
60 95 140
60 95 133
59 94 126
60 94 131
58 91 120
61 96 143
60 94 135
59 93 135
59 93 124
59 94 137
60 94 136
60 95 135
59 93 124
59 94 124
59 93 125
60 94 130
60 95 135
60 95 128
60 95 133
60 95 131
59 93 121
60 94 136
59 94 129
60 95 142
59 93 130
58 91 111
59 94 130
58 92 124
59 93 133
59 94 131
61 97 143
59 94 124
58 92 124
60 95 135
60 94 140
61 96 140
59 93 121
61 96 139
58 92 128
59 93 128
60 95 135
56 90 120
59 93 132
61 95 139
58 92 120
60 94 128
59 93 130
59 92 129
59 93 131
59 93 133
59 92 129
59 94 129
60 94 130
60 95 140
58 93 132
59 94 128
59 92 125
58 91 120
57 90 123
58 91 125
59 93 128
59 94 134
58 91 124
60 94 139
57 90 128
58 91 125
58 90 120
60 93 135
58 90 116
58 90 125
57 88 116
56 88 121
57 90 128
57 89 124
57 89 120
58 91 130
55 85 114
54 83 109
54 84 108
54 84 111
53 83 112
50 76 107
53 81 106
48 72 87
49 74 87
101 101 64
65 63 35
59 60 16
53 53 18
47 49 20
38 42 11
39 42 22
43 47 21
63 64 25
45 50 26
51 57 28
55 60 34
61 66 30
62 66 40
59 63 34
77 81 39
80 83 34
93 94 49
93 94 51
80 84 47
93 96 51
106 106 55
102 103 54
94 96 51
111 110 52
115 115 65
107 107 58
114 114 53
119 118 65
121 120 60
115 116 62
128 125 51
130 128 67
123 123 67
132 130 66
136 133 69
139 135 69
147 143 76
135 132 66
141 138 74
141 137 68
139 136 69
149 146 72
146 142 73
149 144 77
140 137 65
143 141 70
145 142 72
149 144 75
151 147 76
151 148 73
146 142 71
149 146 69
153 148 75
147 143 70
156 150 73
156 152 73
160 155 75
155 151 77
161 156 69
162 157 84
162 156 80
164 158 78
158 152 71
161 156 74
164 158 77
157 151 73
165 158 85
167 161 76
168 162 79
164 159 80
163 157 76
165 159 74
166 159 78
165 159 76
164 158 80
169 163 80
171 164 84
166 159 82
164 158 73
173 166 87
170 163 81
165 159 77
164 158 69
172 164 86
164 158 69
167 159 76
166 160 81
160 155 67
163 157 73
169 161 85
162 156 73
160 154 74
169 162 83
164 159 74
168 161 80
167 161 80
167 160 80
163 156 79
155 150 67
168 161 77
160 153 79
163 157 78
166 159 81
167 161 79
163 157 73
166 158 82
168 161 82
157 151 75
164 158 80
166 159 75
163 156 82
165 159 78
159 154 73
162 157 78
162 156 68
163 156 77
168 161 80
162 155 74
159 153 75
158 152 72
160 155 80
165 159 83
164 158 79
156 151 69
161 154 79
164 157 78
164 157 75
158 152 74
159 153 75
160 153 75
155 151 73
155 150 75
160 154 75
158 150 80
152 147 69
159 152 75
155 149 70
157 151 75
156 150 66
160 152 75
149 143 66
159 153 75
155 150 68
155 149 76
156 150 75
146 141 66
155 148 80
148 144 66
224 237 255
225 237 255
225 237 255
225 238 255
220 233 240
205 222 194
196 215 163
187 208 125
178 201 67
174 197 0
172 197 0
175 198 0
174 198 0
174 197 0
174 198 0
174 198 0
175 198 0
175 198 0
173 197 0
176 199 0
174 198 0
174 198 0
175 198 0
175 198 0
176 199 0
175 198 0
174 198 0
175 198 0
174 198 0
175 198 0
175 198 0
174 198 0
173 197 0
174 197 0
174 197 0
175 198 44
177 200 51
177 200 62
176 199 44
181 203 84
182 204 92
178 201 76
176 199 57
178 200 67
176 200 57
179 201 62
177 200 44
177 200 57
174 198 36
177 200 51
175 199 36
173 197 40
177 199 36
174 197 25
177 199 44
175 199 51
175 199 36
177 200 57
176 200 67
175 199 44
174 198 67
176 199 62
172 197 25
176 198 36
178 201 80
177 200 72
175 198 51
174 198 25
176 200 67
174 197 36
174 198 51
174 198 57
175 198 44
176 199 57
175 199 62
175 199 44
176 199 62
175 198 62
175 198 67
176 199 57
173 198 57
175 198 44
174 198 36
175 199 51
176 199 36
176 199 36
174 197 44
173 197 57
176 199 51
176 199 72
175 199 51
175 199 62
176 199 72
175 198 36
174 197 36
176 200 88
175 198 25
175 198 62
174 198 57
173 196 51
173 197 44
171 194 36
176 199 57
173 195 36
176 198 51
174 197 44
175 198 44
174 197 36
175 198 51
172 196 25
170 193 62
169 193 67
168 192 54
174 197 54
172 195 54
171 195 54
172 196 60
174 197 72
170 192 67
175 196 86
171 193 18
131 155 65
95 120 84
57 90 111
58 91 107
57 90 110
56 88 103
56 90 107
55 88 103
57 90 118
55 88 101
55 88 108
77 106 105
168 192 36
173 197 0
174 197 0
173 197 0
188 208 125
223 237 255
223 237 255
223 237 255
223 237 255
223 237 255
223 237 255
223 237 255
223 237 255
223 237 255
223 237 255
210 224 242
58 92 128
57 90 114
60 94 134
58 92 122
58 92 112
60 95 135
58 92 121
58 92 115
59 94 131
59 93 125
59 93 131
59 94 130
60 95 133
60 95 137
59 93 118
60 94 127
58 92 124
59 93 120
60 95 130
60 94 126
60 95 135
59 93 129
60 95 135
60 94 131
59 94 131
59 94 128
59 93 133
59 93 128
59 94 133
60 95 131
60 94 133
59 94 125
59 93 131
60 94 133
60 94 136
61 95 134
60 94 124
60 94 125
60 94 126
60 95 133
59 94 137
58 92 126
59 94 129
59 93 130
58 92 130
60 94 128
59 93 122
58 92 131
58 92 120
59 93 129
60 94 131
59 94 129
60 95 137
60 94 129
59 93 132
59 93 126
58 92 131
60 94 129
60 94 126
60 94 134
58 92 130
61 96 139
60 94 129
59 93 125
59 93 121
59 91 127
58 92 129
60 95 136
58 91 128
57 90 114
57 90 124
59 93 129
58 91 117
57 89 129
58 91 117
58 91 121
58 91 126
59 93 133
59 92 128
58 91 128
58 91 123
59 93 136
58 90 121
58 91 121
58 90 129
56 87 111
58 91 132
57 90 124
58 91 130
57 89 114
57 88 117
57 89 115
54 84 104
52 81 97
52 80 99
54 84 108
54 85 111
51 79 98
53 81 113
52 80 105
47 71 77
48 72 84
144 149 142
75 74 30
69 68 23
59 58 19
49 52 19
41 44 21
46 50 16
41 46 19
43 48 23
50 55 27
47 52 26
65 69 37
70 72 36
66 71 33
70 73 39
69 75 43
86 88 49
88 89 48
99 99 48
84 86 43
99 100 53
93 95 55
105 106 52
95 98 53
110 108 49
117 116 58
117 115 59
121 120 67
114 114 60
113 112 55
131 128 61
124 121 56
124 123 61
121 120 64
130 128 63
131 129 66
124 122 60
134 131 65
137 133 68
139 136 70
134 132 67
132 131 61
143 139 69
150 145 77
145 141 64
145 141 68
150 145 75
140 136 67
153 147 69
157 152 82
152 147 69
155 150 75
144 140 68
154 149 79
158 153 69
161 155 78
160 155 73
153 148 67
160 154 78
154 149 68
154 148 68
159 154 70
161 156 77
160 155 75
158 153 69
162 156 72
165 159 81
165 159 81
160 153 75
162 157 76
168 160 78
163 157 78
162 156 71
159 153 73
162 156 70
164 157 77
168 162 81
163 158 72
163 157 71
167 160 75
167 162 76
165 159 76
160 155 74
166 159 79
161 155 77
165 159 79
162 157 81
167 160 80
166 160 75
166 160 75
164 158 73
164 158 77
169 163 84
167 161 78
163 156 78
167 161 84
164 158 77
168 160 78
169 162 75
159 153 68
161 155 74
166 158 75
162 156 68
162 156 73
163 156 75
162 155 74
164 158 83
163 157 81
160 154 76
171 165 84
161 154 77
163 156 75
163 157 81
158 152 75
164 157 82
165 159 82
162 156 71
162 156 75
166 159 79
162 156 78
166 159 84
168 161 87
159 153 72
161 155 76
162 155 79
160 155 74
160 154 67
158 152 74
162 155 76
155 149 67
160 153 79
160 154 77
165 158 79
160 154 75
163 155 77
159 153 75
153 147 74
156 150 72
160 154 81
147 141 69
153 147 69
152 147 71
154 148 75
154 148 74
158 151 68
147 141 69
156 149 72
150 145 71
157 152 75
225 238 255
218 232 234
203 220 188
184 205 102
173 197 0
175 198 0
174 198 0
175 198 0
174 197 0
175 198 0
173 197 0
175 198 0
175 198 0
173 197 0
173 196 0
174 198 0
174 197 0
175 198 0
175 198 0
174 197 0
175 198 0
176 198 0
173 197 0
174 198 0
176 199 0
174 197 0
173 197 0
174 197 0
173 197 0
175 198 0
174 198 0
175 198 0
176 199 0
174 197 0
173 197 0
173 196 0
175 198 36
177 200 57
175 199 36
175 198 25
181 203 84
181 203 84
177 200 51
179 201 62
177 200 62
177 200 62
178 201 67
179 201 72
174 198 44
178 201 72
178 201 72
174 198 51
175 198 54
175 199 54
176 199 54
176 199 51
174 198 36
175 198 36
174 198 36
176 199 44
174 198 36
173 197 44
174 198 36
175 199 36
177 200 57
174 197 51
175 198 62
177 200 62
173 197 36
174 198 44
175 198 44
174 198 57
175 199 62
176 200 62
175 199 72
174 197 44
175 198 51
176 198 36
175 198 57
176 199 44
176 199 57
175 198 0
176 199 62
173 197 25
174 198 51
174 198 44
176 199 51
175 199 57
176 199 25
175 199 67
174 197 25
173 197 25
174 198 67
173 196 51
175 199 62
173 196 44
173 197 44
171 195 51
173 197 72
171 194 51
172 195 36
172 196 25
174 198 25
174 197 36
172 196 51
171 194 44
174 197 57
174 197 44
173 195 44
170 192 62
172 196 51
168 192 31
168 191 54
169 193 44
171 194 60
171 194 51
170 193 67
172 195 65
169 191 74
167 190 54
162 185 51
138 162 95
71 102 108
57 90 109
55 88 106
58 92 116
53 85 101
55 88 91
55 88 93
54 86 98
55 87 86
58 92 116
129 153 81
173 196 0
171 195 0
172 196 0
173 197 0
197 215 167
223 237 255
223 237 255
224 237 255
224 237 255
224 237 255
224 237 255
224 237 255
224 237 255
224 237 255
224 237 255
224 237 255
65 96 126
57 91 115
58 91 131
59 93 122
58 92 129
58 92 115
55 87 107
59 93 128
59 93 130
57 91 115
61 95 133
59 94 131
60 94 134
60 94 130
59 93 137
59 93 121
59 94 128
59 93 128
60 95 140
60 95 140
59 94 125
60 94 134
60 95 136
59 94 130
59 94 131
60 95 134
58 93 117
60 94 136
60 94 128
57 90 121
59 93 133
59 93 129
60 95 134
60 95 129
57 91 122
60 94 139
61 95 139
58 93 135
60 95 136
59 93 130
59 93 124
59 93 134
58 92 128
60 94 129
59 93 125
58 92 118
60 94 137
60 94 128
61 96 135
59 94 131
61 96 139
59 92 124
60 94 130
58 91 121
58 92 120
59 93 125
59 92 124
59 93 125
61 96 140
58 92 117
60 94 131
59 93 134
59 93 126
58 92 121
59 92 129
60 95 134
58 91 126
58 91 131
60 94 133
58 92 131
59 93 130
59 93 126
60 94 134
57 90 123
58 92 123
58 92 133
57 90 129
57 90 123
58 91 121
58 91 128
58 90 136
59 92 127
55 87 112
58 90 121
56 88 120
55 86 109
56 88 128
56 89 113
54 85 112
56 88 116
54 85 115
55 86 117
54 84 112
53 83 110
55 85 113
56 87 110
54 83 115
51 79 99
51 78 101
52 80 104
51 77 96
77 95 111
175 183 190
91 89 39
70 68 26
52 52 16
52 53 17
45 48 25
50 52 13
51 56 18
47 54 25
50 57 26
65 69 26
51 54 28
52 58 36
71 74 23
69 72 30
86 88 47
80 81 45
71 76 28
85 86 45
94 95 52
96 97 48
93 95 48
95 97 51
102 101 48
111 111 57
96 97 50
104 104 53
112 111 61
113 112 57
125 123 62
125 124 61
126 123 65
132 128 60
128 126 65
134 132 64
132 129 61
129 127 63
131 129 65
137 134 69
138 135 67
141 137 74
136 133 65
139 136 70
142 138 71
143 139 72
151 145 71
148 144 66
152 146 75
151 146 72
158 153 70
159 153 77
149 144 72
144 141 58
159 154 77
150 145 71
159 152 74
147 143 65
157 152 70
162 156 79
157 152 70
158 152 75
156 151 71
168 161 77
162 155 76
159 154 71
162 156 76
166 160 77
160 155 72
165 159 82
162 156 82
168 161 83
162 156 71
156 151 70
163 157 76
164 158 71
168 162 75
167 161 76
165 159 73
165 158 76
162 157 72
167 162 83
162 157 68
165 158 75
165 159 75
168 161 79
168 161 78
167 160 78
167 160 77
165 158 81
163 157 75
164 158 72
165 158 77
164 157 74
165 159 74
167 159 76
166 159 76
165 159 76
167 160 78
164 158 77
163 157 75
164 158 73
161 155 75
157 151 71
164 158 78
164 156 80
162 156 74
166 159 80
165 158 75
161 154 70
163 156 78
165 159 77
160 154 74
159 153 77
160 154 68
163 157 75
156 149 71
158 152 70
157 150 77
157 152 74
163 157 77
162 155 74
158 151 78
161 155 77
156 150 67
157 151 69
160 154 73
155 150 71
161 154 77
162 156 75
155 150 71
157 150 77
167 159 81
156 150 77
164 157 78
161 155 75
159 153 74
154 148 75
153 147 72
153 146 72
159 152 72
155 150 76
154 148 73
157 150 75
154 148 76
157 150 82
158 152 75
149 142 69
149 142 73
155 149 72
190 210 137
175 198 0
175 198 0
174 197 0
173 197 0
174 198 0
173 197 0
175 198 0
174 198 0
174 198 0
175 198 0
175 198 0
175 198 0
174 197 0
175 198 0
173 197 0
175 198 0
174 198 0
173 197 0
174 198 0
174 198 0
175 198 0
175 198 0
174 198 0
174 197 0
172 197 0
174 198 0
175 198 0
174 197 0
174 198 0
174 197 0
174 197 0
174 198 0
175 198 0
172 197 0
174 197 0
175 198 44
175 198 51
176 199 67
176 199 36
173 197 36
178 201 72
177 200 67
177 200 76
178 201 67
178 200 74
175 198 51
177 200 62
178 201 72
176 200 62
177 200 57
176 199 51
175 198 65
176 199 44
177 200 62
177 200 62
178 201 67
175 199 44
176 199 51
175 199 51
177 200 62
175 199 57
176 199 51
175 198 36
176 199 51
177 200 72
175 198 36
177 200 51
175 198 36
175 198 25
173 197 0
175 199 57
176 199 62
176 199 51
174 198 36
173 197 25
176 199 62
174 197 57
175 198 51
173 197 36
172 197 57
174 198 44
174 198 57
175 199 36
174 198 62
173 197 51
175 199 57
175 198 25
173 197 36
174 198 44
174 197 51
172 196 51
174 197 36
175 198 44
172 196 36
174 198 67
174 198 36
172 196 57
173 197 36
174 197 57
172 195 44
172 195 51
173 197 51
172 196 44
172 195 36
171 195 51
173 196 36
169 193 57
173 196 51
173 197 25
170 193 54
165 189 40
168 192 70
171 194 54
165 188 65
167 191 57
171 194 67
170 193 67
164 187 44
160 183 60
154 176 54
106 131 79
58 89 94
54 87 98
56 89 103
54 87 103
53 84 83
55 88 101
54 87 94
55 88 96
55 87 97
81 107 80
164 187 25
172 196 0
172 195 0
173 197 0
175 198 0
203 220 184
224 237 255
224 237 255
224 237 255
224 237 255
224 237 255
224 237 255
224 237 255
224 237 255
224 237 255
224 237 255
224 237 255
108 130 154
57 91 120
57 91 114
58 92 124
57 91 120
58 92 125
58 92 118
59 93 125
58 91 111
59 94 130
59 92 125
59 94 118
58 92 121
59 93 129
60 95 135
60 94 137
59 94 131
60 94 129
60 94 131
59 93 122
58 92 125
60 94 140
58 93 122
59 93 130
60 94 129
60 95 135
58 92 120
59 93 129
59 94 133
60 94 135
58 92 121
59 94 129
59 93 120
57 91 120
59 93 122
60 95 133
60 95 133
57 91 117
60 94 134
59 93 133
60 95 126
59 92 118
59 92 130
59 93 122
59 93 129
58 91 121
61 95 131
58 92 128
60 93 128
59 93 134
58 92 126
58 92 131
59 93 121
60 95 137
59 93 125
58 92 123
59 93 126
60 95 134
60 94 130
59 93 126
57 91 120
58 92 133
59 93 122
58 91 122
58 92 121
59 93 135
59 93 128
57 90 115
57 91 118
59 94 129
60 93 135
58 90 120
58 91 127
58 92 130
59 94 126
57 90 117
57 90 121
57 90 117
59 92 124
56 88 111
57 90 118
58 90 122
58 91 126
59 92 124
57 90 120
57 90 113
57 89 119
58 91 128
56 87 116
57 90 124
54 85 105
53 84 111
56 86 114
53 83 104
57 88 121
55 86 104
53 82 103
52 79 94
46 71 86
48 73 91
47 71 88
122 136 150
204 215 225
86 84 42
72 71 35
67 66 27
64 64 22
45 49 18
45 49 13
43 47 23
52 55 18
66 68 24
46 52 24
68 70 27
60 62 30
66 70 29
73 77 43
68 71 31
69 74 36
79 82 42
96 97 48
101 101 49
85 88 40
99 100 40
87 88 46
99 100 44
95 96 42
109 110 55
109 109 56
105 106 49
123 121 57
117 116 53
117 117 60
118 118 55
109 109 57
128 126 68
129 127 63
135 131 65
136 133 68
129 127 55
125 123 59
132 130 66
134 131 69
142 138 67
146 141 71
143 139 71
137 134 62
150 145 63
145 140 69
148 143 66
147 143 67
155 150 71
153 147 69
153 148 66
150 145 72
157 151 76
157 151 76
155 150 64
158 153 74
157 153 76
157 151 72
163 157 78
154 149 68
159 153 69
160 154 74
155 149 69
155 150 69
161 155 77
155 149 65
163 157 78
158 152 65
158 152 68
165 158 78
162 156 76
171 163 83
164 157 72
161 156 70
166 160 75
164 158 72
167 160 80
161 154 75
160 154 67
162 156 72
165 159 74
166 161 76
169 162 79
168 161 76
163 157 76
167 160 73
168 161 80
166 159 75
160 154 65
163 157 75
164 159 76
163 158 72
166 160 73
162 156 73
163 156 70
168 160 77
164 157 72
162 156 75
166 160 76
162 155 74
167 160 84
164 157 75
165 159 73
156 150 68
166 159 80
165 158 75
162 156 70
157 150 73
155 149 67
156 151 67
163 157 76
164 156 76
159 152 75
162 156 73
160 155 72
163 157 71
166 159 84
159 153 70
156 149 71
158 152 73
150 144 72
160 154 70
159 153 75
160 154 75
163 157 78
159 153 73
156 150 70
161 155 75
159 153 75
156 150 65
163 157 73
155 150 64
161 154 75
152 148 65
159 152 72
158 152 77
152 147 69
153 148 67
155 150 71
152 146 68
153 147 75
155 148 75
163 156 80
155 149 73
155 149 74
153 146 71
158 151 75
145 139 69
174 198 0
174 198 0
176 198 0
174 198 0
174 197 0
174 198 0
174 198 0
175 198 0
174 197 0
175 198 0
173 197 0
174 198 0
174 197 0
173 197 0
174 197 0
175 198 0
173 197 0
174 198 0
172 196 0
176 199 0
174 198 0
175 198 0
174 198 0
175 198 0
173 197 0
175 198 0
176 199 0
172 196 0
175 198 0
175 198 0
174 197 0
173 197 0
173 197 0
174 197 0
174 197 0
171 195 0
174 198 44
173 197 0
176 199 47
175 198 25
176 199 51
174 198 36
178 201 67
177 200 57
175 198 25
177 200 51
176 199 57
178 201 76
177 200 51
177 200 76
174 198 44
176 200 67
174 198 44
176 199 62
175 198 36
175 198 44
175 198 44
174 198 44
175 198 36
174 198 51
173 197 44
174 198 44
177 200 57
175 198 57
175 198 36
177 200 67
176 199 57
176 199 44
174 198 57
173 197 36
175 198 25
174 199 62
174 198 36
174 198 25
174 199 62
176 199 51
175 198 44
174 198 25
176 199 51
174 198 36
174 198 51
176 198 51
173 197 0
174 198 44
172 197 57
174 198 44
173 196 36
174 197 36
173 197 67
172 195 44
175 198 36
174 199 67
172 195 36
174 197 51
173 197 36
173 197 25
170 194 51
171 195 51
173 197 57
174 198 44
173 197 36
172 195 44
173 197 44
174 198 57
171 195 0
173 195 36
169 193 51
174 197 36
171 195 44
173 197 67
171 194 57
175 198 76
168 192 51
164 187 51
168 192 72
169 192 51
171 194 82
170 192 84
159 182 18
155 178 47
136 158 44
86 113 94
53 85 79
56 90 103
55 87 93
55 87 90
54 86 93
53 85 92
54 85 82
55 88 95
59 91 101
145 168 47
164 187 0
171 194 0
170 194 0
171 194 0
173 197 0
215 230 231
224 237 255
224 237 255
224 237 255
224 237 255
224 237 255
224 237 255
224 237 255
224 237 255
224 237 255
224 237 255
224 237 255
153 169 186
58 91 125
57 91 110
58 92 121
59 93 134
58 92 124
61 96 142
58 92 115
59 93 125
60 95 137
58 93 124
58 91 117
59 93 129
59 94 131
58 92 120
59 93 128
59 93 117
60 95 129
59 94 133
59 94 128
57 90 124
58 92 120
59 93 125
60 94 130
60 94 129
58 92 113
59 93 122
59 93 134
59 93 128
59 94 125
59 94 135
60 95 137
58 92 121
59 93 128
59 93 125
59 93 125
58 91 117
59 94 129
60 94 134
60 94 130
58 92 120
59 93 130
60 94 133
59 93 131
60 94 131
60 95 139
57 90 117
58 92 129
58 92 122
59 93 128
59 93 125
61 96 134
59 93 130
59 92 131
60 94 136
60 95 137
59 93 118
57 90 120
58 92 122
59 93 124
59 92 121
58 91 126
58 91 117
59 93 124
58 91 126
59 93 128
58 91 121
59 92 124
60 94 126
59 93 129
59 93 123
59 94 132
59 93 124
56 88 122
60 93 133
58 92 120
58 91 118
57 90 132
56 88 107
58 90 119
58 90 112
59 93 131
57 90 124
57 89 125
57 90 110
56 88 106
57 89 117
57 88 116
56 88 124
57 88 115
55 86 96
57 89 115
54 83 114
54 83 107
53 83 112
55 85 116
54 83 101
53 82 99
52 79 104
47 72 88
46 70 86
144 157 168
220 233 250
80 79 28
88 87 39
62 63 22
53 55 20
40 43 17
43 45 9
49 53 24
61 63 26
46 50 19
55 59 28
45 49 18
62 64 25
69 70 32
65 69 34
62 67 28
77 81 34
92 94 40
80 84 41
87 90 45
94 95 45
100 101 47
108 108 52
97 99 43
101 101 48
116 115 57
108 109 56
114 112 60
114 113 50
108 107 54
131 130 57
120 119 60
128 126 55
115 114 55
135 133 60
141 137 67
133 130 58
136 133 65
142 139 63
131 127 62
145 141 73
136 132 62
141 138 64
144 140 70
149 145 71
148 143 65
145 140 66
154 149 69
147 143 60
152 147 67
148 144 70
154 148 71
151 145 63
145 141 64
152 147 75
154 149 68
152 147 72
158 152 74
151 147 74
158 152 71
156 150 68
151 148 61
157 152 64
151 146 68
156 151 70
152 147 70
164 158 74
166 159 74
160 154 73
157 152 67
161 155 74
159 153 74
165 158 75
162 157 76
162 155 75
165 159 77
161 155 72
164 158 77
165 158 74
159 153 70
164 158 72
164 158 74
166 159 72
160 153 71
160 154 70
161 156 73
166 159 78
168 161 80
167 160 76
165 158 80
163 158 76
157 152 67
163 156 77
162 156 77
160 154 68
159 153 65
160 154 67
166 160 78
167 159 79
162 157 73
160 153 70
168 161 84
161 155 71
158 152 72
163 157 78
163 156 78
167 160 80
160 155 75
169 162 81
164 158 69
161 156 80
161 155 77
161 155 74
163 156 71
163 156 77
163 155 80
161 153 78
159 153 76
163 156 74
156 151 69
161 153 72
161 154 77
166 159 81
153 147 69
158 151 73
158 153 73
161 154 74
156 150 77
153 147 67
155 149 73
157 150 73
161 154 76
157 150 78
150 144 62
158 152 74
147 142 59
153 148 71
157 150 80
158 151 70
158 153 74
155 150 70
155 150 62
150 144 72
162 154 84
161 154 71
159 152 74
141 137 64
154 147 75
150 144 69
174 198 0
175 198 0
175 198 0
175 198 0
174 197 0
175 198 0
174 198 0
175 198 0
175 198 0
174 198 0
174 198 0
174 198 0
174 198 0
174 197 0
174 198 0
173 197 0
175 198 0
174 198 0
174 197 0
173 197 0
172 197 0
174 198 0
176 199 0
172 197 0
174 198 0
175 198 0
172 196 0
174 198 0
174 198 0
174 198 0
174 197 0
175 198 0
176 199 0
174 197 0
175 198 0
174 197 0
172 196 25
173 197 0
175 199 51
177 200 57
175 198 44
175 198 25
174 197 0
179 201 72
178 201 72
179 201 72
180 202 76
178 201 67
178 201 72
176 199 44
175 199 44
177 200 57
175 198 44
176 199 57
174 198 36
175 198 44
175 198 36
174 198 57
174 198 36
174 198 0
173 197 25
178 200 67
175 199 57
177 200 62
174 198 44
174 198 44
173 197 25
173 198 44
174 198 25
175 199 44
175 199 67
176 199 51
174 198 51
175 198 44
173 196 36
172 195 51
176 198 36
175 198 36
173 197 44
173 197 25
173 197 62
173 196 25
174 197 25
174 197 62
173 197 44
174 198 44
174 197 44
173 198 72
173 197 44
172 196 57
172 197 57
175 198 62
172 196 36
173 197 72
170 194 51
174 197 51
174 198 51
171 195 51
172 195 44
173 197 44
170 194 36
169 193 57
171 195 57
170 193 51
168 193 72
167 191 51
173 196 36
169 192 36
171 194 51
170 193 44
172 195 76
170 193 72
166 189 57
173 196 67
169 192 67
162 185 62
164 187 57
168 191 62
160 183 57
160 181 67
113 136 72
54 87 92
53 85 88
54 86 85
55 87 80
55 87 103
53 85 80
53 85 80
55 88 102
50 80 71
108 132 67
158 182 0
166 189 0
170 192 0
171 195 0
173 196 0
181 203 88
224 237 255
224 237 255
224 237 255
224 237 255
224 237 255
224 237 255
224 237 255
224 237 254
222 235 248
221 235 246
219 233 240
216 230 228
167 183 179
57 91 120
58 92 115
57 90 110
59 93 130
57 91 122
59 93 124
59 93 128
57 91 114
58 92 107
60 94 139
60 94 133
60 94 129
58 92 115
58 92 126
59 93 115
57 90 120
58 92 114
57 91 114
57 90 114
59 93 114
58 92 122
58 92 133
59 93 135
59 93 128
60 95 134
59 93 118
57 91 111
58 92 121
58 92 122
60 95 135
59 92 121
59 94 130
59 93 126
60 95 135
59 92 128
60 95 130
59 94 129
58 92 122
58 92 120
58 92 120
60 94 135
59 93 133
58 92 125
59 93 128
59 93 128
58 91 122
60 94 130
60 94 134
58 92 124
57 90 120
59 93 129
59 94 129
59 93 131
59 93 130
58 91 120
58 92 118
58 92 129
59 93 126
58 92 124
58 92 118
59 93 129
57 90 120
58 91 121
58 91 121
58 91 120
59 93 126
57 90 124
57 90 113
57 90 117
59 93 133
58 92 126
59 92 125
58 91 119
57 89 119
56 88 117
57 90 123
57 90 128
60 93 128
58 91 126
58 90 120
56 88 113
58 91 129
56 88 110
57 90 125
56 88 118
55 86 106
56 87 120
56 87 117
54 85 106
54 84 114
56 88 121
58 89 123
55 86 112
56 86 122
55 86 115
54 84 100
50 78 89
52 80 103
48 73 90
46 69 82
164 180 167
216 230 230
128 131 104
75 74 28
63 64 12
50 49 20
59 57 3
61 65 17
52 56 16
40 44 16
39 46 23
53 56 22
60 62 24
49 56 24
69 72 31
64 68 33
80 83 38
78 80 31
88 88 33
88 90 42
87 89 40
82 85 39
90 92 43
92 93 40
102 102 46
111 110 52
106 105 52
112 111 49
114 114 52
125 123 58
121 119 58
109 110 54
119 118 53
122 120 49
119 117 49
135 131 65
124 122 51
130 127 61
138 134 67
136 133 62
137 133 65
134 131 63
143 138 57
139 136 69
137 135 63
147 142 64
141 138 62
142 139 62
153 148 74
148 144 68
146 142 71
144 140 58
144 141 59
155 150 66
151 147 69
157 152 75
158 152 73
153 148 70
151 146 71
157 152 64
161 155 68
157 151 66
155 149 65
165 158 78
160 153 65
157 151 70
158 152 72
161 154 70
158 152 69
163 157 74
153 148 66
158 152 70
160 154 75
163 156 76
161 155 74
158 153 65
164 157 77
161 155 71
168 162 76
166 160 76
167 160 72
164 157 76
162 157 67
166 159 74
166 159 75
160 155 66
167 160 75
159 153 75
162 156 74
164 158 76
160 154 66
166 159 80
167 160 78
157 151 61
168 161 76
166 160 76
162 155 70
158 152 67
165 158 77
162 156 69
164 157 77
166 158 74
165 157 79
160 155 73
164 157 73
163 156 76
161 155 75
158 152 66
161 155 66
160 153 70
168 161 81
161 156 71
158 153 71
156 150 72
160 153 71
158 152 75
160 154 76
160 154 67
156 150 70
161 156 71
154 150 67
157 151 71
159 153 74
161 155 76
162 156 74
162 155 77
158 153 64
160 153 76
159 153 73
161 154 77
161 154 75
161 154 76
155 149 69
156 150 71
151 145 71
152 146 69
150 145 66
153 146 73
156 149 72
153 147 67
157 150 74
150 144 71
163 155 80
162 155 75
149 144 70
162 156 75
159 152 74
155 149 66
151 145 73
152 146 71
173 197 0
175 198 0
174 197 0
175 198 0
175 198 0
175 198 0
174 197 0
174 198 0
173 197 0
174 197 0
175 198 0
173 197 0
175 198 0
174 198 0
173 197 0
174 197 0
174 197 0
173 197 0
175 198 0
172 196 0
173 196 0
173 197 0
173 197 0
173 197 0
175 197 0
175 198 0
174 197 0
172 196 0
176 199 0
173 196 0
174 197 0
174 198 0
176 199 0
176 199 0
173 197 0
174 197 0
175 198 0
172 196 25
174 197 36
176 199 44
175 198 36
177 199 51
175 199 44
174 198 51
179 202 88
176 199 36
177 200 67
179 201 76
176 199 51
176 199 57
178 200 84
177 200 51
175 199 57
178 200 62
175 198 44
174 197 58
176 199 62
175 199 62
175 199 57
175 198 36
174 198 25
175 198 0
172 196 0
175 199 57
175 199 57
175 198 51
176 199 36
172 196 44
174 198 62
175 198 51
172 196 44
173 197 62
175 198 67
174 197 51
175 199 67
173 197 57
171 195 51
172 196 51
173 197 51
173 197 72
174 198 62
174 198 62
172 196 36
171 195 51
172 196 51
174 197 62
176 199 51
171 196 51
172 196 57
173 197 67
173 197 25
172 196 44
172 195 67
174 198 57
170 194 51
170 193 57
170 194 57
173 197 67
171 195 72
170 194 36
169 192 36
170 193 0
170 194 67
169 193 44
172 195 36
170 193 36
172 196 57
169 193 57
166 189 67
169 192 51
173 196 62
164 188 36
169 192 72
162 185 60
166 189 67
165 186 74
155 177 60
158 181 47
145 168 47
134 155 44
83 109 70
56 89 99
52 83 65
54 85 87
53 84 88
53 84 87
54 86 94
54 86 93
53 85 82
97 121 65
157 179 0
157 180 0
163 187 0
168 191 0
169 194 0
173 196 0
181 203 88
191 211 142
188 208 125
191 210 140
185 205 105
182 203 92
180 202 72
179 201 62
174 198 0
175 198 0
174 197 0
174 198 0
175 198 0
166 189 40
57 91 121
58 92 122
57 90 113
56 90 114
59 93 126
57 90 113
58 92 125
58 91 118
59 92 121
60 94 130
59 92 131
59 93 134
59 93 122
58 92 117
57 91 108
59 93 129
60 94 131
59 93 130
59 93 129
59 93 131
60 95 136
58 92 120
60 95 135
57 90 118
58 92 108
61 96 137
59 93 126
59 94 129
58 91 117
59 93 124
59 93 125
58 91 129
59 93 122
60 95 135
57 91 117
58 92 115
59 94 125
58 92 126
58 91 120
57 91 107
57 91 115
58 92 118
59 93 130
59 93 125
58 92 115
59 93 126
59 92 125
59 93 120
58 92 121
60 93 130
60 95 133
59 93 134
58 92 122
59 93 118
57 90 121
58 92 126
57 90 113
57 91 118
59 93 128
60 95 139
59 93 125
61 95 136
58 91 120
58 92 128
58 91 113
58 91 124
59 92 117
58 92 122
58 92 126
58 92 121
58 92 125
58 92 120
57 89 122
58 91 117
58 91 117
58 91 120
56 88 124
58 90 120
58 91 123
57 90 126
57 89 119
57 89 119
57 89 123
55 86 112
55 86 114
58 91 128
56 88 116
55 86 108
57 90 125
55 86 108
54 84 106
55 85 113
53 84 85
54 84 106
52 81 105
50 77 97
52 81 96
53 82 103
49 74 86
47 72 81
166 189 22
175 198 0
149 163 31
82 80 32
82 80 31
57 58 22
57 59 12
52 55 16
50 52 14
67 67 9
52 54 21
52 56 17
56 60 29
55 60 23
54 59 24
76 77 36
73 76 38
69 72 25
87 88 27
79 83 37
96 96 36
84 86 37
92 94 29
96 97 46
100 100 51
104 104 50
107 106 44
108 107 46
115 115 54
118 115 56
108 108 57
128 123 56
122 119 62
133 130 62
127 125 57
125 121 64
135 131 62
130 127 52
135 132 64
131 130 61
133 132 51
128 125 56
136 133 59
136 132 53
149 144 70
148 143 67
142 138 66
147 142 62
137 133 65
146 142 68
141 138 58
148 143 64
147 144 67
150 145 67
157 151 69
152 146 73
154 149 67
160 154 79
154 149 66
151 146 65
155 150 66
157 151 72
158 152 78
154 149 65
159 153 65
162 157 75
159 153 71
157 151 68
155 150 66
160 153 76
156 152 65
154 148 66
163 156 63
157 152 64
160 153 74
167 160 76
160 154 72
164 157 78
161 155 71
164 157 75
161 154 68
159 154 57
163 157 72
165 158 76
163 157 67
164 158 79
166 160 77
166 157 76
164 158 75
164 158 78
163 155 77
161 154 72
167 160 75
167 160 79
165 159 80
164 158 75
163 156 72
163 156 77
162 156 72
165 158 76
165 158 74
162 157 70
165 158 81
162 155 74
165 159 69
157 152 75
158 152 68
163 156 72
160 153 77
164 158 74
160 154 71
156 151 72
163 156 80
164 156 73
158 152 66
162 156 68
160 154 74
154 148 65
162 156 74
166 159 78
154 148 67
155 149 71
158 151 77
157 151 65
157 150 71
160 153 75
159 152 72
160 154 75
160 154 70
160 154 68
154 148 68
156 149 74
157 150 73
153 147 73
155 148 66
157 151 69
152 146 63
149 143 68
163 156 77
157 151 65
156 150 70
155 148 71
161 154 74
153 147 70
157 150 75
159 152 80
157 151 76
148 142 64
150 144 67
152 146 73
174 197 0
174 198 0
176 198 0
173 197 0
174 198 0
175 198 0
173 197 0
176 198 0
174 198 0
175 198 0
176 199 0
175 198 0
174 198 0
174 197 0
174 197 0
171 195 0
173 197 0
173 197 0
175 198 0
174 197 0
172 196 0
176 198 0
175 198 0
175 198 0
174 198 0
174 197 0
173 197 0
174 197 0
173 195 0
174 197 0
172 196 0
174 198 0
174 197 0
172 196 0
171 195 0
175 198 0
174 197 0
175 198 0
175 198 51
173 197 36
175 197 36
176 199 44
174 197 36
172 196 0
174 197 36
179 201 67
177 199 57
179 202 84
178 200 84
174 198 36
176 199 57
175 198 51
176 199 57
175 199 57
176 199 44
175 198 36
176 199 51
174 197 18
175 198 44
174 198 54
173 197 47
175 199 67
176 199 51
173 197 36
173 196 36
175 198 25
175 199 62
175 198 36
174 198 44
174 197 44
174 198 51
174 198 51
172 196 51
170 194 44
174 198 62
173 197 67
173 197 25
172 197 36
173 197 57
173 197 57
173 197 36
173 196 44
172 196 51
174 197 44
172 197 57
172 195 44
173 197 57
172 196 44
174 198 44
176 199 51
172 196 36
173 197 67
171 194 44
166 190 57
172 196 67
171 194 36
171 195 25
173 197 62
172 196 25
171 195 51
171 194 44
169 193 36
169 192 51
169 193 44
170 193 44
169 192 57
169 192 57
170 193 44
167 190 44
171 194 72
163 186 51
157 180 44
161 184 62
165 189 70
165 188 67
163 184 84
155 178 25
141 164 0
149 170 44
110 133 60
54 86 88
52 83 72
54 85 81
54 86 90
52 84 78
53 84 76
53 84 80
57 88 90
106 129 62
149 171 0
154 177 0
159 183 0
159 182 0
169 192 0
170 194 0
171 195 0
176 198 0
175 198 0
176 199 0
174 198 0
173 197 0
172 197 0
173 197 0
176 199 0
175 198 0
175 198 0
172 197 0
175 198 0
173 197 0
175 198 0
79 107 103
57 90 97
58 91 110
56 89 114
58 93 121
57 90 112
56 89 103
58 92 115
57 90 121
57 91 113
57 91 115
60 94 124
58 92 121
58 92 122
59 94 124
58 92 118
59 92 122
59 92 122
57 90 118
57 90 117
57 91 122
59 93 124
59 93 124
59 93 122
59 93 125
58 91 115
58 92 118
58 92 126
59 93 124
59 93 133
59 93 122
59 93 117
60 94 126
58 92 120
58 91 111
58 91 110
59 93 126
59 93 126
59 92 130
58 92 122
57 90 115
59 92 125
58 92 126
57 91 121
59 93 122
59 92 122
59 93 132
60 95 133
60 94 130
56 89 117
58 92 116
60 95 133
59 93 124
59 93 126
60 94 129
59 92 121
60 94 131
60 94 121
58 91 125
58 91 111
57 91 121
59 92 125
59 93 129
58 91 122
58 91 115
58 91 120
59 93 134
58 91 117
56 88 114
59 92 124
58 92 129
59 92 128
59 93 125
58 92 122
56 88 108
57 89 120
59 92 125
58 91 123
59 91 126
56 88 116
60 93 132
57 88 117
56 88 109
56 88 117
57 89 121
58 90 123
56 89 113
57 89 119
56 88 104
53 83 100
56 87 112
53 82 102
54 83 102
55 85 113
50 77 102
53 82 99
52 80 97
47 72 81
49 76 91
79 98 61
174 198 0
175 198 0
170 190 20
97 96 36
62 62 29
67 68 20
65 65 22
70 70 20
60 61 13
65 67 18
47 51 15
66 67 19
71 71 18
62 66 25
71 73 22
65 68 25
75 76 29
70 72 30
93 93 40
79 82 30
84 84 37
102 102 40
82 84 35
95 96 45
105 105 47
101 101 41
97 98 46
99 99 46
92 94 41
97 97 48
106 106 51
112 111 49
118 116 51
129 126 63
112 112 40
120 117 52
122 120 54
125 122 58
128 125 62
142 138 56
128 125 47
136 131 58
134 131 60
132 130 57
137 135 51
138 134 58
140 136 55
147 142 71
146 141 66
143 139 62
147 144 55
149 145 58
143 138 54
150 144 71
152 148 69
147 142 69
152 145 63
156 149 67
157 151 71
150 144 65
145 142 56
152 148 58
157 151 68
154 149 65
154 148 67
159 153 76
150 146 58
158 152 67
162 155 74
161 154 72
160 153 60
161 155 72
157 150 62
160 155 61
161 156 63
164 157 70
157 151 62
161 155 69
159 153 65
159 153 65
160 153 66
159 153 71
160 154 71
165 159 69
169 162 77
161 155 65
165 158 77
160 154 69
161 155 74
166 159 73
161 155 68
166 158 76
159 153 66
162 155 73
164 157 68
162 156 70
165 158 83
165 159 74
161 154 73
171 163 85
163 156 72
161 155 72
161 155 73
160 154 68
159 153 66
159 154 68
160 153 69
166 159 73
165 158 74
157 151 68
163 157 77
159 152 71
154 148 60
161 155 71
158 153 65
161 155 73
157 150 70
158 151 74
158 152 72
162 156 72
162 155 76
155 149 68
162 155 75
155 148 73
158 152 73
158 151 75
150 144 72
159 152 74
156 150 71
156 150 67
154 148 68
157 150 77
163 156 80
157 151 71
154 148 64
152 146 69
153 148 67
156 149 69
156 150 71
157 152 67
147 141 64
153 148 69
157 150 73
155 148 66
156 150 73
144 137 58
150 143 70
152 145 68
150 144 73
155 148 68
174 198 0
175 198 0
176 198 0
176 198 0
175 198 0
175 198 0
172 197 0
175 198 0
174 198 0
174 198 0
174 198 0
175 198 0
175 198 0
174 198 0
173 197 0
174 197 0
172 196 0
174 198 0
173 197 0
173 197 0
173 197 0
174 197 0
174 197 0
175 198 0
175 198 0
173 197 0
174 198 0
175 198 0
171 196 0
171 195 0
173 196 0
172 196 0
175 198 0
171 195 0
172 196 0
174 198 0
172 196 0
172 196 0
171 195 0
175 198 44
174 197 25
176 199 51
174 197 25
174 197 44
174 197 36
173 196 25
177 200 76
177 199 80
175 198 62
174 197 36
175 198 57
175 198 57
177 200 62
174 197 51
176 199 57
173 197 62
177 200 62
175 198 0
176 199 57
176 199 36
177 200 57
176 199 44
174 198 62
175 198 51
174 197 51
174 197 57
173 198 57
173 197 57
175 198 44
175 199 57
176 199 44
172 196 62
171 195 44
171 195 51
172 196 44
173 198 62
174 198 44
175 199 57
172 196 44
173 197 25
171 194 36
173 196 44
172 196 36
173 197 0
171 195 51
172 196 36
171 195 44
173 196 57
173 197 51
170 194 57
172 196 51
170 194 57
170 194 25
168 191 44
170 194 57
172 197 51
173 197 57
170 193 44
172 195 62
171 194 51
169 192 44
172 196 44
171 195 57
162 186 62
167 191 36
163 186 44
168 192 62
165 188 25
168 192 36
165 188 44
168 191 67
165 188 36
162 184 36
157 179 57
161 184 67
155 178 0
152 174 18
152 173 54
139 159 36
64 92 60
54 85 76
52 83 74
52 83 76
53 84 70
52 83 60
51 82 76
70 95 65
126 148 57
140 162 0
149 171 0
162 185 0
162 184 0
165 189 0
167 191 0
171 195 0
172 196 0
175 198 0
175 198 0
175 198 0
174 197 0
172 196 0
176 198 0
176 199 0
175 198 0
173 197 0
175 198 0
175 198 0
174 197 0
173 197 0
174 197 0
112 137 94
56 89 110
57 91 111
56 89 107
59 93 126
57 91 121
55 89 113
57 91 117
58 92 113
58 92 122
60 94 130
58 91 118
58 91 120
59 93 122
59 93 125
60 94 128
59 93 130
58 92 121
59 92 121
58 92 111
59 93 122
58 92 128
58 91 118
58 92 115
60 94 128
58 92 121
58 92 122
58 92 117
58 92 124
59 93 131
60 94 131
56 89 113
59 93 128
59 92 129
59 93 115
59 92 118
60 94 128
59 93 128
60 94 128
59 94 124
59 93 118
59 94 137
59 93 125
58 91 120
58 92 118
58 92 124
57 91 115
58 92 115
59 93 117
57 91 114
58 92 130
61 95 134
58 92 111
58 91 124
58 92 124
59 93 130
58 91 111
58 91 125
59 93 130
58 91 128
59 92 132
58 92 122
60 93 129
59 92 123
58 91 118
57 89 109
57 89 110
58 90 117
58 91 131
58 91 124
58 91 131
58 92 118
56 88 115
55 87 113
58 92 124
57 90 118
58 91 119
57 90 117
58 91 120
56 89 113
56 88 106
55 87 111
56 88 110
58 91 121
56 88 114
55 87 118
57 90 115
57 90 119
54 85 104
57 88 113
53 83 108
55 85 103
52 81 91
53 82 109
55 85 111
51 79 97
50 77 96
48 73 83
45 70 72
111 130 52
174 197 0
172 196 0
173 197 0
100 103 31
83 80 26
68 66 28
52 52 20
69 69 16
54 57 17
59 61 16
66 68 20
47 52 15
56 61 21
60 63 24
74 75 24
76 76 25
72 77 22
73 76 24
83 85 30
78 80 32
77 80 30
88 88 28
99 100 43
98 98 42
103 101 45
100 100 45
107 107 45
116 113 51
107 106 46
106 106 41
120 118 39
120 117 53
110 111 43
129 126 59
125 123 62
125 124 55
139 134 62
118 116 46
134 130 52
130 126 59
128 126 48
133 129 54
132 128 57
143 138 54
139 136 63
138 135 59
143 139 53
143 139 68
143 139 60
143 137 60
147 142 64
134 129 52
141 137 60
151 145 61
160 154 68
145 140 63
139 135 58
145 140 62
157 151 68
157 151 66
155 151 61
153 147 68
153 147 66
151 147 59
149 145 57
151 146 63
150 145 61
158 153 62
158 151 65
155 150 57
154 149 65
161 155 66
158 152 67
155 150 64
164 159 71
158 153 69
158 153 68
162 156 71
156 150 67
161 155 68
163 157 70
157 151 60
156 151 57
161 155 68
151 146 53
162 156 67
157 151 66
161 156 69
155 149 63
164 157 75
161 155 69
165 158 75
153 149 58
159 152 67
162 155 62
156 150 70
164 157 72
158 153 68
160 154 69
165 158 79
161 155 75
157 151 71
158 152 70
161 154 78
159 153 71
163 156 74
158 152 66
165 158 77
160 153 72
155 150 56
163 156 65
167 160 80
165 159 76
163 157 70
161 155 69
151 146 60
152 145 69
160 153 74
162 154 73
154 148 71
163 156 70
159 152 71
166 160 77
160 155 72
153 146 69
159 151 71
159 153 68
154 147 68
155 149 68
151 145 68
159 153 73
153 148 70
159 152 77
156 150 74
156 149 66
155 149 68
155 149 62
161 154 73
155 149 67
155 149 69
149 142 69
153 147 64
159 152 72
153 146 75
152 146 69
141 136 59
154 146 70
151 144 67
149 144 65
153 146 72
174 197 0
173 197 0
174 197 0
176 198 0
175 198 0
174 197 0
174 197 0
174 198 0
173 197 0
174 197 0
174 198 0
173 197 0
174 197 0
175 198 0
174 198 0
174 198 0
174 198 0
174 197 0
173 196 0
172 197 0
173 197 0
174 197 0
174 197 0
175 198 0
174 198 0
173 197 0
175 198 0
174 197 0
174 197 0
174 197 0
172 197 0
172 196 0
172 196 0
174 197 0
172 196 0
174 197 0
171 195 0
172 196 0
173 196 0
174 197 0
173 197 0
174 197 0
172 196 36
177 200 51
176 199 36
173 196 25
173 196 36
178 200 57
177 200 62
178 201 72
175 197 57
176 199 51
176 199 67
174 197 36
176 199 67
175 199 62
173 198 36
175 198 44
174 198 57
174 198 44
175 198 57
174 198 51
175 198 51
174 198 51
176 199 62
175 199 51
174 197 44
174 198 62
174 198 57
174 198 57
174 198 57
174 198 25
172 196 51
170 194 57
174 197 36
174 197 36
171 195 57
173 197 57
171 195 44
171 195 25
171 195 36
169 193 62
171 195 51
169 193 25
174 197 44
171 195 62
171 195 36
173 197 51
173 196 57
172 196 51
170 195 25
169 193 36
173 196 25
172 195 57
171 195 51
172 195 36
169 193 67
169 192 44
172 195 36
170 193 51
171 194 57
167 191 44
165 188 72
168 191 36
167 189 25
170 193 36
160 184 44
166 188 51
169 192 67
158 180 51
169 193 62
156 177 57
156 179 44
151 172 67
154 177 25
156 177 44
145 168 31
145 165 47
59 84 70
48 77 47
51 81 74
47 76 51
49 79 57
51 81 67
61 85 51
86 107 31
130 150 0
129 150 0
144 166 0
153 176 0
159 183 0
160 184 0
164 188 0
169 192 0
172 196 0
173 197 0
176 199 0
173 197 0
175 198 0
174 197 0
174 197 0
173 197 0
176 199 0
174 197 0
173 197 0
175 198 0
174 197 0
174 198 0
174 197 0
173 197 0
143 166 74
56 90 103
57 90 125
57 91 113
56 90 107
58 91 120
57 91 118
56 89 108
58 91 115
56 88 102
56 89 103
59 93 120
58 91 110
60 94 133
57 90 107
58 91 111
58 92 118
59 93 118
59 94 122
57 90 118
60 94 134
59 94 129
60 94 126
58 92 118
59 93 120
59 93 125
58 92 122
60 95 135
60 94 124
59 93 128
57 90 118
57 90 117
59 93 125
60 94 130
59 92 120
59 93 129
57 90 115
59 93 120
57 91 111
58 92 117
60 94 133
58 91 120
60 94 134
58 92 121
56 90 114
57 91 115
59 93 125
58 91 125
60 95 134
59 93 130
60 94 131
58 92 123
60 94 128
60 95 139
58 92 125
57 90 122
59 92 128
59 93 124
58 91 116
60 94 130
58 91 125
60 94 134
58 91 124
59 92 126
58 91 120
58 90 119
59 92 115
59 93 124
58 91 120
58 92 117
59 92 121
57 90 111
57 90 114
57 89 113
58 91 123
58 90 120
55 87 104
56 88 115
58 90 114
56 87 110
57 88 109
60 93 134
57 89 119
57 88 120
57 89 118
54 85 104
53 82 100
55 86 119
56 88 112
54 84 108
56 87 113
56 87 118
53 82 101
54 84 113
51 78 97
51 78 88
50 77 90
48 74 83
46 69 80
146 167 45
174 198 0
175 198 0
175 198 0
132 145 26
80 78 23
64 63 11
63 64 25
78 77 22
70 69 14
60 62 13
52 56 18
70 72 12
67 69 14
48 53 21
77 79 23
57 61 21
67 69 24
61 66 25
89 90 31
65 67 27
94 94 36
95 95 27
83 86 37
91 93 34
86 88 22
96 96 30
100 100 49
109 108 47
112 111 44
105 104 50
119 117 52
107 104 38
124 121 48
117 115 47
123 120 52
123 121 54
130 127 57
126 123 53
130 126 58
123 120 48
136 131 55
132 128 51
131 128 50
131 128 51
134 131 49
136 132 50
139 135 58
141 137 59
145 140 56
143 139 58
131 129 52
145 141 60
142 139 58
144 140 60
154 148 64
145 141 63
154 149 70
151 146 65
149 144 57
150 144 64
147 142 64
156 150 67
159 153 72
154 148 59
157 151 70
147 143 57
149 144 59
156 151 67
154 149 63
156 151 64
154 149 60
159 153 67
153 148 59
160 154 63
155 149 63
156 150 68
158 152 63
159 153 70
157 152 63
158 152 69
162 155 73
160 154 71
158 152 63
161 155 64
163 156 69
159 152 71
160 154 72
159 153 69
164 157 74
159 153 62
162 155 66
164 157 73
157 151 65
160 153 66
165 158 77
159 152 68
160 154 59
159 153 66
160 154 67
163 157 67
158 152 65
163 155 70
157 150 67
158 153 68
165 158 74
162 156 68
157 150 64
161 154 70
162 155 68
160 154 73
155 150 58
154 148 66
161 154 69
161 155 65
161 155 67
161 155 73
162 155 75
152 147 59
154 149 62
158 152 72
161 155 73
158 152 67
152 146 73
155 149 64
161 155 76
159 152 76
156 150 68
157 151 71
157 152 68
156 150 75
154 148 74
160 154 71
156 150 70
153 147 65
152 146 68
155 149 68
161 155 78
160 154 68
154 148 75
158 151 71
154 148 66
152 146 63
154 149 67
154 147 72
151 145 64
148 142 67
153 146 72
147 141 67
157 151 72
153 146 68
174 197 0
175 198 0
174 197 0
175 198 0
173 197 0
175 198 0
175 198 0
175 198 0
173 197 0
174 198 0
172 196 0
175 198 0
174 198 0
173 197 0
175 198 0
173 197 0
173 197 0
173 197 0
172 196 0
175 198 0
172 196 0
173 197 0
174 197 0
172 196 0
173 196 0
171 195 0
172 196 0
169 193 0
172 196 0
175 198 0
172 196 0
175 197 0
172 196 0
171 195 0
172 196 0
170 194 0
175 197 0
174 197 0
174 196 0
169 193 0
173 197 25
173 196 36
172 196 0
174 198 62
173 197 44
175 198 25
177 199 25
172 195 36
176 199 57
176 199 67
177 200 67
179 201 80
178 200 57
176 199 72
174 198 51
174 197 57
176 199 76
174 197 36
175 198 36
176 200 76
173 197 57
175 198 62
176 199 62
176 198 36
175 199 57
175 198 57
175 198 57
175 198 57
174 197 57
174 197 44
175 199 51
173 197 62
172 195 57
175 198 36
172 195 0
174 198 44
174 196 62
172 196 51
173 197 44
173 197 57
174 197 36
175 198 44
172 195 36
171 193 51
170 194 51
169 193 44
173 197 57
170 194 36
171 194 57
169 194 36
172 196 36
172 196 57
169 193 57
165 189 51
168 192 36
167 191 72
168 192 36
164 188 62
171 194 57
171 195 51
168 190 67
170 193 67
174 196 62
166 189 51
166 189 51
169 192 44
164 187 57
163 186 57
168 190 36
166 188 62
161 182 72
167 188 67
165 186 92
157 180 44
152 174 44
141 161 25
143 164 25
98 114 0
87 100 18
67 82 0
73 91 40
75 93 31
100 117 40
104 120 0
114 133 0
123 143 0
131 151 0
134 156 0
146 168 0
150 173 0
157 180 0
157 181 0
164 188 0
172 195 0
171 193 0
173 197 0
174 198 0
175 198 0
173 197 0
175 198 0
174 197 0
173 197 0
173 197 0
173 197 0
175 198 0
174 198 0
175 198 0
173 197 0
172 197 0
174 197 0
172 196 18
59 91 115
57 90 111
56 90 97
58 92 113
57 90 111
58 93 120
57 90 113
58 92 108
58 92 111
57 90 114
57 91 113
58 92 131
56 89 115
58 91 115
58 92 125
58 92 115
57 90 107
58 92 111
58 92 118
59 93 124
59 93 118
59 93 125
60 94 125
59 93 126
60 94 125
57 90 111
56 89 108
59 93 126
58 92 118
57 91 114
58 92 126
58 92 130
60 94 122
58 91 113
59 93 124
59 94 130
59 93 125
58 91 117
58 92 128
57 90 113
57 91 117
59 93 121
59 93 118
58 91 120
59 93 122
59 93 124
58 92 115
59 93 131
58 92 122
58 92 120
56 89 114
59 92 124
57 90 118
57 90 113
60 94 126
57 90 111
58 91 115
59 93 126
58 91 113
59 93 129
57 90 111
57 90 108
58 90 121
58 92 117
57 90 117
56 89 113
58 91 126
58 92 124
59 92 126
58 91 126
59 93 129
57 90 108
57 90 118
56 88 113
58 90 125
55 86 116
58 91 123
58 90 126
59 92 124
57 89 127
55 87 107
58 91 120
56 87 107
56 86 107
56 87 115
56 88 114
55 85 103
57 88 117
55 85 105
56 87 102
52 81 106
53 83 98
54 83 99
50 78 92
52 80 114
48 73 92
51 76 91
57 79 74
167 190 18
175 198 0
174 197 0
174 197 0
164 183 20
96 92 36
78 77 18
85 82 33
65 66 26
67 66 23
55 57 10
63 62 15
58 61 16
58 61 18
54 57 25
63 66 19
78 78 21
77 79 19
80 83 32
78 80 29
82 83 27
97 96 34
88 88 38
86 86 33
88 90 30
98 98 40
94 95 34
101 101 42
105 105 33
100 100 43
116 114 46
123 119 46
110 108 46
122 119 49
117 116 49
129 125 49
122 119 53
122 119 52
126 124 50
134 130 62
130 127 52
132 129 49
138 134 58
134 130 57
135 133 58
131 127 61
126 123 54
146 141 61
130 128 55
145 140 60
130 127 51
144 140 55
143 139 64
143 139 63
145 141 63
146 142 70
147 142 63
146 141 60
144 141 56
147 142 58
151 145 64
149 144 66
156 150 66
147 142 61
151 145 60
158 152 67
163 156 73
158 151 69
151 145 58
156 151 69
157 151 63
155 150 66
157 151 64
162 155 73
161 154 67
156 151 58
162 156 66
164 158 68
162 155 63
164 157 69
164 158 72
162 156 70
159 151 60
160 155 66
158 152 59
159 153 62
155 150 66
154 148 65
159 152 63
161 154 67
162 155 68
161 155 66
158 153 63
158 151 68
159 152 64
160 153 68
162 156 67
159 153 62
160 154 63
163 156 70
163 156 77
163 156 67
157 150 69
157 151 68
167 159 82
160 153 66
166 159 75
157 150 71
164 157 69
160 154 66
157 150 70
152 148 61
161 154 70
164 157 78
156 150 75
166 159 73
162 156 69
158 150 70
158 152 68
163 156 76
159 152 63
159 152 65
153 147 70
151 145 64
154 148 69
160 153 74
155 149 62
158 152 72
163 157 73
156 151 63
152 146 67
149 143 63
157 151 63
159 153 73
155 149 70
154 149 61
155 148 74
157 149 77
151 145 60
155 148 60
152 147 67
155 149 70
155 149 64
151 145 64
156 149 68
156 150 72
150 144 66
159 152 69
153 146 67
148 142 67
147 141 66
175 198 0
174 197 0
175 198 0
175 198 0
175 198 0
174 197 0
174 197 0
174 198 0
173 197 0
172 196 0
173 197 0
173 197 0
174 197 0
172 196 0
175 198 0
174 197 0
173 197 0
174 197 0
173 197 0
173 197 0
173 196 0
174 198 0
173 197 0
172 195 0
173 196 0
175 198 0
174 198 0
172 196 0
172 196 0
174 197 0
175 198 0
173 196 0
174 197 0
172 196 0
173 196 0
172 196 0
173 196 0
171 195 0
172 195 0
170 195 0
172 196 0
172 196 0
176 199 51
176 199 51
172 196 36
175 198 36
174 197 25
174 197 25
175 198 25
177 200 62
180 201 88
178 200 76
177 200 67
177 199 76
176 199 51
177 200 72
174 197 44
174 197 51
173 197 25
176 199 57
175 198 57
174 198 62
174 198 62
173 196 25
173 196 36
172 196 51
174 198 44
175 199 67
173 197 44
175 198 62
175 198 44
175 199 72
173 197 67
174 197 44
174 197 44
171 195 57
171 195 51
174 197 44
173 196 36
171 195 0
173 196 36
175 198 67
173 196 51
171 194 44
172 196 44
174 198 62
173 196 36
173 197 44
170 195 76
170 194 67
172 196 62
171 193 36
171 194 51
173 195 44
172 196 67
165 189 62
169 192 51
170 193 0
169 193 51
171 193 57
164 188 57
169 193 51
170 192 44
164 187 25
162 185 44
170 192 36
167 189 36
163 185 51
168 191 51
162 184 51
165 187 80
163 185 51
155 176 36
161 183 0
156 178 51
143 164 25
127 145 25
101 116 0
86 101 0
99 115 0
88 104 0
101 116 0
92 108 0
99 117 0
114 133 0
126 146 0
131 152 0
149 170 0
154 175 0
146 168 0
165 188 0
162 185 0
166 190 0
167 191 0
173 197 0
174 197 0
174 197 0
173 197 0
174 198 0
174 198 0
175 198 0
174 198 0
172 196 0
173 197 0
174 198 0
174 198 0
173 197 0
174 197 0
175 198 0
173 197 0
174 198 0
114 139 87
57 91 103
55 87 95
55 88 100
57 91 110
56 89 114
55 87 102
57 91 115
57 91 109
58 92 114
60 94 121
57 90 107
58 92 117
57 91 115
58 92 125
58 92 113
57 89 117
58 92 118
59 93 118
58 92 121
58 91 117
58 92 126
58 92 110
59 93 121
58 92 113
57 90 113
57 91 103
58 92 113
60 94 124
58 92 126
59 94 126
59 93 118
59 93 126
56 88 103
59 94 122
58 92 120
58 91 115
59 93 131
59 93 118
58 92 126
60 94 124
58 92 120
58 92 120
59 94 124
58 92 130
58 92 124
57 90 114
58 91 121
57 90 107
56 89 105
58 91 120
59 93 125
60 95 130
57 91 118
58 92 121
58 91 117
57 90 117
59 93 125
59 93 123
58 92 115
59 93 129
58 91 110
58 90 125
59 92 120
57 90 125
57 90 124
57 90 108
58 91 118
59 92 120
58 92 120
57 89 118
58 92 124
58 92 118
57 89 113
57 89 117
56 87 108
57 90 122
56 88 117
56 88 113
58 91 122
57 89 115
55 86 113
56 87 108
56 88 110
58 89 118
54 85 104
53 83 98
54 84 110
54 83 105
52 82 106
53 82 105
54 84 104
53 82 92
53 81 99
50 77 94
51 79 97
45 68 74
105 126 65
173 196 0
173 196 0
175 198 0
174 197 0
174 197 0
110 117 31
81 78 32
83 81 27
66 66 16
69 69 15
61 62 15
65 66 23
64 65 9
78 78 16
69 70 15
69 70 18
70 72 21
83 82 25
77 78 10
92 93 30
81 83 33
84 84 33
72 72 32
89 90 35
91 93 28
85 86 31
109 106 31
104 103 30
100 98 38
106 105 41
113 111 40
109 108 46
110 109 36
123 122 43
112 112 42
116 115 39
124 123 42
126 124 50
119 118 48
130 126 48
117 114 47
124 122 51
133 130 54
138 134 50
128 125 50
136 132 46
136 132 60
139 135 57
137 133 49
143 139 57
138 135 55
136 132 58
139 134 54
150 144 57
147 141 71
150 145 56
150 145 62
143 139 55
150 145 59
145 140 60
145 139 60
149 144 61
151 147 55
154 149 68
157 151 65
153 149 57
158 152 68
156 151 64
157 151 71
158 152 67
160 153 73
160 152 69
154 149 65
156 152 68
160 153 69
160 153 69
159 152 65
157 152 65
155 150 55
160 154 64
161 155 59
154 149 58
158 153 67
162 156 75
163 156 68
164 158 70
153 147 62
165 158 76
157 150 60
158 152 66
160 154 64
155 149 59
160 153 64
160 154 66
153 149 62
154 148 68
162 154 70
161 156 67
162 156 71
159 153 61
166 159 75
159 153 63
158 152 58
159 153 65
162 154 69
158 152 62
162 156 68
162 156 70
161 154 70
163 157 74
155 150 66
163 155 76
154 148 61
161 153 68
159 153 68
153 147 57
157 151 65
155 149 70
154 148 73
152 147 64
158 153 71
151 145 56
158 150 67
157 151 69
157 150 66
147 142 66
155 148 63
158 152 67
160 154 70
158 152 70
160 153 77
155 149 60
160 153 70
145 140 60
155 150 70
154 147 72
149 144 63
159 152 69
149 143 64
154 148 64
153 146 67
156 149 70
155 149 71
145 141 57
151 144 75
152 146 61
150 142 67
151 145 65
152 146 65
151 144 69
155 149 71
174 197 0
174 197 0
174 198 0
174 198 0
174 198 0
176 199 0
174 198 0
174 197 0
174 198 0
176 199 0
173 197 0
174 198 0
173 197 0
175 198 0
175 198 0
174 198 0
173 197 0
175 198 0
174 197 0
173 197 0
171 195 0
171 194 0
172 196 0
175 198 0
174 198 0
171 195 0
173 197 0
172 196 0
173 197 0
173 197 0
174 197 0
171 194 0
172 195 0
173 197 0
172 195 0
172 195 0
173 196 0
171 194 0
170 194 0
170 194 0
174 197 0
171 194 0
172 196 0
173 197 36
175 198 36
175 198 25
175 199 51
175 198 44
176 199 0
172 196 0
174 198 62
177 200 84
176 199 62
179 201 80
177 200 67
176 199 62
175 199 44
178 200 62
175 197 36
177 200 62
176 199 62
174 198 44
172 194 25
172 196 25
175 198 36
173 196 44
175 198 36
174 198 57
172 195 36
175 197 36
175 199 62
172 196 57
176 199 57
170 194 76
174 197 44
172 195 36
169 193 36
175 197 44
172 196 0
170 193 51
173 196 67
174 197 57
172 195 57
174 197 51
174 197 57
171 195 62
172 195 57
170 193 36
174 197 62
173 195 44
171 194 57
169 193 62
170 194 57
171 195 51
166 189 57
167 190 36
165 187 44
171 194 57
166 188 51
169 192 67
172 194 44
169 192 57
171 194 44
169 190 44
166 188 44
162 183 57
163 185 72
163 185 57
159 181 67
164 186 44
159 181 44
154 176 0
148 170 25
153 175 44
143 164 36
130 149 25
114 132 0
108 125 0
98 113 0
105 122 0
106 123 0
94 111 0
126 144 0
119 137 0
130 149 0
123 143 0
141 162 0
140 161 0
148 171 0
154 177 0
157 180 0
159 182 0
169 193 0
173 196 0
174 197 0
174 198 0
173 197 0
174 197 0
174 198 0
174 197 0
175 198 0
174 197 0
174 198 0
172 196 0
175 198 0
172 197 0
174 198 0
173 197 0
173 197 0
173 196 0
173 197 0
147 170 55
57 90 107
57 90 121
56 89 103
58 92 121
56 90 102
57 90 114
58 92 111
57 90 113
59 93 120
58 91 120
57 90 108
57 90 108
56 90 115
58 91 120
57 91 115
58 92 108
58 92 118
57 90 111
58 92 122
56 89 118
58 92 118
58 92 128
59 93 122
57 91 121
58 91 121
56 88 107
59 94 128
58 92 117
58 92 129
60 94 135
59 93 128
59 93 120
58 92 117
58 92 122
58 92 124
58 91 113
59 93 129
59 92 120
56 89 118
59 93 126
59 93 118
59 92 124
59 92 121
58 92 115
58 92 118
59 93 125
59 92 121
57 91 115
58 91 122
59 92 125
59 94 124
58 92 120
58 91 118
58 92 113
58 92 118
57 90 117
58 92 122
57 90 116
59 93 126
58 92 124
57 90 118
58 91 118
56 87 120
57 90 107
56 89 104
57 90 118
58 92 120
59 92 124
56 88 113
57 89 115
57 90 123
57 89 104
55 87 108
56 87 114
57 89 115
59 93 126
58 90 113
57 89 113
55 86 110
54 86 104
57 89 107
56 88 112
56 87 112
55 86 108
56 87 118
56 87 115
54 84 106
56 86 109
54 83 103
55 84 106
54 83 99
54 82 108
49 76 79
51 80 99
48 73 87
46 71 89
138 158 40
172 196 0
173 196 0
171 195 0
173 196 0
174 198 0
149 165 19
82 80 34
73 73 27
77 74 27
72 70 20
68 68 16
60 63 12
64 64 20
61 63 10
59 59 19
81 81 10
72 72 16
70 73 18
74 76 21
81 82 18
83 85 22
83 83 24
80 80 29
87 88 28
83 84 21
85 85 30
96 95 29
87 88 30
103 102 31
108 107 38
111 109 40
109 107 48
105 104 40
120 118 49
119 116 40
127 124 49
121 119 46
120 119 53
120 117 47
127 125 39
130 126 50
132 130 52
134 129 49
135 132 47
132 129 47
136 131 57
142 138 51
139 135 63
132 127 57
142 137 57
144 140 57
148 144 64
142 138 57
145 141 57
144 139 57
149 143 66
145 140 51
142 138 53
157 150 66
148 142 55
152 146 60
154 149 67
153 147 62
154 147 63
148 143 61
154 148 54
152 147 66
153 148 65
154 148 57
151 145 53
162 156 68
158 152 59
160 154 64
162 156 58
163 157 67
156 149 65
162 157 67
153 147 60
161 154 65
163 156 68
159 152 64
158 152 69
155 151 61
157 152 61
160 154 66
151 146 58
161 155 59
162 155 76
158 153 62
156 150 66
160 153 64
161 154 73
162 155 69
162 156 66
162 156 61
159 152 61
160 153 75
168 161 75
159 154 68
162 155 63
159 153 59
158 151 66
158 151 67
157 150 62
157 152 63
153 148 59
160 153 66
164 157 74
159 153 67
158 152 71
154 147 62
162 156 64
148 142 54
157 149 68
163 156 75
156 151 61
158 152 75
156 150 69
153 147 62
159 152 66
161 154 70
155 149 69
158 151 69
154 147 70
157 152 67
162 155 72
149 143 64
163 156 74
153 148 69
154 148 65
157 151 62
158 151 73
157 150 75
155 148 68
154 147 69
159 152 67
148 142 60
151 146 57
148 141 66
149 143 61
154 148 67
149 143 62
155 149 67
142 137 58
160 153 74
149 142 68
155 148 66
147 141 68
152 146 63
151 145 65
156 149 68
174 198 0
176 199 0
176 199 0
175 198 0
174 198 0
174 198 0
175 198 0
175 198 0
175 198 0
172 196 0
175 198 0
173 197 0
175 198 0
173 197 0
175 197 0
172 196 0
175 198 0
173 197 0
174 197 0
173 196 0
173 196 0
173 197 0
174 197 0
172 195 0
173 196 0
171 194 0
173 196 0
173 197 0
173 196 0
173 196 0
174 198 0
169 193 0
170 194 0
173 196 0
172 195 0
172 195 0
170 193 0
171 194 0
173 196 0
171 194 0
170 194 0
170 194 0
173 196 0
173 197 0
173 196 0
176 199 36
175 198 36
176 199 57
174 197 36
173 196 44
173 196 0
173 196 36
174 197 51
174 197 62
178 200 76
179 201 80
174 198 51
175 197 67
176 199 67
174 197 51
176 199 57
173 196 62
172 195 0
171 194 44
173 196 25
175 197 25
173 196 62
174 198 51
176 199 51
175 198 57
173 196 44
173 196 57
176 198 36
171 194 62
175 198 57
174 196 44
176 198 72
171 195 44
173 197 44
174 198 67
175 197 57
171 194 25
171 194 67
173 196 62
174 197 67
175 197 51
168 191 36
167 190 44
171 194 51
170 193 51
174 197 57
167 190 36
166 189 44
168 191 67
171 192 44
169 191 57
174 196 36
164 186 44
169 192 44
169 190 44
165 187 36
165 187 62
169 191 44
164 186 67
164 185 67
161 183 62
161 183 51
166 186 62
163 184 72
156 177 36
151 173 0
158 180 25
153 174 25
150 171 51
128 148 25
115 133 0
115 133 0
121 140 0
128 146 0
118 136 0
118 136 0
123 141 0
111 129 0
119 139 0
131 150 0
135 156 0
137 159 0
151 174 0
151 173 0
154 177 0
158 182 0
159 182 0
170 193 0
172 196 0
174 197 0
175 198 0
174 197 0
173 197 0
175 198 0
175 198 0
173 197 0
174 197 0
173 197 0
174 197 0
174 198 0
175 198 0
174 197 0
173 197 0
175 198 0
174 198 0
174 196 0
170 194 18
71 100 80
57 90 103
56 89 108
55 89 100
57 91 114
57 91 113
58 91 108
57 91 107
59 92 113
59 93 133
58 92 115
58 92 124
59 93 125
55 88 103
59 92 126
59 93 120
58 92 115
57 90 113
57 90 118
58 91 115
56 88 105
60 94 126
59 92 117
57 91 121
57 91 124
58 91 111
57 90 117
58 91 117
58 92 125
57 91 118
59 92 111
59 92 114
56 89 108
59 93 125
58 91 110
58 91 115
57 91 118
58 92 124
59 93 122
56 88 102
56 89 103
59 92 121
59 93 126
58 92 124
58 91 118
57 91 111
59 93 121
58 91 124
59 93 130
57 90 107
56 89 115
57 90 107
57 90 113
58 91 121
58 92 126
56 88 104
58 92 114
58 92 122
58 92 117
58 92 122
56 88 117
58 90 120
57 90 118
58 90 117
58 91 121
59 92 113
58 90 123
57 89 112
57 89 114
58 91 120
58 92 118
57 90 114
57 89 117
57 90 117
57 89 114
57 89 107
56 87 101
57 90 114
55 86 112
56 88 115
58 90 116
55 85 106
57 89 118
55 86 112
53 83 108
53 83 97
56 86 110
55 85 110
52 81 98
54 85 103
52 79 92
50 78 86
51 78 102
49 77 96
49 77 87
67 86 69
174 196 0
172 196 0
174 197 0
174 198 0
173 196 0
172 195 0
173 196 0
108 107 44
96 93 25
80 78 28
66 65 13
74 72 23
73 74 16
70 71 17
75 76 24
72 74 16
69 72 23
72 73 23
68 69 21
87 86 17
87 87 22
83 85 29
83 83 27
80 80 23
96 94 30
87 88 28
94 95 35
97 97 29
92 92 35
100 100 34
106 106 43
110 110 40
112 110 43
109 107 35
109 107 38
119 117 45
118 117 43
115 113 48
126 123 49
123 121 48
128 124 43
126 123 51
134 130 48
135 132 50
129 126 45
131 128 50
140 135 51
134 130 53
139 135 54
140 135 46
138 133 50
139 134 55
138 133 51
138 135 46
141 135 60
151 146 55
146 142 53
146 142 59
145 139 58
149 144 58
146 142 60
146 141 51
150 145 61
142 137 51
148 142 56
157 150 65
150 145 56
145 140 57
156 150 71
151 146 58
155 149 64
153 148 65
150 145 51
154 148 59
154 149 61
155 150 63
153 148 60
155 149 54
154 149 60
157 151 66
157 151 63
161 156 58
160 153 67
150 145 59
151 145 60
154 149 53
160 154 58
158 151 62
159 152 64
161 154 62
156 150 62
156 150 60
160 154 61
163 155 70
161 154 61
159 153 71
156 150 67
158 153 60
157 151 58
156 149 62
157 150 67
154 148 63
160 154 70
156 150 61
155 148 59
156 150 60
157 152 63
161 154 69
157 152 63
157 151 61
151 145 60
153 148 63
155 149 64
157 151 58
158 152 64
162 154 69
161 154 69
153 146 64
156 149 67
154 148 61
155 148 66
154 147 67
154 148 59
153 146 68
155 150 59
154 148 59
150 143 63
157 152 64
155 149 63
154 149 59
160 153 73
155 149 67
154 148 67
148 142 68
159 152 70
155 149 60
160 152 70
148 142 59
156 150 64
149 143 64
158 152 67
150 144 67
145 139 52
150 143 56
154 147 69
151 145 65
144 139 62
151 146 62
148 141 72
147 141 65
150 143 60
151 145 64
173 197 0
174 198 0
173 197 0
174 197 0
175 198 0
174 197 0
174 197 0
174 198 0
172 197 0
173 197 0
172 197 0
173 196 0
175 198 0
175 198 0
175 198 0
175 198 0
175 198 0
174 197 0
175 198 0
173 197 0
172 196 0
175 198 0
172 196 0
175 198 0
175 198 0
173 197 0
176 198 0
173 196 0
175 198 0
172 195 0
173 197 0
174 197 0
174 197 0
170 193 0
171 194 0
174 197 0
172 195 0
175 198 0
171 195 0
171 194 0
173 196 0
171 195 0
169 193 0
171 196 0
172 195 44
174 197 36
172 195 25
175 198 36
172 196 25
171 195 36
174 197 25
172 195 25
175 198 36
172 195 57
174 198 67
176 199 76
177 199 67
178 201 72
173 195 67
178 200 76
172 195 44
176 198 62
174 197 67
175 198 62
173 196 57
174 197 57
173 196 62
174 197 51
175 198 67
175 197 57
173 196 51
175 198 44
172 194 0
174 197 44
173 196 25
176 199 44
172 196 62
176 198 25
173 197 62
174 196 44
175 198 51
172 195 25
172 194 25
173 196 44
169 191 51
168 191 57
172 195 57
169 192 57
167 188 51
169 192 51
168 191 57
170 193 57
172 194 51
168 190 67
167 189 62
173 195 57
168 190 0
165 186 36
166 187 44
170 192 51
166 187 44
165 187 51
156 177 36
160 181 57
161 183 36
166 187 67
165 186 57
163 185 36
161 182 44
161 182 25
154 176 36
153 174 36
148 169 36
128 147 44
130 149 0
134 153 0
121 141 0
124 144 0
136 154 0
127 146 0
139 158 0
114 135 0
133 152 0
121 139 0
137 158 0
144 165 0
149 170 0
146 168 0
159 182 0
157 181 0
160 183 0
168 192 0
173 197 0
174 198 0
174 198 0
173 197 0
174 197 0
176 199 0
172 196 0
173 197 0
173 197 0
173 196 0
175 198 0
172 196 0
173 197 0
174 198 0
174 196 0
174 197 0
175 198 0
174 197 0
173 197 0
172 196 0
116 140 78
57 91 110
55 88 103
56 89 108
58 92 110
57 90 107
58 91 105
58 92 120
56 89 111
59 92 121
57 90 102
57 91 113
57 90 107
57 91 117
57 90 111
58 91 126
57 90 113
58 92 114
57 90 111
58 91 114
57 90 105
56 89 100
57 91 110
56 89 120
57 91 120
59 92 117
57 91 111
57 89 110
56 89 117
58 92 115
59 92 125
58 92 114
58 91 120
58 92 120
58 91 118
56 90 111
56 89 113
58 91 115
56 89 105
59 93 118
58 92 120
57 90 118
60 94 131
59 92 125
58 92 118
56 88 110
60 94 129
58 90 121
59 93 124
57 90 117
58 91 121
59 93 125
56 89 108
58 91 128
57 91 115
58 91 115
57 90 111
58 92 118
56 89 101
58 92 121
57 89 106
56 88 107
57 90 118
56 88 108
57 90 118
56 88 110
57 90 124
59 92 126
56 88 114
56 88 115
57 90 118
57 90 110
57 90 111
58 91 125
53 83 104
57 89 117
56 88 110
57 89 114
56 87 104
54 85 98
54 85 94
56 88 96
56 87 109
56 88 110
56 87 113
54 84 107
51 79 99
50 78 82
54 84 98
52 81 93
52 81 94
52 79 97
51 78 91
51 77 94
47 71 70
128 150 55
174 197 0
174 197 0
172 196 0
171 195 0
173 197 0
173 197 0
174 196 0
153 169 25
96 93 32
80 78 22
76 75 18
62 62 16
73 73 0
62 63 16
77 76 3
76 75 12
68 69 18
82 79 20
77 77 21
74 74 20
69 70 14
89 88 27
83 84 26
93 94 31
78 78 24
105 104 28
93 94 31
94 94 34
100 98 35
100 100 28
101 101 28
110 109 41
104 103 35
113 113 41
102 101 44
113 111 35
127 124 45
110 108 40
119 115 41
123 121 46
129 125 42
123 119 53
127 125 45
131 127 52
131 126 56
132 128 54
136 133 57
135 131 44
134 130 46
138 134 56
136 131 47
140 136 47
143 139 51
140 135 53
147 142 59
143 138 60
142 138 46
141 137 51
143 137 57
145 140 58
149 143 47
151 146 62
149 143 56
147 142 59
153 147 64
148 142 61
156 151 62
151 146 60
150 145 54
149 144 60
149 143 56
156 149 58
154 148 60
153 146 64
155 150 62
155 150 62
155 149 64
153 147 60
153 148 56
152 146 54
159 153 58
160 154 65
154 148 61
155 148 64
152 147 57
157 150 61
150 143 60
159 152 65
151 145 57
152 147 58
155 150 59
150 146 53
156 150 65
157 151 59
161 155 63
155 148 61
157 151 60
151 146 59
151 145 56
157 151 65
159 152 62
156 149 63
160 153 65
146 140 53
153 147 57
153 147 57
163 156 73
154 147 65
159 153 67
149 144 60
155 148 61
158 152 63
155 150 61
158 150 68
155 149 68
156 151 66
158 152 66
155 149 61
159 153 66
152 147 58
152 146 56
158 152 65
147 143 53
155 150 68
153 146 58
161 154 65
149 144 59
158 151 64
149 143 61
162 154 74
157 151 69
155 149 68
155 148 66
149 142 60
147 141 57
157 151 65
155 149 65
155 148 70
150 144 60
162 156 71
155 148 63
147 141 69
160 153 70
151 145 64
151 146 60
148 141 68
150 144 62
151 146 62
148 141 61
153 146 68
145 140 57
149 142 66
194 213 149
174 198 0
175 198 0
173 197 0
174 197 0
174 197 0
174 198 0
174 198 0
174 198 0
174 197 0
174 197 0
175 198 0
174 197 0
175 198 0
175 198 0
173 197 0
173 197 0
175 198 0
174 198 0
170 194 0
175 198 0
173 197 0
173 197 0
170 194 0
173 197 0
175 198 0
174 198 0
172 195 0
173 196 0
174 197 0
171 194 0
173 196 0
175 198 0
171 194 0
173 197 0
172 196 0
173 196 0
174 197 0
173 196 0
171 194 0
169 193 0
173 197 0
170 194 0
174 196 0
171 195 0
169 192 0
173 195 36
172 196 25
173 196 36
172 195 25
174 197 25
173 196 0
173 196 25
172 195 0
173 195 0
177 199 62
176 198 67
178 200 67
177 199 67
176 198 72
175 198 62
176 198 80
173 196 51
173 196 57
176 198 57
174 196 57
172 194 44
176 198 44
177 198 36
174 197 51
178 200 67
176 197 44
175 198 72
176 198 62
177 198 25
168 191 44
172 194 44
169 191 57
174 197 62
175 196 44
176 198 51
173 195 36
172 194 76
174 196 44
170 191 25
173 196 57
169 192 44
169 191 51
168 190 57
173 194 36
173 193 51
173 195 57
166 188 25
170 192 51
173 195 51
171 193 57
167 188 36
169 190 67
168 190 57
169 190 44
160 181 51
166 187 57
169 189 57
159 180 44
169 189 72
165 185 57
164 185 44
163 184 0
162 184 36
161 183 25
152 174 0
153 174 25
143 163 0
140 160 0
120 140 0
128 148 0
124 143 0
127 147 0
132 152 0
129 149 0
118 137 0
137 156 0
125 145 0
143 163 0
141 162 0
138 159 0
154 175 0
147 169 0
156 179 0
166 189 0
160 183 0
171 195 0
174 197 0
173 196 0
173 196 0
174 198 0
174 197 0
173 197 0
173 197 0
170 194 0
172 196 0
173 196 0
173 197 0
174 197 0
173 197 0
173 197 0
174 197 0
176 198 0
173 196 0
171 195 0
174 197 0
171 195 0
167 191 25
64 97 111
57 90 103
54 86 86
56 89 102
57 90 103
57 91 114
55 88 103
57 90 108
58 93 117
58 91 115
58 91 114
57 90 108
56 89 105
59 93 125
57 91 114
57 90 117
58 92 122
56 89 103
56 89 102
57 91 100
58 91 118
58 92 115
56 90 110
58 92 121
57 90 105
56 89 100
56 90 110
57 90 120
60 94 128
59 93 129
56 89 111
58 91 120
58 91 108
56 90 114
56 89 105
58 91 113
58 91 122
59 93 128
57 90 113
57 91 117
59 93 122
57 90 122
58 92 118
57 90 118
58 91 125
58 92 121
58 92 117
57 91 122
56 88 110
56 88 102
57 91 117
57 90 113
59 93 130
57 91 114
59 93 128
55 88 111
57 90 107
56 88 99
57 90 114
57 90 115
57 90 118
58 91 121
56 89 105
56 88 114
56 89 108
59 92 128
56 88 113
56 89 109
57 89 118
57 90 110
58 90 123
56 88 110
53 84 97
56 88 105
55 87 103
56 88 113
57 88 108
58 91 124
54 85 108
57 89 111
56 87 108
51 80 101
53 83 108
53 83 107
56 86 111
51 80 89
50 77 88
55 86 111
52 80 86
52 81 95
50 79 89
49 74 90
49 76 75
49 72 74
162 185 26
174 197 0
174 197 0
172 195 0
172 195 0
172 195 0
173 196 0
175 198 0
174 196 0
106 108 35
82 80 20
81 79 20
76 74 23
78 77 17
68 67 10
67 67 8
62 62 16
70 70 9
77 77 16
80 79 8
83 85 21
77 77 20
77 79 18
79 80 25
94 93 27
95 95 23
85 83 24
94 93 37
89 88 28
101 99 24
100 99 34
93 94 30
108 106 42
115 111 37
111 109 30
118 115 44
116 114 47
119 116 33
122 119 41
122 118 39
125 121 43
130 126 45
125 122 48
121 118 47
118 116 38
127 124 47
134 129 51
132 128 43
128 124 39
129 125 42
132 128 48
134 130 53
133 130 48
135 130 49
139 133 59
139 136 49
149 143 58
133 130 42
140 136 42
143 138 49
145 139 54
139 134 47
137 133 40
153 146 51
141 137 47
145 140 55
147 142 50
149 143 58
151 147 54
151 146 57
149 143 49
154 149 58
154 148 59
155 149 53
156 150 54
149 144 56
153 148 53
153 147 56
150 145 55
154 148 59
151 145 58
157 151 61
156 150 57
151 144 54
157 151 65
149 143 52
155 149 59
158 151 62
152 146 58
156 151 60
157 150 59
156 150 57
151 146 48
161 153 72
162 155 63
159 152 65
156 149 60
148 143 51
162 155 62
157 152 64
158 152 62
159 151 62
159 153 61
159 153 58
157 150 64
156 149 67
154 148 60
159 153 58
160 155 70
158 152 63
158 152 67
154 147 62
162 155 70
156 150 59
157 151 68
161 155 64
157 149 60
155 149 58
162 156 63
146 141 54
161 154 70
152 147 59
152 146 66
155 148 59
158 152 65
158 152 68
159 152 67
155 148 62
159 153 61
151 145 58
160 152 72
158 151 73
155 149 66
160 153 62
156 151 63
155 148 64
150 145 62
144 138 56
151 145 61
144 139 58
156 150 66
154 148 68
159 152 65
153 146 71
145 140 54
147 142 63
160 153 77
153 147 66
151 144 70
151 143 69
149 144 63
146 141 65
157 151 72
199 217 173
174 197 0
173 197 0
173 197 0
174 198 0
175 198 0
174 198 0
174 197 0
174 197 0
173 197 0
172 196 0
173 197 0
174 197 0
175 198 0
173 197 0
175 198 0
174 198 0
172 196 0
173 197 0
174 198 0
174 197 0
174 197 0
172 196 0
173 197 0
173 197 0
174 197 0
174 197 0
173 196 0
173 196 0
173 197 0
174 197 0
171 194 0
174 197 0
173 197 0
172 195 0
174 197 0
172 196 0
172 196 0
172 195 0
173 197 0
168 192 0
171 194 0
168 191 0
172 195 0
170 194 0
172 196 0
169 192 0
172 194 36
172 194 25
174 197 36
172 196 0
173 194 44
173 196 25
174 197 44
170 193 0
172 194 0
173 197 0
176 198 57
177 199 67
176 198 72
176 199 62
178 199 67
173 195 57
172 196 57
174 197 62
173 196 57
179 201 51
173 196 44
174 196 44
178 199 67
177 198 62
176 198 72
175 196 51
177 199 67
179 200 67
176 198 57
171 192 57
172 193 44
174 196 44
171 193 51
175 196 57
174 196 44
171 192 51
175 196 44
173 195 44
177 198 57
170 191 44
178 198 44
176 197 51
174 195 57
175 197 51
173 194 67
169 191 44
169 190 36
174 195 57
169 190 57
169 191 57
175 195 62
164 185 67
165 186 62
165 185 72
160 180 44
163 184 57
160 181 67
167 186 25
159 180 25
160 180 44
163 184 57
162 183 36
146 167 36
135 157 0
144 165 0
132 153 0
122 142 0
136 156 0
134 154 0
135 155 0
132 153 0
143 162 0
131 152 0
144 164 0
121 142 0
144 166 0
134 156 0
131 152 0
147 170 0
146 167 0
155 178 0
159 181 0
166 189 0
169 192 0
171 195 0
173 197 0
173 197 0
174 196 0
172 195 0
174 198 0
173 197 0
172 196 0
173 196 0
171 195 0
175 198 0
173 197 0
172 196 0
174 197 0
174 197 0
174 196 0
172 196 0
172 196 0
174 197 0
174 197 0
173 197 0
173 197 0
113 139 92
54 87 88
56 89 99
56 89 100
57 90 105
57 90 108
55 87 99
56 89 95
57 90 114
57 91 102
57 90 102
58 91 111
57 90 107
58 91 107
56 89 108
56 89 95
57 91 120
58 91 118
57 91 115
56 88 99
58 92 122
55 88 114
57 90 105
57 90 117
56 89 113
57 91 111
58 92 114
58 91 117
57 90 97
56 89 114
57 91 115
57 90 102
58 92 117
56 89 100
58 92 124
56 89 113
59 93 129
57 90 108
56 89 111
57 91 117
59 92 124
57 90 114
57 89 121
59 93 126
57 91 114
58 91 118
58 91 126
58 92 114
59 92 121
57 90 117
58 91 116
57 90 121
58 92 122
57 91 108
57 90 122
57 90 113
56 88 100
56 89 107
57 89 114
58 92 117
58 90 116
57 89 120
56 89 110
59 92 125
57 90 125
57 89 115
57 90 106
58 90 113
58 92 118
58 90 121
54 84 98
56 87 111
56 87 112
55 86 113
56 88 107
56 88 110
57 89 119
56 87 110
53 84 103
55 85 103
56 88 117
52 80 86
54 83 97
55 85 103
54 84 105
52 81 88
50 78 88
51 79 101
50 77 83
48 74 80
53 81 100
51 79 92
46 72 78
104 125 56
173 196 0
171 195 0
169 194 0
172 197 0
173 196 0
172 195 0
171 194 0
171 194 0
173 196 0
146 162 19
82 81 18
92 90 28
79 77 24
78 75 21
78 77 12
68 67 18
75 75 15
81 80 20
80 79 11
85 84 19
81 81 19
76 75 20
82 82 21
87 86 20
87 87 24
93 93 24
93 91 28
94 94 26
99 98 28
106 103 38
111 107 34
105 103 30
108 106 39
102 99 34
101 100 37
112 110 41
114 111 35
117 113 36
111 107 33
122 120 39
125 121 43
117 114 31
130 127 42
129 127 43
135 132 47
132 128 52
138 133 49
138 135 52
126 124 43
136 133 53
126 123 42
132 128 48
128 126 40
135 129 45
140 136 49
139 135 44
138 134 51
147 142 54
144 139 49
147 143 51
146 140 53
145 141 54
140 135 50
141 136 54
146 140 50
151 147 51
146 141 56
145 139 57
142 137 46
154 148 57
151 145 51
157 150 64
150 144 59
154 149 56
152 145 53
146 141 53
150 145 52
158 152 61
148 142 58
154 149 53
156 151 58
158 152 60
155 148 60
160 155 60
154 148 52
158 152 64
156 150 61
151 146 56
155 149 60
150 143 60
155 147 67
150 145 56
160 154 63
155 149 52
151 146 54
157 150 64
149 143 56
159 152 54
157 150 63
153 148 60
151 145 52
150 145 61
160 154 64
153 147 56
153 147 65
154 148 61
156 150 54
160 154 67
161 155 65
157 151 58
155 147 67
156 150 64
164 156 69
155 148 66
157 151 62
151 145 58
154 147 58
156 151 58
154 147 66
151 145 64
151 146 51
152 147 56
148 142 57
148 141 66
157 152 64
154 149 54
152 144 67
153 147 61
152 146 60
153 145 63
158 152 57
158 151 67
154 148 68
155 149 68
152 146 60
158 152 63
153 147 63
149 143 64
159 152 75
149 144 62
148 143 53
149 143 54
151 145 65
158 151 66
158 150 74
149 143 59
147 141 66
146 141 56
146 140 51
155 149 66
153 147 60
150 144 65
141 137 53
174 198 0
175 198 0
174 198 0
174 197 0
173 197 0
176 199 0
173 197 0
174 198 0
174 198 0
174 197 0
173 197 0
172 196 0
174 197 0
174 198 0
175 198 0
173 197 0
174 198 0
174 198 0
173 197 0
174 197 0
174 197 0
172 196 0
172 197 0
172 196 0
173 196 0
173 196 0
172 195 0
173 197 0
173 196 0
172 195 0
172 196 0
171 194 0
173 197 0
171 195 0
174 197 0
173 196 0
172 196 0
168 192 0
172 195 0
169 192 0
169 192 0
173 197 0
169 192 0
169 193 0
171 195 0
170 194 0
170 194 0
168 191 0
171 195 25
172 196 36
173 197 25
175 198 36
167 191 25
171 194 36
176 199 51
172 195 25
177 199 51
171 194 0
172 194 25
176 198 57
180 201 72
173 195 44
174 197 44
173 194 72
179 200 80
177 198 62
176 197 36
174 197 51
176 197 67
171 192 57
179 200 67
177 198 36
175 196 0
176 199 67
175 196 44
173 195 25
171 192 25
172 193 57
169 190 57
168 190 44
175 196 72
176 197 44
170 191 57
175 196 36
170 192 36
171 192 44
173 194 62
173 193 51
172 192 51
171 192 51
166 187 57
173 194 72
175 196 62
167 187 51
163 184 51
169 189 51
171 191 67
165 186 44
167 187 51
168 189 57
172 192 51
163 183 44
158 178 36
152 174 25
161 182 0
162 182 36
159 180 44
154 175 36
146 167 0
140 161 0
130 151 0
141 161 0
129 150 0
143 164 0
141 162 0
145 167 0
127 147 0
142 163 0
135 157 0
140 160 0
139 160 0
142 163 0
153 173 0
140 163 0
151 172 0
154 176 0
155 177 0
150 173 0
161 185 0
166 190 0
172 195 0
173 196 0
171 195 0
173 197 0
174 197 0
168 192 0
172 196 0
174 197 0
174 198 0
173 196 0
174 197 0
172 196 0
171 194 0
171 194 0
172 196 0
172 195 0
170 194 0
173 197 0
173 196 0
172 196 0
172 195 0
171 195 0
170 194 0
162 186 47
55 88 94
58 91 103
56 88 103
55 87 103
53 85 102
56 89 107
57 90 117
57 90 100
55 88 107
57 91 117
56 89 95
57 90 105
56 89 105
56 90 103
56 89 105
55 87 94
57 89 113
59 93 122
57 91 103
59 92 120
57 91 103
59 93 125
57 90 114
58 91 124
56 89 108
55 88 102
58 92 121
58 91 115
57 90 117
57 90 108
60 94 130
56 90 111
57 89 111
57 90 102
59 92 128
59 93 130
55 87 108
57 90 114
56 89 114
58 92 111
57 91 118
56 89 110
59 92 115
58 91 120
59 93 124
55 87 114
59 93 120
57 90 111
56 89 113
57 90 114
58 91 117
57 91 113
57 91 111
57 90 111
59 92 122
57 90 114
57 90 104
58 92 115
57 89 110
58 91 117
55 88 110
57 89 115
55 87 116
56 89 119
58 91 122
58 90 125
55 87 102
55 86 104
55 88 106
55 86 100
53 84 103
55 87 107
56 88 120
54 86 106
56 88 108
53 82 100
57 89 122
53 83 91
55 86 99
56 86 116
52 81 88
55 86 103
52 82 94
52 81 87
51 79 91
51 80 82
52 81 94
53 82 103
51 79 93
52 80 92
46 72 68
46 69 63
161 184 25
171 194 0
171 195 0
171 194 0
172 195 0
174 197 0
170 193 0
171 195 0
172 196 0
169 193 0
169 193 0
117 123 24
83 80 21
88 84 24
81 79 23
78 77 17
74 74 14
72 72 18
78 77 15
65 67 19
77 77 15
63 62 11
80 78 17
81 81 15
89 87 25
96 96 24
101 99 27
95 94 16
89 90 27
88 86 20
105 102 30
99 98 27
102 100 25
108 106 35
102 102 28
113 110 29
109 108 37
101 103 30
118 116 42
116 112 31
120 118 39
116 113 45
120 118 36
119 117 34
123 121 40
137 133 45
126 123 31
127 124 45
131 126 38
136 132 55
135 132 48
129 126 39
134 129 45
129 126 42
136 132 49
130 126 47
130 127 38
143 139 43
135 130 46
145 140 53
136 133 47
142 138 48
141 137 46
153 146 55
141 136 46
145 140 57
144 140 53
149 142 53
149 144 50
150 145 60
147 143 54
147 142 53
145 140 45
148 143 56
151 145 51
152 146 53
143 139 45
150 145 49
154 148 57
149 144 54
145 141 47
147 142 54
152 147 51
153 147 60
152 145 62
159 152 63
152 147 52
153 148 49
148 143 53
158 151 62
154 148 57
154 148 57
152 148 62
151 145 57
152 146 56
159 152 65
154 150 47
156 149 63
151 146 54
154 148 54
153 147 60
148 141 54
158 151 63
153 148 57
158 152 58
152 147 53
150 145 58
155 150 60
158 152 62
152 146 56
152 144 58
156 150 54
158 151 60
155 150 56
145 140 49
150 145 58
156 150 63
154 149 62
157 150 66
154 147 60
155 149 61
149 145 56
151 144 59
154 148 62
150 145 62
144 139 54
153 148 51
150 144 61
155 149 60
153 146 62
150 144 60
155 148 62
147 141 54
154 148 63
158 151 65
154 147 64
149 143 59
153 147 61
153 147 62
143 139 52
152 146 66
151 144 71
149 142 62
154 148 67
145 139 54
149 144 67
145 139 58
151 146 57
154 147 65
143 137 58
152 145 64
144 138 65
145 138 51
149 143 67
175 198 0
175 198 0
176 199 0
173 197 0
173 197 0
173 197 0
175 198 0
173 197 0
174 198 0
174 197 0
173 197 0
174 198 0
175 198 0
175 198 0
174 197 0
172 196 0
173 196 0
174 198 0
174 197 0
174 198 0
170 194 0
173 197 0
171 195 0
172 195 0
174 197 0
172 195 0
173 196 0
173 197 0
171 195 0
173 195 0
173 196 0
172 195 0
170 193 0
171 194 0
173 196 0
172 196 0
172 196 0
172 196 0
173 197 0
171 194 0
169 192 0
173 196 0
171 194 0
166 190 0
170 194 0
171 195 0
170 194 0
167 191 0
170 193 0
169 193 0
167 190 36
174 197 44
173 196 36
170 193 44
174 197 44
172 195 36
173 196 44
171 194 25
169 191 25
174 197 36
169 192 25
171 195 0
178 199 72
180 200 72
178 199 36
175 197 62
178 199 80
175 197 62
174 195 62
175 196 62
174 196 67
178 199 76
174 195 36
178 199 67
174 195 51
173 194 44
174 195 57
176 196 36
172 193 62
177 197 51
172 193 44
173 193 57
173 193 44
173 194 67
173 193 62
173 193 44
168 189 51
172 192 51
173 193 67
166 187 36
171 192 62
173 193 80
167 186 51
170 190 84
167 186 67
163 184 80
168 187 62
166 186 62
168 188 62
163 184 44
161 182 0
156 176 25
161 181 25
156 176 36
155 175 57
157 178 0
154 175 25
148 169 25
136 156 0
137 158 0
135 156 0
147 168 0
147 167 0
142 162 0
142 163 0
137 158 0
137 157 0
136 155 0
132 153 0
138 159 0
134 155 0
142 162 0
143 163 0
150 172 0
148 170 0
154 176 0
153 175 0
158 181 0
163 187 0
174 197 0
171 194 0
172 196 0
173 196 0
172 195 0
172 195 0
172 196 0
173 196 0
172 196 0
173 197 0
172 196 0
174 197 0
170 194 0
172 195 0
170 194 0
172 196 0
171 194 0
170 194 0
173 196 0
172 195 0
171 196 0
171 194 0
172 195 0
173 197 0
170 194 0
110 135 78
57 90 110
57 90 108
56 89 100
56 89 100
54 86 90
58 91 111
55 88 100
55 87 100
55 88 97
59 92 118
56 89 113
56 89 105
57 90 114
58 91 114
55 88 100
56 89 113
57 90 113
58 92 118
56 89 97
58 91 114
56 88 107
58 91 115
57 90 115
58 92 114
58 92 115
58 92 126
57 89 110
59 93 121
57 90 122
58 92 118
55 88 107
60 94 128
58 91 118
57 90 117
58 92 115
58 92 107
58 91 115
56 90 110
57 90 113
56 89 113
57 91 113
56 89 111
56 88 97
58 91 117
57 90 111
58 92 118
56 89 108
58 92 120
53 85 107
55 87 107
56 88 111
57 90 113
58 91 124
58 92 126
57 90 113
55 88 107
58 91 121
58 91 121
57 89 110
59 92 126
59 93 126
57 89 115
57 90 119
55 87 110
57 90 115
53 84 100
57 89 109
54 85 94
57 90 119
55 86 96
56 88 107
56 87 104
56 88 115
55 86 105
56 87 110
53 83 91
57 90 121
54 84 102
54 84 110
55 86 110
53 83 94
54 83 112
51 79 85
51 79 91
53 83 97
51 80 94
53 81 99
47 74 87
50 76 86
46 71 72
101 120 59
170 192 0
166 189 0
171 193 0
172 195 0
171 194 0
173 197 0
169 192 0
171 195 0
172 194 0
171 193 0
171 195 0
163 183 11
94 93 30
100 97 25
93 89 22
76 76 20
82 80 18
79 78 3
78 77 14
68 68 12
90 89 14
69 69 10
73 75 15
86 86 21
86 87 21
85 83 21
89 89 29
86 84 18
89 87 16
98 98 24
100 99 26
97 95 21
99 98 24
105 103 22
117 114 39
98 97 26
113 110 28
98 98 35
121 118 40
115 113 36
123 119 42
127 122 39
123 118 36
121 117 32
126 123 41
124 121 43
123 118 45
121 119 34
131 128 47
126 123 45
118 115 42
136 132 52
139 134 49
136 132 42
134 130 42
131 126 42
135 132 44
136 132 45
140 135 41
140 136 39
149 142 55
131 128 43
136 133 47
143 138 49
135 131 38
140 136 44
141 135 47
150 144 56
148 144 50
144 139 45
149 143 49
145 141 53
147 142 53
153 148 57
148 143 59
151 146 52
148 143 47
146 140 48
148 143 52
148 143 45
147 141 48
154 148 56
156 150 56
150 143 58
150 144 44
155 148 52
151 144 56
155 151 61
158 152 61
150 143 56
154 147 56
152 146 56
157 150 58
157 150 61
153 148 57
160 153 68
155 148 58
153 146 57
155 149 59
150 145 48
158 151 58
155 150 56
155 149 58
156 150 61
156 150 62
153 147 60
155 148 59
157 150 57
153 146 57
151 145 65
147 140 59
153 147 60
151 144 58
159 151 63
151 145 49
152 147 62
154 148 57
152 144 58
150 144 65
152 146 56
155 148 66
148 143 54
163 155 63
148 143 60
149 143 58
151 144 57
156 148 64
152 146 58
156 150 66
147 142 61
157 150 67
150 144 56
152 144 65
156 150 64
147 142 59
148 142 57
150 144 58
152 145 63
151 144 56
142 136 54
152 146 61
144 138 63
154 148 60
151 145 62
151 144 67
144 138 57
152 146 68
147 141 59
148 143 48
152 146 64
145 139 60
151 145 61
145 140 57
148 142 62
174 198 0
174 198 0
175 198 0
174 197 0
173 196 0
175 198 0
174 198 0
174 198 0
175 198 0
173 197 0
173 196 0
174 197 0
175 198 0
173 197 0
171 195 0
174 198 0
174 197 0
173 197 0
174 198 0
175 198 0
174 197 0
172 196 0
172 195 0
173 197 0
172 196 0
171 195 0
171 196 0
172 196 0
174 197 0
173 197 0
172 195 0
171 194 0
171 195 0
172 197 0
170 192 0
172 196 0
173 195 0
171 195 0
172 195 0
171 195 0
168 193 0
172 195 0
171 194 0
173 196 0
169 192 0
170 193 0
166 189 0
169 193 0
170 194 0
170 194 0
170 193 0
172 195 25
170 194 25
172 194 36
174 196 36
174 197 36
173 196 36
172 194 25
170 192 36
172 195 25
174 196 25
170 192 0
173 195 0
176 198 36
174 196 25
174 196 36
177 197 80
175 196 51
175 196 51
175 195 62
178 199 72
174 194 44
173 194 44
174 195 36
174 194 57
171 192 36
175 195 36
171 192 51
173 193 57
169 190 36
175 195 76
171 192 44
170 190 57
177 197 62
168 188 51
171 191 72
171 192 76
169 190 57
167 188 36
170 189 67
167 185 67
166 185 51
162 182 57
172 191 62
167 185 62
168 187 51
158 176 36
162 182 25
155 174 0
165 185 25
156 176 25
165 186 62
164 185 44
157 177 36
155 176 36
156 177 0
151 173 0
144 164 0
144 165 0
147 169 0
143 165 0
143 163 0
139 159 0
144 165 0
144 165 0
143 163 0
156 177 0
149 170 0
142 163 0
153 174 0
143 164 0
143 164 0
145 166 0
145 166 0
159 182 0
157 180 0
162 185 0
161 185 0
170 193 0
174 197 0
171 195 0
170 194 0
174 198 0
172 196 0
170 193 0
174 197 0
174 196 0
173 197 0
173 196 0
174 198 0
171 195 0
172 195 0
170 194 0
170 194 0
171 194 0
170 194 0
171 195 0
171 195 0
169 193 0
173 196 0
171 195 0
172 196 0
171 194 0
167 191 0
160 183 25
54 85 68
56 88 102
56 89 108
56 89 94
55 88 105
58 91 115
56 89 103
56 89 105
56 88 102
55 87 94
55 87 103
56 88 102
56 89 107
56 89 107
57 90 108
56 88 113
56 89 102
58 92 115
57 91 114
55 87 100
57 90 108
57 90 118
56 89 97
56 88 114
57 90 108
58 91 100
57 90 120
57 90 111
56 89 102
57 90 114
58 91 115
57 90 108
56 89 108
57 90 114
57 90 108
56 89 110
56 89 120
55 88 107
57 90 117
58 91 114
58 91 115
56 90 105
57 89 99
57 90 114
60 94 122
58 91 116
56 88 115
56 89 100
55 88 100
57 90 111
55 87 107
56 88 114
57 90 123
58 91 122
57 90 109
56 88 103
56 89 117
56 88 107
55 87 108
56 89 118
57 90 108
57 90 113
58 92 110
56 88 105
56 88 103
53 84 94
56 88 112
58 91 117
54 85 99
56 87 114
52 82 95
56 88 116
57 89 105
55 86 106
53 83 99
54 85 102
55 87 110
52 81 85
55 87 103
53 83 98
50 77 88
51 80 99
51 80 86
52 80 95
52 81 96
51 79 92
50 79 87
49 76 82
46 69 71
61 84 58
156 179 18
170 193 0
172 194 0
169 192 0
171 195 0
169 191 0
171 195 0
171 195 0
171 195 0
171 194 0
170 194 0
169 191 0
168 190 0
120 130 16
88 85 30
90 86 25
88 84 16
87 84 20
82 80 12
75 73 18
83 82 17
85 84 14
75 76 17
79 80 8
84 84 16
91 89 17
82 82 8
90 89 16
87 86 23
94 93 22
83 84 18
98 96 31
97 97 24
106 105 25
94 92 24
103 101 19
101 99 31
98 98 25
110 106 39
114 110 25
120 117 42
122 118 35
112 109 38
126 121 40
113 112 33
115 112 39
123 119 42
120 117 37
134 130 35
125 122 40
135 130 42
133 128 49
137 134 46
130 127 41
133 129 48
130 124 40
135 130 51
122 120 43
130 125 44
142 136 52
134 129 52
146 141 54
134 130 36
131 128 44
145 140 54
136 132 42
134 131 38
142 137 42
152 145 60
140 136 45
140 136 51
135 130 42
147 143 49
149 144 51
147 142 49
144 138 57
150 145 49
144 139 44
155 149 56
142 138 43
149 144 48
147 142 52
155 149 56
151 145 56
150 145 49
155 148 58
154 149 52
148 142 47
150 145 54
147 141 49
147 142 48
155 149 60
158 152 57
154 148 58
150 145 54
151 145 52
153 147 54
154 148 60
150 144 56
157 151 62
154 149 57
152 146 49
156 151 60
150 143 54
151 145 56
156 149 65
156 150 62
156 150 56
158 151 63
156 151 62
152 147 56
147 141 58
158 151 65
154 147 63
145 139 51
150 144 54
156 149 67
156 148 63
150 145 54
150 146 54
149 143 63
152 147 57
152 145 61
147 142 58
154 146 57
152 146 61
153 146 60
151 146 57
144 138 57
151 144 62
152 146 56
159 152 66
149 143 64
156 148 67
151 146 56
154 148 61
148 143 62
149 142 61
150 143 58
150 143 61
148 142 60
149 142 65
151 145 60
154 148 63
149 143 57
145 139 57
154 148 66
142 136 59
148 142 60
152 145 68
148 142 61
153 147 69
143 138 54
142 136 53
142 137 48
175 198 0
173 197 0
173 197 0
175 198 0
174 197 0
175 198 0
175 198 0
175 198 0
174 198 0
173 197 0
173 197 0
175 197 0
174 198 0
172 197 0
173 196 0
174 197 0
173 197 0
174 197 0
174 197 0
174 197 0
173 197 0
172 196 0
173 197 0
175 197 0
174 198 0
170 194 0
175 197 0
170 194 0
171 195 0
172 195 0
173 196 0
171 195 0
172 196 0
174 197 0
172 195 0
172 196 0
167 191 0
172 195 0
173 196 0
166 190 0
172 195 0
171 195 0
170 194 0
173 196 0
171 195 0
169 191 0
171 194 0
173 196 0
167 191 0
169 192 0
168 192 0
169 192 0
167 190 0
168 191 0
169 192 0
172 194 25
172 194 44
172 195 25
173 195 25
178 199 51
173 195 44
172 193 36
170 191 36
167 190 25
176 197 25
175 196 0
167 189 25
176 197 57
171 192 44
175 196 51
180 200 84
176 196 84
173 193 36
173 193 76
174 193 67
175 195 51
170 190 57
173 193 57
174 193 62
171 191 51
172 192 57
174 193 67
172 192 62
167 187 62
164 183 57
175 195 67
173 192 76
168 187 51
164 183 62
172 190 72
169 188 80
163 183 44
166 184 36
162 181 25
168 188 25
157 177 0
163 183 25
163 182 0
161 181 57
159 179 36
164 184 25
157 178 25
153 173 25
159 180 36
151 173 0
155 178 0
146 167 0
143 164 0
149 171 0
147 169 0
147 169 0
149 171 0
145 166 0
143 163 0
147 168 0
150 171 0
147 168 0
144 165 0
147 169 0
148 168 0
148 169 0
151 173 0
151 171 0
161 183 0
158 180 0
162 184 0
162 184 0
171 195 0
175 198 0
172 195 0
173 197 0
172 196 0
173 196 0
174 197 0
172 196 0
169 193 0
171 195 0
173 196 0
172 195 0
169 193 0
173 196 0
173 197 0
170 194 0
170 194 0
171 195 0
173 197 0
169 193 0
171 194 0
172 195 0
169 193 0
170 195 0
170 195 0
171 194 0
172 195 0
169 192 0
131 154 44
54 87 88
53 85 92
56 89 95
57 90 105
55 88 99
55 87 102
57 90 107
57 89 110
55 87 99
55 87 100
56 89 105
56 89 95
55 88 102
53 84 95
55 88 102
58 92 118
57 91 113
56 89 115
57 90 121
58 91 111
55 88 108
56 89 100
57 90 105
58 91 120
56 89 111
55 88 100
58 92 110
56 89 111
58 91 121
57 91 100
54 87 95
57 90 107
58 91 118
58 92 113
58 92 111
56 88 111
55 87 102
59 92 118
57 90 107
56 89 115
56 89 114
58 91 120
56 89 103
57 90 113
58 91 120
55 88 100
55 88 107
54 86 105
57 90 110
57 90 108
57 89 110
57 91 111
56 88 103
56 89 102
57 89 103
58 90 118
56 88 114
57 90 107
58 90 124
54 85 100
56 89 105
55 86 100
53 85 103
56 87 99
54 86 88
58 90 115
55 87 113
53 84 99
54 86 91
54 84 97
54 85 106
56 87 108
57 90 107
55 86 104
56 88 115
54 84 106
56 87 117
55 85 100
54 85 101
53 83 98
51 81 89
54 84 105
51 79 90
51 79 95
50 77 79
50 76 86
48 74 76
46 70 63
113 133 44
166 189 0
169 191 0
170 193 0
167 189 0
168 191 0
172 195 0
169 192 0
166 191 0
172 195 0
170 192 0
169 191 0
172 195 0
166 189 0
169 191 19
106 108 33
82 80 20
80 78 17
83 80 24
64 64 16
77 77 14
71 72 12
83 81 14
72 71 20
74 74 22
79 79 12
89 87 14
79 80 21
87 87 18
84 84 30
99 98 25
88 87 24
96 95 27
102 100 21
96 94 14
99 98 23
96 96 26
97 98 32
114 112 32
111 107 22
111 109 32
108 107 22
113 111 30
118 115 29
122 119 42
120 116 35
114 112 34
117 113 31
127 123 38
121 119 35
129 124 36
128 125 37
131 127 41
130 126 37
142 136 49
132 128 43
136 131 41
132 129 43
138 133 48
136 132 41
134 132 41
139 133 50
140 135 44
135 129 46
131 127 38
143 138 45
144 137 52
148 143 47
140 135 49
143 138 49
139 135 42
140 134 42
146 140 54
146 140 48
148 142 52
151 145 51
151 144 52
140 136 44
140 136 34
152 146 53
142 136 49
149 143 56
150 143 57
147 141 47
149 143 48
149 143 47
156 150 56
147 142 53
151 144 58
147 141 57
153 149 51
148 143 57
152 146 52
148 143 47
149 144 54
155 148 52
154 148 57
153 146 60
147 142 53
153 147 60
160 153 58
157 150 65
149 144 47
157 150 56
154 147 54
150 143 49
154 148 57
152 146 60
145 141 48
154 148 56
147 143 44
150 144 57
153 147 58
151 144 59
149 145 51
152 146 58
152 145 52
149 143 54
152 146 58
155 148 52
152 146 54
160 153 70
156 151 56
152 145 65
153 147 61
153 147 58
146 140 53
147 141 52
150 145 49
152 144 64
151 145 57
154 147 62
148 142 64
149 143 58
142 136 56
150 144 58
151 146 53
142 137 54
147 141 63
149 143 60
152 145 60
155 149 61
155 149 61
142 136 58
150 143 60
159 152 67
150 143 60
145 139 60
152 146 60
144 138 61
153 147 65
144 137 57
141 135 58
143 136 62
149 143 60
149 142 65
173 197 0
174 197 0
173 197 0
175 198 0
174 198 0
173 197 0
175 198 0
173 197 0
172 196 0
175 198 0
175 198 0
172 197 0
173 197 0
173 197 0
173 197 0
172 196 0
176 199 0
174 197 0
174 197 0
173 196 0
173 196 0
173 195 0
173 197 0
173 197 0
173 196 0
172 195 0
172 196 0
174 197 0
170 193 0
171 195 0
172 196 0
173 196 0
170 194 0
174 197 0
173 196 0
173 196 0
171 194 0
171 194 0
171 194 0
168 191 0
171 194 0
171 194 0
171 194 0
171 194 0
172 195 0
171 194 0
169 192 0
168 192 0
167 190 0
170 194 0
171 194 0
168 190 0
166 190 0
169 192 0
167 191 0
170 193 25
170 194 25
175 197 25
171 194 44
173 195 57
173 195 0
170 193 25
170 192 25
169 191 36
172 194 44
171 194 25
173 195 44
171 192 25
174 195 25
167 188 0
172 192 25
172 192 0
171 191 36
175 196 57
174 194 44
174 194 67
172 192 44
173 193 44
173 193 62
176 196 67
178 197 76
174 194 57
174 193 72
167 186 51
170 189 51
170 190 44
172 192 51
169 188 57
163 183 0
165 186 0
159 180 36
168 188 25
166 185 0
154 173 0
162 182 36
163 183 25
154 174 25
162 182 51
164 184 0
155 175 36
151 172 25
154 175 0
153 175 0
153 175 0
153 175 0
144 166 0
150 171 0
155 177 0
147 168 0
147 168 0
155 177 0
147 169 0
154 175 0
153 174 0
143 164 0
146 168 0
146 167 0
149 170 0
153 175 0
146 166 0
145 166 0
153 174 0
153 174 0
154 176 0
159 182 0
157 180 0
166 190 0
171 194 0
174 197 0
172 196 0
170 194 0
173 197 0
169 193 0
173 197 0
168 192 0
173 196 0
167 192 0
170 194 0
173 196 0
167 191 0
169 193 0
172 196 0
172 196 0
171 195 0
168 192 0
170 194 0
171 195 0
169 193 0
171 194 0
168 193 0
168 191 0
164 188 0
168 192 0
171 194 0
167 189 0
172 194 0
86 113 80
55 88 84
56 89 102
55 88 100
55 87 107
55 88 99
55 87 97
56 89 115
56 89 107
53 85 95
56 88 103
56 89 95
55 87 99
57 89 113
55 87 97
57 91 108
57 90 105
57 91 110
58 92 120
56 89 107
57 90 111
56 89 103
56 88 100
56 90 107
56 88 117
55 88 92
57 90 114
58 91 110
59 92 129
57 89 118
57 91 110
57 90 97
57 90 114
56 89 108
56 89 105
58 92 120
57 90 103
57 90 113
57 90 107
57 90 110
58 92 120
58 91 114
56 88 99
56 89 102
56 89 111
57 90 113
57 90 113
57 89 104
57 90 114
54 86 99
56 88 103
57 90 118
57 90 108
57 90 115
55 88 99
57 90 121
56 89 102
53 84 94
56 88 107
56 89 100
56 89 110
57 90 108
56 88 102
57 89 118
58 91 124
55 86 98
56 88 102
55 86 107
57 90 110
53 83 98
55 86 98
56 88 116
54 85 98
55 87 102
55 85 110
55 85 104
52 82 89
54 85 86
53 83 98
53 82 103
52 82 97
54 84 97
50 78 82
48 74 84
49 76 90
49 75 82
44 68 59
68 88 57
164 186 0
170 192 0
169 190 0
167 188 0
171 193 0
169 193 0
167 190 0
168 191 0
170 193 0
168 192 0
169 191 0
171 193 0
171 193 0
165 187 0
168 191 0
150 168 11
96 93 30
93 90 19
92 87 22
88 85 24
79 77 20
84 83 8
85 84 17
74 73 0
78 77 16
82 82 15
71 72 11
96 93 8
89 86 8
104 101 22
88 87 21
91 90 23
92 91 20
106 102 25
103 101 29
103 101 26
106 104 24
106 105 24
108 106 32
100 98 35
103 101 16
112 110 33
114 111 31
114 111 30
112 110 32
118 113 36
122 119 32
121 118 33
125 120 39
124 120 37
122 119 34
122 119 35
120 117 30
128 123 46
119 115 37
129 125 39
120 118 36
137 131 45
130 126 38
138 133 53
138 132 44
144 139 51
138 133 49
143 139 46
139 134 43
142 136 47
142 136 51
139 134 38
148 143 54
145 140 51
147 142 50
139 135 44
146 139 49
144 139 47
147 142 45
153 147 53
150 145 56
148 143 42
153 147 58
149 143 58
152 145 52
149 144 47
144 139 48
149 143 48
145 139 52
152 146 52
155 148 56
150 144 54
154 147 59
148 143 53
149 143 44
157 151 52
154 148 45
150 145 48
145 140 47
146 140 52
147 141 47
151 145 53
148 142 51
150 145 57
151 145 52
154 148 59
153 146 57
147 142 54
158 150 63
152 146 52
152 147 53
152 146 54
155 149 53
150 144 47
154 148 63
144 138 58
152 146 49
151 145 51
154 148 60
151 145 53
150 144 54
148 142 51
158 150 61
149 144 51
149 143 56
154 146 61
151 144 57
150 144 51
149 143 61
148 143 52
145 139 53
151 145 56
154 148 51
147 140 53
148 142 53
151 145 59
151 145 58
149 144 57
148 141 60
144 138 57
146 139 60
148 142 56
152 144 69
140 136 47
153 147 62
150 143 59
142 137 61
143 137 57
142 135 52
145 138 58
145 139 58
140 135 53
139 133 57
148 143 54
151 145 65
148 143 60
145 139 57
142 136 49
143 138 56
148 140 57
177 199 0
176 198 0
175 198 0
174 197 0
174 198 0
175 198 0
174 197 0
173 197 0
175 198 0
174 198 0
174 198 0
174 197 0
173 197 0
172 197 0
174 197 0
175 198 0
171 195 0
171 195 0
172 196 0
171 195 0
174 197 0
173 197 0
174 196 0
172 195 0
172 196 0
173 196 0
170 194 0
174 197 0
171 195 0
172 195 0
173 196 0
172 196 0
171 194 0
173 196 0
171 194 0
174 197 0
171 193 0
171 195 0
170 194 0
172 196 0
173 197 0
167 191 0
173 197 0
171 194 0
171 195 0
170 193 0
168 191 0
170 194 0
169 192 0
169 192 0
168 191 0
168 191 0
171 194 0
167 190 0
167 190 0
169 193 0
169 191 0
169 192 0
169 191 0
171 194 0
169 191 25
170 193 0
169 191 0
166 188 36
168 191 0
172 194 0
175 195 44
175 196 57
172 193 36
173 194 76
167 189 36
172 193 44
169 189 25
169 189 51
171 192 25
165 185 36
166 186 36
170 190 0
171 192 25
171 192 25
168 188 36
168 188 0
167 187 51
167 187 57
161 180 25
167 187 25
168 188 25
167 187 25
169 189 25
167 186 25
169 189 36
163 183 44
155 175 44
155 176 25
166 187 36
164 184 36
155 175 0
164 185 0
162 183 0
145 166 0
160 181 0
154 176 0
150 172 0
153 174 0
159 179 0
146 168 0
151 174 0
156 177 0
149 169 0
147 168 0
153 174 0
137 158 0
143 164 0
147 168 0
150 171 0
154 175 0
149 170 0
149 171 0
153 175 0
153 174 0
154 177 0
151 173 0
157 179 0
160 182 0
166 189 0
166 189 0
169 193 0
172 196 0
172 196 0
171 195 0
170 193 0
172 195 0
173 197 0
171 194 0
173 197 0
171 194 0
171 195 0
168 192 0
174 197 0
170 194 0
170 194 0
168 192 0
173 197 0
172 195 0
168 192 0
170 194 0
172 196 0
170 194 0
168 191 0
166 188 0
170 194 0
169 192 0
166 189 0
169 192 0
172 196 0
167 190 0
146 169 57
52 82 82
56 88 92
55 88 100
54 86 102
55 88 102
56 89 99
54 86 90
56 89 95
54 86 97
57 90 108
55 88 105
53 84 95
56 89 105
56 88 113
56 89 107
55 88 100
57 90 121
55 88 111
58 91 121
57 90 107
56 89 105
55 88 103
56 89 110
55 87 103
57 91 113
57 90 115
56 89 108
57 90 120
55 88 111
55 87 103
56 88 100
57 90 110
56 89 113
56 89 114
57 90 110
57 90 108
55 88 108
58 91 121
56 89 108
57 90 121
57 90 102
57 90 111
56 88 95
58 91 125
58 91 118
55 88 97
57 90 111
57 90 118
54 86 102
53 84 95
55 86 100
57 90 118
57 90 121
55 87 111
56 89 114
57 89 111
57 89 100
57 91 120
57 90 110
55 87 105
55 87 97
55 86 101
57 89 112
56 88 114
56 88 109
52 83 89
54 86 107
53 84 96
54 85 93
52 81 89
57 88 103
58 91 124
56 87 93
56 87 100
56 86 107
52 82 79
51 80 89
52 82 95
55 84 103
50 77 81
52 82 92
50 78 98
50 78 73
48 74 75
49 75 74
46 72 74
148 168 34
161 184 0
161 182 0
160 183 0
163 185 0
163 185 0
173 195 0
162 185 0
168 190 0
167 190 0
165 188 0
164 186 0
167 189 0
168 189 0
163 184 0
169 192 0
168 190 0
131 143 24
85 81 28
86 83 23
90 87 25
81 80 19
86 83 20
82 82 21
78 78 23
89 87 12
89 86 16
72 73 20
94 91 20
84 82 20
74 73 20
88 85 9
86 85 11
93 91 17
95 95 24
106 103 28
91 88 11
103 101 22
111 107 28
104 101 30
99 98 25
95 93 29
106 104 19
109 107 27
119 116 32
122 117 46
116 113 32
111 107 28
117 114 31
123 118 43
129 124 35
133 128 37
126 123 34
129 125 34
135 131 35
131 127 42
132 127 41
136 131 39
125 121 35
142 137 40
136 131 42
134 130 42
133 130 38
139 134 45
131 127 42
128 124 37
145 140 52
141 137 41
142 137 45
146 140 44
143 138 41
147 142 50
139 133 47
148 143 39
144 137 42
143 137 46
141 136 42
142 137 37
155 150 54
151 144 52
148 142 53
151 146 55
142 136 54
147 142 49
148 142 42
145 140 51
147 140 47
149 143 49
154 147 54
148 142 42
145 139 42
149 145 49
153 147 52
147 140 49
147 142 48
151 144 56
147 141 51
158 150 60
147 141 42
147 141 52
154 147 62
155 149 60
156 148 56
156 150 57
151 145 56
150 145 54
153 146 51
148 141 54
152 145 56
152 146 54
149 143 57
156 150 54
151 145 58
148 142 44
149 143 54
149 143 45
155 148 56
157 150 59
152 145 54
147 142 52
155 149 61
154 149 58
152 146 58
149 143 49
149 144 54
149 142 54
147 141 52
155 147 64
150 144 62
146 140 54
143 138 49
148 142 54
149 143 53
148 143 51
140 135 52
148 141 57
155 149 64
144 138 56
149 142 58
147 141 59
146 140 51
143 137 54
149 142 64
143 138 61
151 144 64
151 145 62
142 135 60
148 142 59
143 138 57
150 144 58
147 139 61
144 138 60
150 143 66
148 141 62
143 139 56
150 144 63
144 137 62
176 198 0
174 197 0
175 198 0
175 198 0
174 198 0
172 196 0
173 197 0
175 198 0
173 197 0
174 197 0
173 197 0
174 197 0
172 196 0
173 197 0
173 197 0
175 198 0
174 197 0
172 196 0
173 197 0
171 195 0
173 197 0
174 198 0
174 197 0
173 196 0
173 196 0
170 194 0
174 197 0
174 197 0
175 197 0
172 196 0
172 195 0
174 197 0
171 194 0
171 194 0
172 195 0
171 194 0
171 195 0
172 195 0
172 195 0
170 194 0
170 193 0
170 193 0
174 196 0
170 193 0
167 190 0
172 194 0
171 193 0
169 191 0
171 194 0
170 194 0
169 192 0
167 190 0
168 190 0
172 195 0
170 193 0
167 190 0
164 186 0
164 187 0
171 194 0
167 189 0
169 192 0
168 191 0
173 194 44
169 190 0
175 196 0
173 194 44
172 193 25
171 193 25
161 182 0
173 193 0
167 189 36
167 188 36
166 188 25
174 194 36
171 192 44
167 188 36
171 191 44
164 184 25
165 185 36
167 188 0
169 190 36
169 189 25
168 188 51
165 184 0
170 189 62
160 180 0
159 180 36
169 188 36
166 187 25
171 190 62
163 183 36
162 183 36
164 185 44
156 177 25
155 175 36
154 175 0
155 176 0
149 171 0
159 181 0
151 172 0
157 178 0
155 178 0
149 170 0
156 178 0
152 173 0
149 169 0
153 174 0
152 173 0
152 174 0
155 177 0
146 165 0
147 168 0
155 175 0
150 171 0
149 170 0
147 168 0
157 178 0
155 176 0
154 175 0
157 179 0
153 175 0
158 180 0
159 181 0
158 180 0
168 191 0
169 193 0
172 197 0
170 194 0
171 194 0
170 193 0
170 194 0
171 194 0
170 194 0
173 196 0
172 195 0
167 191 0
169 191 0
171 195 0
172 195 0
171 195 0
173 196 0
169 192 0
169 193 0
172 195 0
165 189 0
168 192 0
168 191 0
164 189 0
171 194 0
165 189 0
168 191 0
168 192 0
167 190 0
169 193 0
168 191 0
168 190 0
172 195 0
109 132 72
53 85 91
54 87 94
56 88 102
54 86 88
55 87 94
57 90 111
57 90 107
56 89 103
56 89 103
54 86 97
56 90 107
54 86 92
57 90 102
58 91 113
57 90 113
55 88 105
58 91 105
57 91 111
56 89 100
56 89 108
55 87 94
57 89 103
56 89 113
56 89 97
57 90 113
56 88 108
56 89 107
56 89 103
54 86 100
55 87 108
57 90 113
57 90 107
56 89 110
56 89 100
55 88 108
55 88 108
56 89 100
57 89 105
55 87 103
55 87 102
56 89 111
57 89 117
55 87 102
55 88 102
56 88 110
57 90 120
55 86 102
57 89 117
56 88 110
56 89 105
56 88 103
56 88 111
56 88 110
56 88 111
56 89 111
57 90 108
54 85 92
55 86 97
55 86 96
55 87 99
54 86 101
55 86 107
53 83 97
55 87 104
56 89 118
55 86 103
56 88 115
54 86 97
54 85 96
53 83 92
54 84 97
53 84 96
53 83 95
53 83 94
52 82 99
54 85 102
53 83 92
51 80 93
52 80 100
50 78 91
49 76 78
51 78 94
48 75 77
47 72 81
109 128 51
161 183 0
166 189 0
159 181 0
164 187 0
167 188 0
159 180 0
162 182 0
164 186 0
165 186 0
165 187 0
162 184 0
167 190 0
163 184 0
166 187 0
165 188 0
163 183 0
170 192 0
167 190 0
118 123 31
95 92 33
89 85 28
79 75 22
90 86 16
85 83 12
82 79 11
69 69 12
85 82 16
76 76 14
81 82 15
94 93 14
89 87 11
91 87 14
97 95 18
93 92 18
96 94 18
104 100 8
97 96 24
102 100 20
106 104 21
105 103 25
106 103 26
117 113 23
115 112 26
118 115 33
101 98 24
111 108 22
104 101 16
116 114 28
125 122 39
123 121 37
120 115 45
127 124 29
129 125 34
133 128 43
127 122 40
129 124 30
133 127 37
134 130 35
122 119 35
128 124 35
140 132 45
128 123 42
128 124 34
130 125 40
130 127 35
133 128 37
140 135 45
139 134 45
138 133 44
142 137 41
144 139 43
134 128 44
138 133 43
141 136 42
138 133 48
146 141 49
139 135 44
142 136 46
148 142 47
143 139 34
140 135 44
137 131 42
141 135 44
150 145 54
147 141 51
154 147 51
139 132 44
147 142 39
154 148 52
145 139 49
148 142 51
149 145 47
146 140 52
146 141 53
152 146 52
152 146 51
145 139 48
154 147 54
155 149 57
151 146 52
151 146 56
157 150 65
146 140 51
152 146 56
156 149 54
148 143 51
151 144 56
147 140 56
146 140 57
152 146 58
148 142 53
150 144 56
152 146 51
147 140 44
149 144 54
146 141 45
154 147 49
151 145 52
153 146 57
154 147 57
152 147 51
156 150 61
152 145 59
152 146 56
146 141 48
143 137 51
143 136 51
153 147 56
149 144 47
148 141 59
149 142 60
154 147 57
147 143 53
150 144 57
146 140 53
146 141 48
150 144 52
149 142 56
144 138 52
150 144 53
147 142 51
145 140 59
150 143 63
143 138 51
150 144 59
138 132 53
136 131 49
147 140 60
134 129 48
151 144 66
146 141 60
143 137 60
139 133 52
148 142 61
139 133 49
152 146 61
148 142 61
174 198 0
174 198 0
175 198 0
174 197 0
174 197 0
174 197 0
174 197 0
174 198 0
174 198 0
172 197 0
174 198 0
174 197 0
173 197 0
173 196 0
174 197 0
172 195 0
172 195 0
172 197 0
173 196 0
172 196 0
174 197 0
175 198 0
171 195 0
174 197 0
173 195 0
172 195 0
173 196 0
171 194 0
170 193 0
171 195 0
174 197 0
172 195 0
173 196 0
171 195 0
172 195 0
174 196 0
167 190 0
169 192 0
170 194 0
172 195 0
173 196 0
170 194 0
172 194 0
171 195 0
170 192 0
171 195 0
170 193 0
166 188 0
171 194 0
167 190 0
168 191 0
168 192 0
173 196 0
169 192 0
168 192 0
168 190 0
173 195 0
167 190 0
164 188 0
169 192 0
168 191 0
166 189 0
165 188 0
169 192 0
168 190 0
171 193 0
167 189 0
166 188 0
166 188 25
175 195 25
170 192 25
171 193 25
169 190 25
167 188 36
170 190 25
170 190 0
170 192 0
170 190 25
167 188 36
168 188 36
163 183 25
161 181 0
164 184 25
164 185 0
170 190 25
162 182 0
167 187 36
164 184 36
170 190 44
158 180 0
160 181 25
158 179 0
152 172 0
161 183 0
159 181 0
158 179 0
159 180 0
161 183 0
159 182 0
154 177 0
155 177 0
152 173 0
159 181 0
155 177 0
153 174 0
147 169 0
154 175 0
156 177 0
151 172 0
149 170 0
158 178 0
150 171 0
158 179 0
155 176 0
154 175 0
157 177 0
152 174 0
159 180 0
152 173 0
153 175 0
161 183 0
155 178 0
157 179 0
171 193 0
171 195 0
168 192 0
170 193 0
171 195 0
167 191 0
169 192 0
171 194 0
168 191 0
166 190 0
170 194 0
171 195 0
168 192 0
169 192 0
168 191 0
167 191 0
169 193 0
162 186 0
166 190 0
172 196 0
168 192 0
171 194 0
167 190 0
170 193 0
167 190 0
171 194 0
168 192 0
169 192 0
162 186 0
165 189 0
166 190 0
166 189 0
165 189 0
169 192 0
162 186 18
67 96 78
53 85 88
54 86 97
56 88 95
56 88 100
54 86 103
55 87 99
54 86 86
56 89 105
54 85 95
56 88 100
56 89 102
56 88 97
56 90 97
55 87 108
56 88 100
56 89 108
54 86 99
57 90 121
57 90 120
55 88 100
56 89 99
56 88 105
56 88 100
57 90 105
56 88 100
57 90 113
57 90 111
56 89 107
55 88 108
56 90 100
53 85 99
58 92 121
54 86 99
55 88 103
56 88 107
56 89 111
57 90 115
57 90 105
56 89 111
55 88 114
55 86 100
57 91 113
57 89 115
54 86 97
54 86 110
55 87 95
56 88 102
54 86 95
56 88 110
54 85 102
57 90 113
54 85 99
56 89 111
55 87 105
55 87 108
54 86 95
55 87 105
54 84 100
54 85 101
54 85 94
55 87 95
56 88 110
56 87 103
56 87 110
54 85 101
51 81 79
55 86 101
54 85 107
54 86 107
53 83 94
52 81 102
55 86 96
53 83 87
53 84 99
50 79 77
53 83 86
49 77 75
51 80 93
49 76 92
48 74 85
52 80 93
49 76 73
67 88 64
156 178 18
163 184 0
161 182 0
166 189 0
166 187 0
164 186 0
165 186 0
160 181 0
163 185 0
165 187 0
166 188 0
164 184 0
165 186 0
165 187 0
162 183 0
166 186 0
166 186 0
160 180 0
162 183 0
161 180 19
100 98 37
84 80 16
84 83 20
87 85 20
82 80 3
85 82 12
71 70 14
86 85 19
81 79 18
68 69 12
83 82 16
82 81 8
96 94 19
96 94 12
91 89 5
96 94 16
99 97 23
107 104 19
98 97 24
104 102 21
109 105 18
102 101 16
106 104 26
105 104 24
107 104 28
105 102 29
109 107 24
107 106 14
110 108 24
117 114 29
114 111 31
129 126 29
129 125 38
120 115 30
127 123 35
123 120 29
128 124 33
126 122 35
127 124 36
126 122 38
130 126 28
134 130 34
135 129 30
127 122 33
132 128 36
132 127 38
134 130 27
138 134 37
135 131 38
136 131 33
137 132 26
140 135 34
139 134 36
137 133 38
139 134 41
143 138 40
144 139 49
146 141 48
144 138 37
141 136 41
133 129 39
136 132 36
149 145 45
145 140 44
136 132 34
141 136 39
151 144 58
149 144 44
146 141 45
150 144 51
148 142 49
144 138 44
150 144 47
148 142 51
145 140 47
143 137 49
148 143 48
150 145 52
147 142 41
146 140 41
149 142 47
151 144 53
144 139 49
146 140 47
150 144 51
148 142 53
150 145 51
147 142 49
147 140 51
156 148 60
147 142 44
152 145 48
145 141 44
147 142 49
148 142 51
151 144 58
148 142 56
145 139 48
144 138 41
137 132 47
149 144 42
143 137 57
142 137 39
148 141 51
150 143 54
147 142 48
151 145 48
144 138 52
155 148 60
150 144 53
148 141 53
148 142 52
144 138 59
146 140 49
143 137 52
147 142 57
147 142 57
144 139 51
151 145 53
149 143 61
148 142 59
150 145 53
146 140 51
152 144 61
139 134 49
144 138 53
147 142 49
140 134 51
149 142 58
146 140 59
140 136 44
145 140 53
145 139 51
149 143 61
138 133 44
139 134 57
141 134 52
143 137 59
175 198 0
173 197 0
175 198 0
173 197 0
174 198 0
173 196 0
175 198 0
174 198 0
175 198 0
175 198 0
172 197 0
175 198 0
175 198 0
173 197 0
173 196 0
174 198 0
175 198 0
173 197 0
173 197 0
172 196 0
171 195 0
173 196 0
172 196 0
172 195 0
173 196 0
173 196 0
171 195 0
172 196 0
171 195 0
172 195 0
171 194 0
170 194 0
172 195 0
169 192 0
174 196 0
172 195 0
171 194 0
172 194 0
172 194 0
171 194 0
172 195 0
169 192 0
171 194 0
169 192 0
169 193 0
169 193 0
171 194 0
168 191 0
170 193 0
169 191 0
170 192 0
168 190 0
169 191 0
169 191 0
170 192 0
168 190 0
167 190 0
170 193 0
166 188 0
169 192 0
167 191 0
165 187 0
167 190 0
165 188 0
164 186 0
169 192 0
164 186 0
169 191 0
167 190 0
166 189 0
165 188 0
168 190 0
161 184 0
166 187 0
174 195 25
167 189 0
167 189 0
164 185 36
167 188 0
166 187 36
165 187 36
164 186 25
163 185 25
164 185 0
161 183 0
160 180 25
164 186 0
159 181 0
161 183 0
152 173 0
162 184 0
167 189 0
154 176 0
158 180 0
158 179 0
156 178 0
162 184 0
151 173 0
161 183 0
149 169 0
152 174 0
152 174 0
154 176 0
161 182 0
160 182 0
151 173 0
158 179 0
161 183 0
153 173 0
152 173 0
155 175 0
151 171 0
148 169 0
154 174 0
154 175 0
156 176 0
153 174 0
154 174 0
147 168 0
158 179 0
166 187 0
168 190 0
164 188 0
171 196 0
169 192 0
170 193 0
170 194 0
168 192 0
171 195 0
170 192 0
168 192 0
170 194 0
168 191 0
169 193 0
170 194 0
172 196 0
170 193 0
169 192 0
171 195 0
165 189 0
162 186 0
171 195 0
168 191 0
167 190 0
170 193 0
170 192 0
169 193 0
168 191 0
165 188 0
170 193 0
171 195 0
165 189 0
163 188 0
161 184 0
167 190 0
170 192 0
162 186 0
167 190 0
147 170 40
56 88 80
53 85 90
55 87 107
52 84 88
54 87 95
54 86 102
54 86 107
55 87 99
56 89 111
57 90 102
56 88 99
57 90 114
56 89 102
54 86 103
54 86 102
56 89 88
56 88 95
53 84 88
55 87 90
55 88 97
57 91 107
56 88 100
55 87 102
54 86 88
56 89 100
56 89 111
55 88 105
56 88 95
56 89 107
58 91 111
57 90 107
54 87 97
57 90 108
55 87 97
59 92 111
55 87 103
56 89 102
55 87 100
55 88 97
54 86 97
55 87 103
54 86 100
57 89 105
54 85 92
57 89 118
57 90 115
55 87 102
56 89 107
57 90 113
53 84 95
55 87 88
54 85 84
56 88 100
55 86 108
56 88 99
54 85 96
56 89 104
55 88 102
54 85 99
54 85 108
57 90 110
52 82 88
54 85 97
54 86 83
53 83 99
53 84 99
52 83 92
53 84 101
53 82 94
52 82 96
50 79 95
53 83 98
52 81 99
53 82 106
49 77 89
49 76 79
52 81 80
50 77 81
50 77 83
50 78 82
46 71 82
49 75 69
145 166 25
154 177 0
163 185 0
159 181 0
157 178 0
161 182 0
162 184 0
159 179 0
162 183 0
162 184 0
161 183 0
159 181 0
162 182 0
161 181 0
163 185 0
167 189 0
161 182 0
164 185 0
169 190 0
163 184 0
164 185 0
146 163 0
88 86 34
90 86 34
91 88 14
87 85 16
82 82 11
83 79 14
77 76 8
65 65 8
82 80 0
76 75 0
90 88 24
87 84 13
83 80 14
94 91 14
95 91 21
103 99 16
96 96 17
90 89 12
102 101 14
92 91 21
104 102 16
108 105 18
101 98 18
113 109 25
114 112 32
100 97 8
118 115 29
113 109 31
123 119 28
123 120 30
121 116 27
128 123 26
114 110 27
113 109 21
131 127 26
121 117 30
125 120 34
128 124 35
128 124 32
127 122 34
128 122 32
127 122 37
119 116 22
135 130 42
134 129 39
131 127 30
133 128 28
136 131 28
135 130 42
144 137 47
136 130 36
132 126 35
137 133 36
138 133 37
137 132 36
137 133 36
136 132 37
140 135 39
142 135 47
136 131 36
145 140 52
141 136 42
151 145 47
140 135 42
144 138 42
141 137 34
146 139 42
142 136 39
148 143 51
148 141 49
138 133 41
149 144 48
148 142 47
147 139 45
149 144 48
142 138 36
140 136 36
145 139 48
146 141 44
146 141 41
140 134 39
148 143 49
150 144 48
152 146 51
152 146 51
151 144 52
142 136 42
155 148 58
144 138 45
152 145 58
148 141 49
149 144 45
147 141 51
149 143 53
146 140 56
140 135 49
155 149 58
148 142 58
154 148 54
159 152 58
146 140 48
154 148 49
150 143 56
152 146 58
151 145 49
150 143 52
153 147 58
150 145 53
157 150 64
151 146 56
144 138 49
152 146 58
143 138 47
142 136 49
145 140 48
150 144 52
143 137 52
144 138 54
146 141 49
144 137 51
147 141 61
145 139 54
147 141 53
138 132 53
140 136 49
151 144 60
139 133 56
146 140 52
147 141 53
138 133 56
146 140 49
136 131 51
145 139 56
146 140 62
144 139 48
149 142 57
137 131 52
174 198 0
175 198 0
174 197 0
173 197 0
173 197 0
175 198 0
172 196 0
176 198 0
174 197 0
174 198 0
175 198 0
173 197 0
174 198 0
173 197 0
174 198 0
173 197 0
172 196 0
173 197 0
173 197 0
175 198 0
175 198 0
173 196 0
173 196 0
173 197 0
173 196 0
172 195 0
171 194 0
173 196 0
173 196 0
170 194 0
172 195 0
172 196 0
174 196 0
171 195 0
175 197 0
168 192 0
170 194 0
170 193 0
171 195 0
172 195 0
173 196 0
172 195 0
171 194 0
166 189 0
168 191 0
168 190 0
169 192 0
169 192 0
171 194 0
167 190 0
169 193 0
171 194 0
171 194 0
169 191 0
169 192 0
171 193 0
164 186 0
166 188 0
171 193 0
170 193 0
170 192 0
168 191 0
170 192 0
167 189 0
167 189 0
168 190 0
166 189 0
164 188 0
165 187 0
163 185 0
161 183 0
161 184 0
164 187 0
166 187 0
161 184 0
165 187 0
162 185 0
163 184 0
160 182 0
161 184 0
164 186 0
166 188 0
161 182 0
159 180 0
164 185 0
162 184 0
156 177 0
162 183 0
158 180 0
166 188 0
161 183 0
159 181 0
160 181 0
148 168 0
151 174 0
157 178 0
151 173 0
159 181 0
156 176 0
155 176 0
156 177 0
150 171 0
159 181 0
150 171 0
155 174 0
160 181 0
149 170 0
150 171 0
154 174 0
151 173 0
157 177 0
157 178 0
145 166 0
157 178 0
151 173 0
153 174 0
159 180 0
155 175 0
160 181 0
157 178 0
163 185 0
171 194 0
172 195 0
171 194 0
171 195 0
170 193 0
171 194 0
167 190 0
170 192 0
169 193 0
169 192 0
169 193 0
169 193 0
166 190 0
167 191 0
169 192 0
167 190 0
164 188 0
167 190 0
169 192 0
169 192 0
165 189 0
169 192 0
160 184 0
168 192 0
166 188 0
170 192 0
162 186 0
164 188 0
161 185 0
167 191 0
167 190 0
167 190 0
164 188 0
166 189 0
166 190 0
162 185 0
160 185 0
165 188 0
125 149 60
53 84 78
54 86 78
55 87 86
52 83 88
52 83 82
54 87 86
56 88 94
56 88 102
54 86 95
55 87 105
56 89 100
56 88 111
55 88 99
56 89 105
57 89 107
56 89 94
57 90 100
55 87 94
55 88 97
57 90 97
55 87 102
56 89 103
57 90 103
55 87 102
56 88 113
56 87 108
56 88 110
55 87 97
53 85 97
58 90 118
55 87 95
56 88 99
54 86 102
56 89 108
58 92 105
56 89 107
56 88 113
56 89 113
55 87 105
54 86 100
55 87 99
56 88 95
56 88 114
56 90 111
54 86 100
57 90 113
57 89 108
53 85 90
56 89 103
57 90 113
55 87 96
57 90 107
56 88 108
54 86 105
54 86 89
53 83 96
55 86 95
54 85 89
54 85 94
57 90 106
54 85 94
52 83 84
54 84 96
55 86 104
52 82 90
54 85 107
51 81 88
55 85 96
54 84 92
50 80 89
54 85 106
51 79 79
53 83 101
50 78 89
48 75 80
51 79 96
50 78 89
50 77 95
50 77 91
44 68 66
125 145 45
155 175 0
157 178 0
161 181 0
161 181 0
160 182 0
157 177 0
154 174 0
159 180 0
157 177 0
157 178 0
157 176 0
156 177 0
162 182 0
158 179 0
158 179 0
154 174 0
159 180 0
163 185 0
160 179 0
165 185 0
166 186 0
161 179 0
137 152 16
81 80 22
98 93 22
97 94 28
86 83 16
81 76 8
82 78 18
95 92 16
82 81 18
78 76 18
89 85 14
91 89 14
95 93 14
88 85 12
81 80 16
98 96 18
90 89 14
97 95 14
100 97 21
102 99 18
97 95 16
110 108 18
104 103 18
104 103 16
108 105 21
109 106 22
111 106 24
120 116 24
123 118 26
118 114 26
116 112 28
116 113 31
126 121 19
117 113 24
115 112 19
122 118 32
130 125 37
125 121 32
129 124 30
126 122 28
129 125 30
121 117 34
121 118 29
136 133 32
129 125 39
135 130 34
129 124 36
139 135 43
135 130 39
134 130 30
134 129 34
140 135 37
137 132 37
141 137 28
136 130 36
130 126 11
136 132 34
131 127 30
144 139 45
140 134 41
138 133 39
137 133 37
137 130 48
144 137 42
147 141 41
143 138 41
140 133 48
148 142 52
143 137 44
142 137 47
141 134 48
150 142 47
142 137 41
154 147 57
146 138 49
147 140 49
148 143 42
144 137 47
146 139 39
150 142 48
146 142 47
147 141 49
149 141 51
145 139 45
146 140 51
145 140 47
149 143 49
146 141 48
150 144 57
143 138 45
150 143 45
147 140 49
149 142 52
152 147 57
141 135 37
144 138 45
147 141 52
144 138 45
146 140 47
152 145 58
152 145 53
140 134 48
147 140 49
152 146 54
148 140 53
143 136 56
146 139 47
145 139 53
156 149 63
143 138 49
148 142 51
143 138 56
149 142 52
142 137 52
141 136 51
150 144 60
144 138 52
140 135 51
140 134 51
136 130 51
148 141 60
139 131 52
134 129 45
140 133 51
147 141 57
140 135 51
144 138 47
146 140 53
143 137 58
144 138 53
143 136 54
150 143 56
134 127 41
141 135 56
143 136 58
145 139 56
138 131 56
174 197 0
174 197 0
176 198 0
175 198 0
175 198 0
172 196 0
174 198 0
173 197 0
173 197 0
174 198 0
173 197 0
173 197 0
174 197 0
174 198 0
173 197 0
175 198 0
173 196 0
175 198 0
175 198 0
171 195 0
175 198 0
172 196 0
174 197 0
172 195 0
173 196 0
173 197 0
173 196 0
173 197 0
173 196 0
172 195 0
171 194 0
170 193 0
175 198 0
171 193 0
172 195 0
175 197 0
173 196 0
168 191 0
168 191 0
171 194 0
169 193 0
170 193 0
174 197 0
168 192 0
170 194 0
174 196 0
170 192 0
170 193 0
165 189 0
171 193 0
168 191 0
166 188 0
168 191 0
167 190 0
170 193 0
165 188 0
163 186 0
165 189 0
166 189 0
168 190 0
166 189 0
167 189 0
169 191 0
166 189 0
170 192 0
171 193 0
165 187 0
169 192 0
162 184 0
165 188 0
160 183 0
166 188 0
171 193 0
162 184 0
166 188 0
163 186 0
164 186 0
163 185 0
159 181 0
162 184 0
162 184 0
169 190 0
166 189 0
160 181 0
159 180 0
163 184 0
166 187 0
161 183 0
163 184 0
160 182 0
161 183 0
157 179 0
155 177 0
160 182 0
165 187 0
161 181 0
156 178 0
161 183 0
162 182 0
158 180 0
158 179 0
158 179 0
157 178 0
157 178 0
156 177 0
147 167 0
153 173 0
149 170 0
147 167 0
154 175 0
151 172 0
152 173 0
159 179 0
161 182 0
160 180 0
154 175 0
158 178 0
158 180 0
159 181 0
163 186 0
172 195 0
169 193 0
168 191 0
170 193 0
169 192 0
168 192 0
165 188 0
166 190 0
170 193 0
169 192 0
170 193 0
167 190 0
167 190 0
168 191 0
169 192 0
169 193 0
166 190 0
161 185 0
165 189 0
167 189 0
167 190 0
167 191 0
168 191 0
162 186 0
164 188 0
169 192 0
167 191 0
169 194 0
163 187 0
161 184 0
165 187 0
164 187 0
165 187 0
164 187 0
160 183 0
157 179 0
159 182 0
156 179 0
164 186 0
162 185 0
104 127 54
55 87 95
53 84 92
54 87 90
53 84 84
54 86 84
55 87 100
56 88 97
57 90 103
56 89 103
55 87 97
53 85 92
55 87 100
54 85 88
55 87 97
56 89 100
55 87 102
56 88 108
55 87 105
54 85 97
55 87 105
56 89 107
57 90 108
56 88 107
53 84 94
56 89 99
54 86 95
55 87 95
54 85 100
55 87 105
54 86 97
55 87 105
54 86 92
56 88 102
57 90 114
55 87 88
53 84 88
54 86 88
53 85 88
55 88 102
54 86 95
55 87 103
53 85 102
56 89 114
55 87 107
56 88 111
56 88 105
56 88 97
57 89 99
57 89 110
54 85 92
55 87 107
55 87 99
52 82 99
54 85 97
55 87 108
53 84 85
56 87 104
53 84 95
55 87 106
54 86 95
52 82 101
54 85 105
54 84 95
52 82 88
52 82 89
51 80 89
52 82 98
55 86 104
51 81 90
51 79 86
53 83 96
51 80 87
52 81 92
52 81 102
51 79 86
49 77 80
50 77 74
47 74 62
100 120 57
149 169 0
152 172 0
162 183 0
159 179 0
157 178 0
154 173 0
155 175 0
155 176 0
153 174 0
158 178 0
156 176 0
157 173 0
164 185 0
157 176 0
154 175 0
156 175 0
161 180 0
163 183 0
158 176 0
156 174 0
157 175 0
158 178 0
165 184 0
164 182 0
145 154 25
84 81 22
85 80 20
90 86 16
78 75 14
100 96 19
80 78 8
95 90 11
78 75 14
83 78 8
90 89 9
91 87 0
89 88 16
95 91 11
94 92 0
96 94 16
104 101 11
99 96 11
97 94 16
97 95 18
109 106 18
111 107 24
107 105 1
105 103 8
115 109 24
122 117 28
113 109 21
117 113 28
116 112 24
111 108 19
119 114 31
116 113 14
124 118 26
126 122 28
119 114 22
126 121 32
120 116 36
128 124 25
127 122 29
125 119 28
132 126 22
129 124 28
121 117 28
131 126 39
133 128 31
119 116 32
130 124 26
138 133 38
122 116 30
134 130 30
135 130 37
135 131 35
141 136 44
139 131 34
136 131 39
137 131 36
141 135 44
145 139 37
144 139 37
136 131 32
132 125 30
156 149 51
140 134 46
147 141 41
141 136 41
144 139 36
143 136 41
144 140 37
146 141 42
144 138 39
148 141 45
143 137 47
149 142 45
142 136 39
139 133 44
136 131 34
146 140 45
141 136 37
142 136 42
146 140 52
148 143 45
149 143 54
146 142 44
147 141 47
136 132 30
143 140 36
143 139 37
147 142 42
148 143 56
147 141 45
149 143 44
145 140 45
150 142 54
148 141 47
143 138 48
143 138 45
142 135 51
145 140 36
152 146 52
146 139 49
148 142 49
152 146 59
136 130 39
146 139 48
139 133 41
147 141 56
148 142 52
150 145 53
146 141 52
143 137 52
151 145 49
145 140 45
150 142 59
144 140 48
135 130 44
139 133 48
147 141 51
140 135 47
151 144 60
142 136 54
147 141 57
147 139 61
144 139 53
150 143 61
139 134 53
138 130 52
143 137 52
145 138 54
138 132 52
137 132 47
147 140 58
140 135 49
142 136 49
141 135 47
133 128 48
141 135 56
174 198 0
173 196 0
173 197 0
176 198 0
174 197 0
173 197 0
172 196 0
172 196 0
176 198 0
175 198 0
175 198 0
173 197 0
173 197 0
175 198 0
175 198 0
175 198 0
172 197 0
174 197 0
174 197 0
174 197 0
174 197 0
174 197 0
172 196 0
171 195 0
176 198 0
172 196 0
171 195 0
173 196 0
171 194 0
168 192 0
174 197 0
174 197 0
173 195 0
170 193 0
174 197 0
173 196 0
173 196 0
172 196 0
169 192 0
169 191 0
170 192 0
168 191 0
171 194 0
171 193 0
175 197 0
170 194 0
172 195 0
173 195 0
172 194 0
171 193 0
169 192 0
165 188 0
170 193 0
170 192 0
167 190 0
168 190 0
163 186 0
172 193 0
164 186 0
172 194 0
173 194 0
171 192 0
167 189 0
165 187 0
169 190 0
160 181 0
166 188 0
169 191 0
166 188 0
169 192 0
161 183 0
167 189 0
166 188 0
162 184 0
162 185 0
162 184 0
170 192 0
162 183 0
165 186 0
157 179 0
166 187 0
165 187 0
160 182 0
169 190 0
162 183 0
159 181 0
156 178 0
168 191 0
162 183 0
162 184 0
164 185 0
161 183 0
150 172 0
164 184 0
160 180 0
160 182 0
155 177 0
156 177 0
157 178 0
159 180 0
158 179 0
159 179 0
155 176 0
149 170 0
156 177 0
153 173 0
161 182 0
156 176 0
156 176 0
153 172 0
151 171 0
153 174 0
162 183 0
153 174 0
156 177 0
157 177 0
162 183 0
164 185 0
172 194 0
169 193 0
170 194 0
168 192 0
169 192 0
168 192 0
170 192 0
168 191 0
167 190 0
164 188 0
167 190 0
169 192 0
171 194 0
168 191 0
169 193 0
164 188 0
166 189 0
167 190 0
166 190 0
166 188 0
168 191 0
165 189 0
171 194 0
169 192 0
163 187 0
161 184 0
165 189 0
173 195 0
157 181 0
164 187 0
160 183 0
165 188 0
166 188 0
157 179 0
163 187 0
156 180 0
158 181 0
162 184 0
158 181 0
154 177 0
157 180 0
158 181 0
150 172 0
96 121 65
54 86 88
53 84 82
52 83 90
56 88 107
53 84 95
55 87 90
55 88 92
54 85 92
53 84 86
55 87 99
55 87 95
55 88 90
57 90 97
54 86 92
56 88 90
55 87 97
53 84 94
55 88 105
54 86 97
53 84 97
56 88 102
53 84 102
56 89 97
54 86 92
54 86 92
56 88 97
54 85 92
53 84 80
57 89 103
54 86 88
55 87 103
54 86 97
54 86 100
56 89 92
57 90 110
53 84 74
54 86 95
55 88 95
55 87 94
53 84 88
53 84 100
56 88 107
54 86 95
55 87 95
55 88 100
55 88 113
54 86 105
55 87 99
53 85 92
55 87 102
56 89 100
54 85 92
53 83 99
53 83 94
54 84 94
54 85 92
55 87 100
53 84 99
53 84 88
52 82 93
53 82 90
52 82 86
53 83 97
54 84 92
53 84 90
51 80 82
53 84 96
51 80 87
51 81 90
49 77 84
53 82 89
52 81 90
50 79 90
51 78 82
48 74 69
50 77 83
75 96 46
154 173 0
157 177 0
154 172 0
155 174 0
153 174 0
158 176 0
152 171 0
149 168 0
158 176 0
151 171 0
154 174 0
157 176 0
156 175 0
160 181 0
154 176 0
156 174 0
152 168 0
164 184 0
162 182 0
155 176 0
158 178 0
160 178 0
151 169 0
158 178 0
165 185 0
160 180 0
131 141 19
98 92 22
95 90 25
88 83 25
79 74 21
80 75 19
84 81 21
78 75 0
85 81 14
94 89 14
92 91 11
89 86 8
91 88 8
84 82 3
98 94 16
105 100 11
95 91 14
106 103 8
101 99 11
103 99 21
99 95 16
99 97 18
107 105 19
101 97 12
114 111 14
106 102 16
117 112 22
111 107 25
112 107 19
115 110 25
118 114 30
109 105 24
112 109 24
127 123 28
126 119 29
125 119 25
123 119 24
123 118 29
126 121 30
126 122 28
116 112 21
122 119 26
129 125 25
126 122 34
131 127 28
129 125 19
130 127 19
134 129 38
133 130 29
133 128 37
133 129 30
137 132 25
127 122 40
137 131 37
138 133 36
139 134 34
136 133 32
140 135 41
140 134 41
147 142 45
145 140 46
140 135 37
145 139 49
139 133 30
144 138 49
145 140 47
143 138 44
146 140 42
148 142 39
146 139 36
153 147 51
145 140 37
139 135 37
141 135 52
148 141 51
142 137 34
145 139 44
150 143 51
147 142 42
141 134 28
141 136 30
149 143 49
142 136 41
147 141 48
145 139 51
143 139 41
141 135 39
148 143 34
143 137 44
147 142 45
146 140 52
150 143 52
146 141 42
152 146 53
144 137 44
144 138 49
151 143 58
144 137 53
142 136 49
144 138 56
149 142 58
148 142 56
142 138 48
149 142 48
146 140 47
140 134 44
139 134 36
151 145 60
146 140 44
149 144 51
146 140 56
147 141 47
143 137 47
143 139 51
143 138 56
151 144 49
144 138 51
146 140 51
144 137 52
141 134 53
147 141 51
143 136 48
135 130 44
146 139 53
140 136 53
146 140 56
141 136 53
145 138 56
141 135 56
142 137 47
133 128 52
138 132 45
136 130 47
148 142 57
142 136 58
175 198 0
174 197 0
173 197 0
173 197 0
174 197 0
174 197 0
174 197 0
175 198 0
172 196 0
175 198 0
174 197 0
174 198 0
174 198 0
174 197 0
174 198 0
174 198 0
173 197 0
173 197 0
173 197 0
171 194 0
176 198 0
174 198 0
173 196 0
174 197 0
170 193 0
172 195 0
175 198 0
173 196 0
172 195 0
170 193 0
174 197 0
171 195 0
173 197 0
173 197 0
170 193 0
173 195 0
169 192 0
167 190 0
175 198 0
172 194 0
175 197 0
170 193 0
174 197 0
169 192 0
172 195 0
173 195 0
170 193 0
171 194 0
173 196 0
169 191 0
172 194 0
167 190 0
169 192 0
172 193 0
170 193 0
168 190 0
167 188 0
171 193 0
170 192 0
167 189 0
167 189 0
169 191 0
170 192 0
169 191 0
168 190 0
169 192 0
163 185 0
167 188 0
168 190 0
168 189 0
162 184 0
166 189 0
163 186 0
165 187 0
160 182 0
169 191 0
156 177 0
161 182 0
158 179 0
167 188 0
168 190 0
158 180 0
165 186 0
163 185 0
157 178 0
161 181 0
158 180 0
160 182 0
165 186 0
161 183 0
160 181 0
163 185 0
159 180 0
164 184 0
157 177 0
156 177 0
161 181 0
154 174 0
161 181 0
157 178 0
151 172 0
158 178 0
153 174 0
156 176 0
157 177 0
154 174 0
155 176 0
153 173 0
157 177 0
158 179 0
162 183 0
153 174 0
149 169 0
156 176 0
160 181 0
161 182 0
167 188 0
167 191 0
170 192 0
169 191 0
169 193 0
170 194 0
168 192 0
167 190 0
169 193 0
170 193 0
162 185 0
167 191 0
172 194 0
169 193 0
167 190 0
164 187 0
166 189 0
165 189 0
165 188 0
166 188 0
166 189 0
166 189 0
167 190 0
169 192 0
165 188 0
158 182 0
163 186 0
166 189 0
162 186 0
160 183 0
162 186 0
162 185 0
156 179 0
157 180 0
157 180 0
161 184 0
154 179 0
162 184 0
148 172 0
157 179 0
163 186 0
158 180 0
159 181 0
153 176 0
155 178 0
149 172 0
91 116 86
51 83 80
54 86 90
54 86 92
53 85 82
53 85 80
54 85 99
51 82 80
55 87 105
51 82 76
53 84 88
53 85 97
54 85 92
54 85 94
55 87 103
53 84 95
56 88 110
52 83 78
52 83 97
56 88 111
54 85 100
55 88 97
55 87 97
55 87 99
56 89 102
56 89 97
56 89 99
52 83 92
56 88 111
55 87 99
54 86 99
57 91 102
56 88 105
52 83 90
54 86 103
55 87 102
56 89 110
54 85 100
56 88 97
56 89 105
52 83 80
54 86 97
54 85 92
56 88 107
56 88 111
54 86 99
56 89 104
54 85 107
55 87 100
52 84 78
50 80 88
54 85 99
52 83 76
55 86 110
53 84 85
55 86 95
55 86 107
54 85 97
53 83 97
54 84 89
52 82 80
52 81 85
55 85 101
51 80 97
53 84 94
48 75 72
51 81 94
51 80 89
52 81 84
52 83 85
50 78 80
49 78 66
49 77 85
44 69 61
49 75 85
72 92 56
149 169 0
143 162 0
145 164 0
150 169 0
150 170 0
150 169 0
153 170 0
148 167 0
155 173 0
149 167 0
150 170 0
149 166 0
156 175 0
152 170 0
147 165 0
150 169 0
156 175 0
155 176 0
155 174 0
161 179 0
152 169 0
157 177 0
157 176 0
157 176 0
156 172 0
155 173 0
162 180 0
153 169 0
127 138 16
92 87 28
83 79 25
86 84 19
82 78 12
84 80 1
91 88 22
97 92 14
84 81 11
84 81 16
89 85 0
81 77 3
88 85 12
92 89 16
91 88 8
98 93 0
101 97 0
101 97 8
99 96 14
105 102 14
92 89 12
111 107 16
106 103 16
120 114 21
108 104 26
117 113 16
120 117 16
118 114 19
109 106 19
119 115 24
115 109 21
124 118 29
121 117 25
123 121 24
119 115 22
120 116 31
121 116 31
123 119 8
126 121 24
124 120 28
127 122 24
128 123 31
131 126 37
127 124 22
132 126 33
129 124 29
125 121 36
126 120 30
133 127 35
124 121 24
125 121 22
129 124 22
140 135 34
136 130 32
141 134 39
133 129 28
130 126 25
139 132 28
136 130 28
138 133 34
141 136 36
142 137 41
149 143 47
140 134 39
139 133 39
132 127 32
143 137 39
137 133 34
147 141 48
140 135 41
129 123 36
140 136 39
137 132 37
134 129 32
140 135 36
141 136 37
141 136 42
145 139 42
142 137 44
146 140 39
141 136 41
151 145 51
146 140 44
144 139 49
149 143 51
145 140 44
140 134 41
143 136 49
148 142 51
144 139 45
149 143 48
150 144 53
147 141 47
145 138 49
143 137 49
141 134 36
140 134 54
146 140 48
149 143 48
147 141 45
143 137 37
145 138 53
145 139 51
152 144 53
149 142 56
144 139 49
139 133 45
140 134 47
147 140 51
145 140 51
137 134 39
142 136 53
147 141 49
142 135 54
137 131 53
151 144 56
147 139 58
146 140 51
153 147 58
140 133 53
146 140 54
142 135 53
142 136 52
140 135 53
144 137 56
144 137 57
143 136 52
139 134 48
139 133 48
145 139 49
141 135 53
146 139 57
137 133 49
145 139 51
173 197 0
174 198 0
174 197 0
174 198 0
175 198 0
175 198 0
173 197 0
173 197 0
174 198 0
174 197 0
172 196 0
175 198 0
173 197 0
175 198 0
175 198 0
171 195 0
175 198 0
172 195 0
175 198 0
174 197 0
173 196 0
172 195 0
173 196 0
173 196 0
174 197 0
174 197 0
173 197 0
172 195 0
173 196 0
171 194 0
170 194 0
174 197 0
175 198 0
172 195 0
172 195 0
171 194 0
171 194 0
172 195 0
170 193 0
172 195 0
173 196 0
167 190 0
172 194 0
171 194 0
170 192 0
171 194 0
171 194 0
169 192 0
173 195 0
168 191 0
174 195 0
173 195 0
176 196 0
170 192 0
171 194 0
168 191 0
170 193 0
169 192 0
166 188 0
169 191 0
165 187 0
167 189 0
165 187 0
166 188 0
170 191 0
172 193 0
170 193 0
168 191 0
166 188 0
162 183 0
169 190 0
166 188 0
168 189 0
165 186 0
165 186 0
160 181 0
169 191 0
161 182 0
169 191 0
159 180 0
160 181 0
162 183 0
166 188 0
161 183 0
157 178 0
161 183 0
161 182 0
160 181 0
161 181 0
161 184 0
158 179 0
166 186 0
160 180 0
163 183 0
162 183 0
156 177 0
149 169 0
162 182 0
154 174 0
148 169 0
151 172 0
147 168 0
155 175 0
157 177 0
158 179 0
156 176 0
156 176 0
152 171 0
161 180 0
160 179 0
155 175 0
160 180 0
156 177 0
160 180 0
157 180 0
171 193 0
169 191 0
162 186 0
169 193 0
169 193 0
166 190 0
162 185 0
169 193 0
169 192 0
164 187 0
160 183 0
161 185 0
165 188 0
166 190 0
170 193 0
165 187 0
168 190 0
166 189 0
162 185 0
162 185 0
164 188 0
167 190 0
164 188 0
167 191 0
165 188 0
162 184 0
168 190 0
161 184 0
165 187 0
166 189 0
161 184 0
162 184 0
155 178 0
157 181 0
158 181 0
155 178 0
161 184 0
158 181 0
156 180 0
155 178 0
154 176 0
155 179 0
161 184 0
158 180 0
162 184 0
147 169 0
161 183 0
140 163 18
82 108 70
53 84 76
54 86 88
52 82 80
53 85 82
54 86 86
54 86 90
52 82 86
55 88 95
53 85 92
52 82 92
53 85 78
55 87 92
54 85 84
53 83 94
53 85 90
52 84 99
54 85 92
53 85 90
54 87 90
54 85 108
55 88 107
53 84 99
53 85 92
55 87 107
54 86 103
57 90 103
53 85 82
55 87 95
53 85 86
55 87 95
56 89 102
54 86 90
54 85 90
55 88 100
56 88 102
55 86 110
53 85 95
56 89 105
54 85 102
52 83 84
54 86 108
52 82 84
55 88 102
53 84 92
56 88 102
55 86 100
52 83 90
52 82 98
54 85 97
52 83 89
53 84 101
53 83 90
51 81 85
52 83 89
54 86 99
51 81 87
51 80 86
54 86 100
53 82 100
51 81 92
53 83 99
51 80 102
53 83 96
50 78 79
54 86 94
47 73 74
50 79 78
51 80 97
50 78 82
49 76 73
44 69 57
46 71 71
79 98 64
145 163 18
143 162 0
146 165 0
149 167 0
147 165 0
145 163 0
149 167 0
145 162 0
142 161 0
146 165 0
152 171 0
153 173 0
147 166 0
151 168 0
153 171 0
152 170 0
147 164 0
149 168 0
150 168 0
151 169 0
145 161 0
153 169 0
156 173 0
157 174 0
159 178 0
159 177 0
153 169 0
152 169 0
156 174 0
152 167 0
124 132 19
104 99 36
90 86 22
90 85 29
78 73 11
82 77 19
88 84 11
90 86 16
92 88 14
81 78 0
91 86 16
89 87 8
91 87 11
96 93 14
96 93 11
91 88 8
98 96 0
101 97 11
109 105 12
95 93 14
112 108 3
100 97 8
115 110 21
116 110 18
118 114 18
112 107 12
108 103 11
110 106 22
119 113 19
115 112 19
113 109 19
121 117 8
120 116 21
111 106 19
115 111 24
121 118 19
121 116 28
130 124 22
129 125 25
116 110 19
134 129 32
127 121 24
132 127 29
129 124 25
130 125 29
118 113 22
128 123 36
125 121 25
132 129 25
129 125 30
131 125 35
134 128 34
132 125 28
137 132 35
146 140 41
132 126 32
134 129 30
142 135 34
137 130 36
135 130 25
135 128 28
142 135 41
145 139 41
143 136 39
140 135 39
147 141 37
151 144 42
140 134 37
135 130 39
137 131 39
142 136 45
137 132 37
145 139 36
150 145 39
144 137 45
139 132 42
141 136 32
149 144 41
142 135 41
143 137 42
141 136 41
141 135 42
143 136 41
141 135 41
143 137 41
136 132 39
150 143 52
144 138 47
144 137 48
140 135 42
144 138 44
144 138 45
141 136 45
145 138 52
141 136 44
145 140 42
141 135 47
147 141 45
141 134 42
149 142 54
141 134 48
145 140 53
142 136 42
145 139 51
148 139 58
132 126 42
146 139 45
150 143 49
150 142 56
147 140 52
143 135 48
137 132 48
148 141 56
144 138 51
148 142 56
143 136 51
138 133 41
136 131 45
142 136 49
142 135 51
139 132 45
147 139 56
145 139 48
143 135 54
144 137 60
137 132 44
141 135 48
146 141 56
140 133 51
134 129 44
139 132 57
146 140 58
136 131 47
173 197 0
176 199 0
174 198 0
174 198 0
177 199 0
177 199 0
176 198 0
176 198 0
175 198 0
175 198 0
173 197 0
172 197 0
174 198 0
174 197 0
175 198 0
173 197 0
173 196 0
174 198 0
174 198 0
172 196 0
172 196 0
172 196 0
173 197 0
174 197 0
173 196 0
176 198 0
175 198 0
171 195 0
172 195 0
173 197 0
172 195 0
171 194 0
170 192 0
172 195 0
173 196 0
174 196 0
172 194 0
173 196 0
173 195 0
173 196 0
174 197 0
172 195 0
170 192 0
173 196 0
173 196 0
170 193 0
169 191 0
172 194 0
171 193 0
171 192 0
171 194 0
167 189 0
170 192 0
171 193 0
169 191 0
171 192 0
171 193 0
169 191 0
171 193 0
169 192 0
168 191 0
162 183 0
162 184 0
167 189 0
169 190 0
164 185 0
172 194 0
165 187 0
167 189 0
169 191 0
157 178 0
163 185 0
164 185 0
165 187 0
160 182 0
165 186 0
164 185 0
164 185 0
166 188 0
166 187 0
166 187 0
162 184 0
158 179 0
162 182 0
160 181 0
161 181 0
158 179 0
162 183 0
160 181 0
163 182 0
164 185 0
159 180 0
156 177 0
161 182 0
163 184 0
157 178 0
157 177 0
156 175 0
156 176 0
148 168 0
158 178 0
163 183 0
153 173 0
153 174 0
151 171 0
150 170 0
158 179 0
148 168 0
154 174 0
158 178 0
158 179 0
158 178 0
160 181 0
164 185 0
160 183 0
169 192 0
166 189 0
168 190 0
164 188 0
170 193 0
169 192 0
165 189 0
166 190 0
165 188 0
165 187 0
167 190 0
168 191 0
170 193 0
165 187 0
169 192 0
164 188 0
162 185 0
160 184 0
164 186 0
161 184 0
163 186 0
167 190 0
164 188 0
166 188 0
164 186 0
159 182 0
164 187 0
162 185 0
148 172 0
161 184 0
153 175 0
155 177 0
155 178 0
158 181 0
158 180 0
160 182 0
163 186 0
158 182 0
162 184 0
151 173 0
160 183 0
157 179 0
161 183 0
152 174 0
149 172 0
161 183 0
150 173 0
146 168 0
151 173 18
81 106 62
51 81 74
52 84 78
55 86 99
51 82 78
53 84 78
53 84 92
52 83 80
56 88 103
54 86 74
54 87 90
55 86 92
54 86 90
58 91 110
54 86 90
54 86 86
52 83 84
54 85 97
54 86 88
53 84 88
53 84 94
52 83 95
53 85 92
54 86 88
56 89 110
52 83 94
52 84 84
54 85 103
54 86 92
52 83 90
54 85 90
52 84 90
55 87 92
54 86 86
54 86 99
56 89 103
54 85 95
53 84 78
54 85 102
53 84 84
53 84 97
53 83 92
54 85 103
50 81 80
57 90 108
54 86 95
54 85 99
54 86 110
55 87 107
52 82 85
50 79 87
53 83 94
52 83 84
51 81 71
53 84 99
52 81 97
53 84 94
50 79 78
51 80 79
52 83 94
50 79 79
53 84 91
50 80 95
50 78 83
53 83 86
52 81 84
51 81 81
49 76 82
49 77 81
47 72 80
47 74 72
77 96 48
127 143 0
142 161 0
138 156 0
149 167 0
138 155 0
151 170 0
139 157 0
139 156 0
143 162 0
141 161 0
143 162 0
150 166 0
143 159 0
150 167 0
141 157 0
147 164 0
143 157 0
149 166 0
155 171 0
151 167 0
144 160 0
142 158 0
149 166 0
156 172 0
151 167 0
151 168 0
151 168 0
150 166 0
150 164 0
154 170 0
155 171 0
149 164 0
131 141 19
89 83 26
78 73 24
84 80 19
93 89 24
95 89 18
98 93 16
79 76 18
77 74 8
93 88 8
98 94 14
93 88 11
96 92 0
105 99 2
93 90 14
102 98 11
104 102 0
95 92 0
97 95 14
105 102 0
104 101 8
102 97 16
110 108 11
105 99 14
105 101 16
110 106 0
113 110 16
122 117 23
119 114 21
123 116 22
111 107 11
119 114 18
118 112 24
109 105 0
117 115 22
113 109 14
121 117 23
122 118 0
121 116 21
128 122 16
125 120 14
126 124 25
127 123 29
129 124 16
116 112 11
130 125 28
137 132 21
130 126 16
130 125 37
141 136 31
135 129 34
135 130 36
137 132 34
133 128 34
129 125 32
137 133 39
144 137 42
138 133 41
134 129 32
139 134 41
130 125 30
138 132 37
142 135 37
135 130 30
129 124 28
136 131 19
140 134 37
143 138 34
132 126 32
134 129 30
144 138 39
143 137 41
130 125 28
135 130 30
137 133 32
145 139 44
133 128 28
142 136 41
137 131 45
140 135 49
144 138 39
135 132 32
143 137 52
146 139 42
138 131 37
142 135 47
147 140 42
135 129 36
140 134 41
143 137 48
139 134 44
140 134 39
140 135 36
142 135 51
144 138 36
139 133 42
144 138 48
137 132 42
144 138 42
142 136 42
144 137 53
136 131 42
145 139 49
149 143 52
140 135 51
140 133 42
145 138 49
132 127 41
139 132 48
146 141 52
137 132 44
149 143 52
140 133 52
136 131 53
145 140 47
145 139 54
135 130 37
137 131 48
139 133 41
134 128 47
140 135 53
139 134 51
139 132 53
141 135 51
134 129 44
130 126 47
134 129 41
140 135 56
137 131 45
139 134 48
143 135 61
141 135 59
174 197 0
173 197 0
172 196 0
173 197 0
175 198 0
174 198 0
173 197 0
173 197 0
174 197 0
173 197 0
175 198 0
173 197 0
174 198 0
174 198 0
173 197 0
175 198 0
174 197 0
174 197 0
175 198 0
175 198 0
173 196 0
174 197 0
173 196 0
173 196 0
173 196 0
172 195 0
172 195 0
173 196 0
171 195 0
172 196 0
173 196 0
174 196 0
173 195 0
170 193 0
173 195 0
172 195 0
176 198 0
171 193 0
172 195 0
169 193 0
171 194 0
169 192 0
173 195 0
175 196 0
170 193 0
170 194 0
176 197 0
167 189 0
168 191 0
174 196 0
173 195 0
169 191 0
170 192 0
173 195 0
172 193 0
170 192 0
170 193 0
169 191 0
169 191 0
174 196 0
169 191 0
167 189 0
169 190 0
167 189 0
168 190 0
166 188 0
169 191 0
161 182 0
167 189 0
166 187 0
165 187 0
164 185 0
171 192 0
163 184 0
168 190 0
162 183 0
166 187 0
170 191 0
164 185 0
169 189 0
154 175 0
166 188 0
159 180 0
164 184 0
164 184 0
161 181 0
161 183 0
163 184 0
159 179 0
154 174 0
163 183 0
157 179 0
163 183 0
161 181 0
165 185 0
162 183 0
158 177 0
156 177 0
160 181 0
157 177 0
164 183 0
157 177 0
160 181 0
152 172 0
152 172 0
156 176 0
163 182 0
158 178 0
158 178 0
160 180 0
160 180 0
161 182 0
168 191 0
168 191 0
172 194 0
170 192 0
169 191 0
166 189 0
170 193 0
165 188 0
167 190 0
170 193 0
163 186 0
166 188 0
167 190 0
168 190 0
164 186 0
167 190 0
163 186 0
162 184 0
160 183 0
166 188 0
158 181 0
160 182 0
163 186 0
159 182 0
166 189 0
169 192 0
163 185 0
163 185 0
155 178 0
164 187 0
163 187 0
156 179 0
154 176 0
157 180 0
155 178 0
163 185 0
158 180 0
154 176 0
151 174 0
159 181 0
156 178 0
161 183 0
146 169 0
155 176 0
151 173 0
160 182 0
147 169 0
158 181 0
153 175 0
156 177 0
141 162 0
149 171 0
151 172 25
80 104 60
51 81 65
50 80 67
51 80 90
53 85 67
51 82 80
52 82 78
53 84 99
54 85 92
55 88 95
53 84 102
54 86 92
54 86 99
54 86 97
53 84 90
54 85 100
54 86 108
54 86 99
52 83 95
54 86 94
53 85 92
53 84 100
53 85 97
56 88 110
52 83 84
54 86 92
55 87 103
52 84 86
54 86 102
48 76 72
54 86 97
54 86 100
51 81 84
55 86 100
50 79 76
53 85 94
57 90 114
54 85 99
56 88 105
54 86 101
51 80 82
54 85 97
53 83 99
53 83 92
52 82 88
56 88 97
53 84 86
52 82 84
53 83 97
53 84 94
53 84 86
53 84 97
53 84 85
53 84 91
52 83 83
53 83 92
51 82 79
52 82 81
53 83 93
53 83 101
51 80 96
49 77 75
52 82 91
50 79 75
48 76 83
47 74 68
48 75 80
47 72 66
42 67 63
70 89 54
125 140 18
128 145 0
134 151 0
128 145 0
140 158 0
140 158 0
143 161 0
148 164 0
139 155 0
144 163 0
132 148 0
144 160 0
139 155 0
147 165 0
149 163 0
141 157 0
144 161 0
143 160 0
138 154 0
140 155 0
144 160 0
142 158 0
149 164 0
142 155 0
143 159 0
148 162 0
145 160 0
137 152 0
147 160 0
151 167 0
146 161 0
151 167 0
154 169 0
148 162 0
123 132 8
98 93 29
72 69 16
96 92 25
88 82 11
82 77 11
93 88 18
90 85 16
78 75 8
98 94 14
96 91 18
96 93 8
84 79 11
95 90 11
91 88 8
95 92 14
100 97 8
100 99 14
97 94 14
95 92 14
103 98 16
104 99 0
116 112 16
106 99 11
108 104 21
108 104 19
115 111 11
116 113 18
116 112 11
106 102 0
118 113 11
118 115 14
129 122 19
120 115 19
119 114 27
127 121 19
113 109 0
123 117 18
122 116 29
128 123 28
119 113 19
128 124 30
138 131 30
120 115 22
130 127 22
130 125 35
128 123 29
128 122 28
124 119 25
124 120 16
126 121 30
134 128 32
138 132 39
138 134 25
135 129 34
136 132 28
139 134 36
134 130 37
138 134 37
139 132 41
132 128 28
136 131 25
133 128 28
140 133 42
135 131 34
130 126 19
140 134 36
136 130 37
147 140 32
141 135 30
139 134 32
139 133 39
145 138 39
137 131 32
140 134 34
130 127 28
141 135 39
141 137 39
138 132 41
134 130 36
145 139 51
139 135 37
135 129 36
141 134 36
145 139 45
141 135 36
141 136 45
140 134 49
142 136 44
140 134 45
142 137 42
138 132 36
142 135 45
140 133 44
147 140 49
147 140 39
149 142 52
146 138 45
150 144 54
137 130 47
142 136 45
142 137 32
139 134 44
139 134 53
142 136 48
150 142 51
150 143 42
144 136 47
137 132 30
146 140 48
141 133 52
135 130 44
136 132 47
144 137 48
136 130 41
143 135 54
140 133 53
131 125 42
147 141 48
147 139 48
140 134 41
144 136 58
134 127 42
142 136 48
127 122 37
139 133 52
135 131 45
140 132 60
134 129 37
137 131 48
138 133 52
173 197 0
175 198 0
174 197 0
175 198 0
174 197 0
174 197 0
173 197 0
175 198 0
173 197 0
174 198 0
173 197 0
174 198 0
175 198 0
172 196 0
175 198 0
174 198 0
175 198 0
175 198 0
173 197 0
174 198 0
173 197 0
172 196 0
171 196 0
172 195 0
173 196 0
175 198 0
174 197 0
174 197 0
174 197 0
171 194 0
172 196 0
174 198 0
175 197 0
170 194 0
172 195 0
171 194 0
169 192 0
171 194 0
171 193 0
174 197 0
172 195 0
170 193 0
172 195 0
174 196 0
176 198 0
173 196 0
173 194 0
171 193 0
171 194 0
171 192 0
170 193 0
171 192 0
171 194 0
166 187 0
170 190 0
169 191 0
169 191 0
170 191 0
170 191 0
169 190 0
173 194 0
173 195 0
164 185 0
172 193 0
170 191 0
167 188 0
169 189 0
168 190 0
165 188 0
165 186 0
164 185 0
165 187 0
163 184 0
163 183 0
164 186 0
167 188 0
163 183 0
165 186 0
160 181 0
167 187 0
165 186 0
164 185 0
161 181 0
164 184 0
156 176 0
166 186 0
167 187 0
161 182 0
160 180 0
156 176 0
162 182 0
155 175 0
160 180 0
149 169 0
161 181 0
162 183 0
161 181 0
159 179 0
155 176 0
159 179 0
159 180 0
158 178 0
153 172 0
161 180 0
161 181 0
154 175 0
161 181 0
156 175 0
160 180 0
167 188 0
163 185 0
165 188 0
164 187 0
165 188 0
166 188 0
161 184 0
166 189 0
165 189 0
165 188 0
172 194 0
169 191 0
169 193 0
169 191 0
161 184 0
160 181 0
167 190 0
161 184 0
164 187 0
167 189 0
164 186 0
167 190 0
162 185 0
166 189 0
158 181 0
165 187 0
159 181 0
163 185 0
160 183 0
155 178 0
162 184 0
160 183 0
157 180 0
160 183 0
159 181 0
164 187 0
156 178 0
155 176 0
154 176 0
155 177 0
149 171 0
154 177 0
158 180 0
144 166 0
154 176 0
155 177 0
155 178 0
158 180 0
157 180 0
154 175 0
150 172 0
148 170 0
148 170 0
152 174 0
144 166 0
147 168 0
150 171 0
84 108 62
51 81 78
50 80 78
51 81 85
52 82 86
52 83 86
52 83 84
51 82 78
52 83 88
51 81 86
51 82 84
52 83 76
52 83 90
52 82 84
52 83 78
52 83 88
54 86 97
53 84 82
53 84 84
53 85 92
55 87 94
54 85 102
55 87 92
56 89 111
52 82 95
53 84 102
54 86 86
52 83 90
54 86 95
55 87 103
55 88 95
52 83 86
55 87 107
52 83 88
54 85 95
52 82 92
53 84 100
50 80 85
54 86 90
54 86 105
52 82 84
54 86 88
54 85 89
51 82 72
51 80 82
51 81 87
54 85 88
51 81 89
52 82 88
54 85 99
53 84 92
51 81 85
52 82 94
52 82 91
54 85 94
52 83 88
50 79 72
51 79 82
51 81 76
50 79 83
53 84 87
46 73 70
49 77 87
47 73 60
48 75 72
46 72 70
43 68 57
86 104 45
127 145 0
131 148 0
127 142 0
126 143 0
137 153 0
136 152 0
139 156 0
139 157 0
139 156 0
147 164 0
132 148 0
131 148 0
134 151 0
142 157 0
144 159 0
144 160 0
137 151 0
146 164 0
137 153 0
139 155 0
142 157 0
139 156 0
139 155 0
134 146 0
140 155 0
135 152 0
153 169 0
149 165 0
144 158 0
142 156 0
149 164 0
142 154 0
145 159 0
148 163 0
149 165 0
146 160 0
136 143 22
78 72 22
95 88 22
84 80 25
95 90 25
77 73 12
93 89 16
85 81 11
87 83 14
93 91 0
86 83 0
93 89 3
94 89 0
95 90 8
87 83 8
96 91 0
92 90 11
99 94 0
92 89 0
105 98 11
98 94 16
94 89 8
104 101 11
107 103 11
109 106 12
110 104 14
109 105 11
122 118 19
107 103 0
108 105 14
122 117 0
117 113 16
128 123 22
115 112 18
123 117 33
118 113 24
121 115 22
128 121 21
126 122 24
127 121 30
128 122 22
126 120 22
124 120 16
129 123 25
132 126 30
121 116 16
132 126 16
125 123 25
140 134 28
132 126 34
131 127 25
128 125 25
131 125 34
131 127 22
133 128 36
133 127 28
131 128 25
124 120 28
138 132 25
132 126 32
134 129 32
132 127 22
136 131 32
139 133 37
134 129 28
138 133 34
139 133 34
138 132 30
138 133 37
142 135 25
131 125 36
127 121 34
133 129 28
135 129 32
142 136 45
141 134 42
144 138 47
144 137 44
137 132 44
133 127 19
140 132 44
147 140 36
145 140 37
131 126 34
139 133 44
136 131 36
143 138 48
141 135 34
135 129 28
150 144 47
139 132 34
149 143 56
146 138 47
144 139 42
135 131 37
142 135 41
134 128 37
144 139 49
143 135 42
141 135 45
148 142 54
144 139 49
149 143 42
135 130 42
126 121 39
140 133 39
142 136 48
137 130 42
136 131 45
141 136 41
143 137 49
141 134 44
141 135 42
138 132 44
131 126 47
138 132 45
142 136 52
131 125 49
134 128 51
145 137 44
130 126 48
137 132 49
128 122 30
132 126 42
128 121 44
141 134 47
132 127 49
135 129 45
138 131 47
131 125 45
176 198 0
176 198 0
174 198 0
175 198 0
174 198 0
173 197 0
174 197 0
175 198 0
174 197 0
173 197 0
175 198 0
173 196 0
173 196 0
174 197 0
176 198 0
173 197 0
174 197 0
174 197 0
173 197 0
174 197 0
173 197 0
174 198 0
172 196 0
174 198 0
175 198 0
173 196 0
170 193 0
175 198 0
174 197 0
175 198 0
173 195 0
171 195 0
171 195 0
175 198 0
172 195 0
175 198 0
170 192 0
171 194 0
173 195 0
172 194 0
171 193 0
172 194 0
172 195 0
172 194 0
171 193 0
172 194 0
175 196 0
174 196 0
171 193 0
170 191 0
170 192 0
175 195 0
170 191 0
173 194 0
170 191 0
172 194 0
164 186 0
170 191 0
172 194 0
169 191 0
167 188 0
163 185 0
169 190 0
171 194 0
173 194 0
169 190 0
170 192 0
168 189 0
165 186 0
166 187 0
167 189 0
170 190 0
169 189 0
171 192 0
163 184 0
166 186 0
169 189 0
155 176 0
161 182 0
163 183 0
163 183 0
160 180 0
164 185 0
164 184 0
162 182 0
168 189 0
163 184 0
157 177 0
163 183 0
162 183 0
161 181 0
163 183 0
168 188 0
161 180 0
164 184 0
163 183 0
163 182 0
158 178 0
156 175 0
148 168 0
159 179 0
160 179 0
158 178 0
155 176 0
152 172 0
159 179 0
163 183 0
160 181 0
166 188 0
171 193 0
169 191 0
165 187 0
169 190 0
166 188 0
161 183 0
165 187 0
164 186 0
170 192 0
159 181 0
163 186 0
168 190 0
160 182 0
164 186 0
162 185 0
165 187 0
163 186 0
162 185 0
167 189 0
168 190 0
162 186 0
167 189 0
165 187 0
164 187 0
164 186 0
157 179 0
161 182 0
155 177 0
155 178 0
157 179 0
163 186 0
162 184 0
157 179 0
158 180 0
152 175 0
147 170 0
163 185 0
159 181 0
153 174 0
159 181 0
149 170 0
148 170 0
150 172 0
148 171 0
151 173 0
147 169 0
155 176 0
146 168 0
144 167 0
147 168 0
142 163 0
142 164 0
140 162 0
135 157 0
144 165 0
140 160 0
142 163 0
133 155 0
89 112 57
48 77 70
50 81 80
51 82 78
50 79 80
51 81 78
51 82 80
52 82 84
53 85 94
51 82 86
53 84 97
49 79 72
51 81 78
54 86 88
53 83 102
51 82 82
53 84 84
51 81 78
52 83 82
55 87 94
56 87 94
54 86 102
52 83 82
54 86 102
52 84 90
53 84 97
53 84 86
54 86 97
53 84 86
51 82 80
52 83 95
53 85 90
54 85 97
53 85 97
54 85 94
53 83 99
52 82 74
54 85 86
50 80 76
54 85 90
52 82 84
50 80 82
52 82 86
52 83 88
53 84 99
54 85 94
52 82 85
53 83 99
52 83 80
47 75 84
53 82 85
51 80 88
50 79 80
50 78 80
51 80 89
50 79 79
49 78 68
50 79 73
46 72 75
47 74 75
49 76 81
45 70 54
49 77 72
50 77 87
48 72 61
82 99 44
127 143 0
129 147 0
129 146 0
128 143 0
138 156 0
134 149 0
128 145 0
132 148 0
134 147 0
139 155 0
126 140 0
140 156 0
143 159 0
134 151 0
139 155 0
132 146 0
137 151 0
138 155 0
150 165 0
141 154 0
139 154 0
137 154 0
151 167 0
143 158 0
138 153 0
144 157 0
143 157 0
144 158 0
145 159 0
135 147 0
133 144 0
146 161 0
145 159 0
141 153 0
139 152 0
143 155 0
134 147 0
150 161 0
133 140 11
90 86 19
83 78 24
92 84 11
86 81 11
84 78 0
93 87 18
94 90 11
82 78 11
89 85 11
97 93 0
84 81 11
100 97 8
90 87 8
94 88 0
94 90 8
98 96 8
103 99 8
96 93 0
104 99 0
110 106 0
108 102 11
106 102 11
100 96 14
103 100 14
105 102 8
105 100 0
117 112 0
111 105 22
120 116 16
111 107 14
117 114 11
117 112 11
116 111 11
120 114 22
127 123 30
127 120 16
113 108 16
127 122 24
120 114 11
122 117 14
117 113 19
136 130 25
124 119 0
122 119 11
137 131 25
142 137 30
128 123 22
126 122 28
129 124 25
126 122 16
130 124 29
128 123 19
136 130 28
133 127 34
134 128 22
129 124 22
133 128 30
132 126 30
122 119 19
133 128 37
140 134 28
134 129 32
139 132 36
135 130 37
134 128 32
142 137 39
140 135 32
138 132 34
142 137 45
136 131 42
139 133 37
130 125 34
139 134 34
142 136 37
134 128 41
139 133 37
142 134 44
139 133 34
138 134 39
146 139 41
134 128 37
147 140 48
143 137 49
137 132 37
143 137 47
142 137 41
134 128 30
139 132 47
140 133 42
137 131 44
144 139 39
137 132 39
133 128 36
146 140 41
128 123 36
145 139 53
138 133 44
142 136 36
139 133 44
138 132 48
137 131 48
137 131 45
142 136 48
143 136 49
142 136 47
148 141 57
141 136 45
143 136 45
135 131 37
137 133 42
141 134 49
133 128 32
145 139 45
120 114 39
133 127 39
139 133 51
138 132 45
139 133 52
128 123 45
139 134 41
139 133 53
142 137 53
143 137 42
137 130 51
141 134 49
134 128 47
135 129 45
136 131 47
175 198 0
174 198 0
173 197 0
175 198 0
173 197 0
174 198 0
175 198 0
175 198 0
174 197 0
173 197 0
175 198 0
174 197 0
172 196 0
174 198 0
174 197 0
173 197 0
173 197 0
173 197 0
172 196 0
173 197 0
174 197 0
174 198 0
175 198 0
173 197 0
174 198 0
174 197 0
174 198 0
169 193 0
173 197 0
173 196 0
173 196 0
176 198 0
172 196 0
173 196 0
173 195 0
173 195 0
175 197 0
174 196 0
176 197 0
174 197 0
172 194 0
173 195 0
175 197 0
174 196 0
171 193 0
173 195 0
169 191 0
174 195 0
173 195 0
168 190 0
166 188 0
170 191 0
172 194 0
171 193 0
166 187 0
169 190 0
163 184 0
171 192 0
172 194 0
169 190 0
170 192 0
168 190 0
172 193 0
170 190 0
171 191 0
171 191 0
171 191 0
171 193 0
165 186 0
169 190 0
161 182 0
164 185 0
163 183 0
172 192 0
170 190 0
168 189 0
167 187 0
162 182 0
166 187 0
162 183 0
160 180 0
162 182 0
166 187 0
164 184 0
162 183 0
158 178 0
166 186 0
156 175 0
161 180 0
153 174 0
161 181 0
171 191 0
160 180 0
162 181 0
154 173 0
156 177 0
156 175 0
161 180 0
161 181 0
156 175 0
164 184 0
156 175 0
152 171 0
156 175 0
160 180 0
170 191 0
168 190 0
170 193 0
169 192 0
168 191 0
172 193 0
167 188 0
166 188 0
170 193 0
169 192 0
165 188 0
170 191 0
165 187 0
173 194 0
166 189 0
164 186 0
171 193 0
163 184 0
161 182 0
162 185 0
159 181 0
161 182 0
163 185 0
166 189 0
159 181 0
164 186 0
163 185 0
162 183 0
158 180 0
161 182 0
159 182 0
160 182 0
155 178 0
156 178 0
156 178 0
150 171 0
155 177 0
160 182 0
150 173 0
155 178 0
155 176 0
159 181 0
156 178 0
155 177 0
153 175 0
148 170 0
149 171 0
154 176 0
150 172 0
159 181 0
149 171 0
146 166 0
139 161 0
150 172 0
147 167 0
142 163 0
139 160 0
140 162 0
136 157 0
127 149 0
132 153 0
135 156 0
141 162 0
104 126 40
54 83 65
49 79 72
50 80 67
50 80 70
50 80 86
51 81 90
52 83 80
53 84 86
49 78 74
54 85 84
53 84 90
53 84 88
54 85 82
52 82 82
51 82 88
52 82 72
51 81 82
53 84 102
54 86 90
51 81 82
52 82 86
53 84 88
53 83 88
51 82 86
51 81 90
53 85 88
52 82 82
56 87 108
53 84 90
50 79 80
54 85 105
52 83 82
53 84 100
52 83 90
52 83 84
54 85 95
52 82 80
54 85 97
55 86 95
54 85 94
50 79 80
54 85 90
52 83 94
51 80 84
51 81 80
49 79 74
52 82 81
51 81 90
51 80 90
52 82 89
49 78 77
48 76 62
49 78 74
47 74 77
49 77 71
50 78 87
47 73 66
46 73 67
48 76 66
46 71 74
46 72 65
46 71 62
100 114 0
118 133 0
116 134 0
132 146 0
122 139 0
111 127 0
130 147 0
123 138 0
129 146 0
129 145 0
126 143 0
127 141 0
125 140 0
125 139 0
136 150 0
132 147 0
130 146 0
136 150 0
129 144 0
136 152 0
130 145 0
132 143 0
136 148 0
139 154 0
134 145 0
141 151 0
132 148 0
148 164 0
141 153 0
137 151 0
140 155 0
136 150 0
142 154 0
132 147 0
136 149 0
144 156 0
134 147 0
141 152 0
136 146 0
147 157 0
146 154 0
128 138 11
89 89 14
71 64 18
92 86 22
79 75 24
82 78 0
100 96 11
75 71 0
88 82 0
95 91 11
89 83 0
92 88 0
81 76 0
100 95 14
96 91 0
95 90 0
96 89 14
104 99 8
93 91 0
105 97 14
95 90 0
101 96 18
108 103 14
114 110 8
99 94 8
100 97 11
116 112 0
104 99 11
117 113 14
120 115 0
116 113 26
112 108 0
126 121 21
118 114 8
117 113 18
117 113 0
120 114 11
115 110 19
125 118 21
113 109 11
118 113 16
129 125 11
123 119 11
126 120 28
126 121 11
130 124 16
121 116 19
128 122 19
136 131 28
123 119 11
125 120 22
134 129 28
130 124 28
125 120 16
137 131 28
125 119 19
146 139 41
136 130 36
126 121 19
125 119 25
133 127 22
133 129 25
130 124 30
130 124 36
135 129 28
138 132 34
137 131 34
134 128 30
131 127 22
142 136 34
134 129 30
140 134 36
135 132 36
132 126 37
142 135 36
147 142 36
134 128 37
138 131 37
135 129 36
143 137 30
139 132 34
134 128 28
138 131 39
131 125 25
140 134 41
141 134 39
143 138 41
138 131 37
137 131 45
132 126 45
140 134 37
144 138 37
144 137 42
126 120 32
133 127 42
142 136 49
137 132 32
137 130 37
135 129 41
131 125 41
142 135 52
144 137 51
141 134 42
135 130 39
139 133 32
140 132 47
140 134 44
134 130 39
142 134 44
126 120 37
143 137 42
137 131 45
141 135 45
141 135 45
141 135 45
140 133 44
135 128 47
139 132 49
133 128 48
143 137 51
135 129 39
135 128 39
132 126 45
143 135 56
131 125 42
134 129 37
133 127 41
129 124 37
174 198 0
173 197 0
173 197 0
175 198 0
174 197 0
172 196 0
174 198 0
175 198 0
175 198 0
174 198 0
175 198 0
173 197 0
173 197 0
174 198 0
175 198 0
173 196 0
175 198 0
173 197 0
172 195 0
173 197 0
173 197 0
174 197 0
173 196 0
176 198 0
174 197 0
172 196 0
175 198 0
173 197 0
172 196 0
175 198 0
172 196 0
172 195 0
176 198 0
171 194 0
174 196 0
174 197 0
173 195 0
171 193 0
172 195 0
173 195 0
173 195 0
172 193 0
174 195 0
173 195 0
171 192 0
173 196 0
170 192 0
170 191 0
169 190 0
177 198 0
171 193 0
170 192 0
174 195 0
173 194 0
171 192 0
172 194 0
167 189 0
169 191 0
168 189 0
176 197 0
171 193 0
163 184 0
171 192 0
167 189 0
169 190 0
166 187 0
168 188 0
165 187 0
166 187 0
170 190 0
168 188 0
162 183 0
168 189 0
164 184 0
172 193 0
162 182 0
167 188 0
165 186 0
166 187 0
165 185 0
163 183 0
167 187 0
164 184 0
167 187 0
165 185 0
166 186 0
161 180 0
160 180 0
160 180 0
156 176 0
162 183 0
161 181 0
162 181 0
161 180 0
154 175 0
160 180 0
159 178 0
155 174 0
158 178 0
162 181 0
164 183 0
166 186 0
167 186 0
167 188 0
168 189 0
174 195 0
168 191 0
170 192 0
172 193 0
172 194 0
167 189 0
169 192 0
170 192 0
166 188 0
168 189 0
166 188 0
163 185 0
170 193 0
160 181 0
164 185 0
167 189 0
165 186 0
164 185 0
164 186 0
167 188 0
162 185 0
166 187 0
162 183 0
161 182 0
162 184 0
158 180 0
161 184 0
156 177 0
159 181 0
162 184 0
153 175 0
159 181 0
155 177 0
157 179 0
158 180 0
156 178 0
156 177 0
162 183 0
152 173 0
149 172 0
158 180 0
150 172 0
154 175 0
150 173 0
151 173 0
153 175 0
153 174 0
153 174 0
150 173 0
147 170 0
145 165 0
145 166 0
148 170 0
139 160 0
140 161 0
149 171 0
136 157 0
137 158 0
139 159 0
141 163 0
145 165 0
129 148 0
141 162 0
131 151 0
122 143 25
71 96 72
45 73 51
50 80 84
48 77 65
52 83 92
52 82 80
52 83 82
52 83 80
50 79 82
49 79 86
53 84 88
51 82 80
54 86 99
51 82 80
49 79 72
53 84 90
53 84 78
54 85 88
53 84 88
52 83 84
51 82 95
53 85 97
52 83 84
52 83 88
53 84 94
54 85 88
51 80 82
53 85 84
52 82 86
52 83 95
53 84 95
53 83 84
49 78 78
53 83 92
52 82 88
52 82 88
51 82 82
52 83 76
52 82 84
51 81 82
54 85 99
51 81 86
50 80 84
52 83 82
51 81 87
49 79 78
51 81 78
51 80 94
49 78 88
51 81 87
49 78 63
44 69 70
48 75 82
46 73 63
50 79 70
45 72 57
46 72 70
47 74 70
42 66 60
67 85 44
107 123 18
103 118 0
116 132 0
127 143 0
125 140 0
107 124 0
116 133 0
128 145 0
127 143 0
123 137 0
129 146 0
107 119 0
121 135 0
123 139 0
135 152 0
127 143 0
131 148 0
131 146 0
133 147 0
139 154 0
141 155 0
124 136 0
136 150 0
131 144 0
140 155 0
135 149 0
135 147 0
135 149 0
133 142 0
143 155 0
141 154 0
125 136 0
139 154 0
142 155 0
143 153 0
133 145 0
146 158 0
143 155 0
131 142 0
138 151 0
147 158 0
137 150 0
141 152 0
136 147 0
97 99 0
81 75 22
98 92 20
81 75 0
88 83 11
78 73 0
88 83 3
92 88 11
72 68 0
93 87 3
90 82 16
93 88 8
90 86 8
94 90 0
89 86 0
96 92 8
98 94 8
110 103 8
101 95 8
98 94 19
104 98 8
98 93 0
110 106 0
113 108 8
101 94 3
104 100 16
113 107 11
121 115 0
111 107 14
121 116 11
104 101 0
116 112 11
114 108 11
121 117 11
112 106 14
117 111 11
116 111 11
121 115 19
125 120 22
124 119 19
126 121 11
129 124 18
132 124 30
136 130 34
128 120 22
125 121 25
123 117 22
128 121 22
129 124 25
125 121 11
130 124 25
131 124 28
123 117 25
132 126 25
133 128 32
130 123 28
132 126 25
133 128 28
135 129 28
131 127 19
133 127 30
141 134 32
141 134 37
128 122 28
137 131 28
128 123 19
130 124 30
136 130 32
126 122 19
132 125 39
136 131 30
135 130 37
137 131 32
134 127 32
139 134 32
133 129 34
145 138 39
136 131 42
138 132 34
136 131 28
134 128 30
139 133 44
141 134 39
130 124 25
135 129 34
137 132 32
137 131 41
142 136 41
134 128 25
136 129 37
135 129 34
136 129 44
137 131 41
138 133 32
133 128 41
133 127 42
141 135 44
147 140 49
143 136 36
128 121 22
132 127 39
143 136 45
143 137 37
131 126 32
141 135 41
139 133 49
134 127 41
137 132 39
127 121 39
127 122 37
139 133 41
136 131 42
131 125 42
132 126 44
139 133 45
145 137 56
127 122 44
143 137 47
142 135 49
135 130 47
131 125 42
142 136 49
133 127 47
130 125 47
131 123 48
131 124 44
175 198 0
174 197 0
172 196 0
174 198 0
174 197 0
174 198 0
173 197 0
175 198 0
174 198 0
174 197 0
173 197 0
173 197 0
174 197 0
172 196 0
173 196 0
174 197 0
175 198 0
171 196 0
174 197 0
174 198 0
175 198 0
175 198 0
173 197 0
174 197 0
175 198 0
175 198 0
172 197 0
175 198 0
172 196 0
174 197 0
174 197 0
174 197 0
176 198 0
175 198 0
172 195 0
173 196 0
173 196 0
174 197 0
176 198 0
174 196 0
173 195 0
173 194 0
170 192 0
174 195 0
174 195 0
174 195 0
173 195 0
174 196 0
172 193 0
173 195 0
173 195 0
173 194 0
170 192 0
175 196 0
172 193 0
170 192 0
173 194 0
170 191 0
172 192 0
167 189 0
170 191 0
169 190 0
172 192 0
162 183 0
164 185 0
171 192 0
170 190 0
166 187 0
171 191 0
161 182 0
167 187 0
168 188 0
169 189 0
168 188 0
165 185 0
160 181 0
168 188 0
162 182 0
163 183 0
162 182 0
155 175 0
166 187 0
162 182 0
159 179 0
165 185 0
159 180 0
165 185 0
161 180 0
164 184 0
161 181 0
164 182 0
164 183 0
165 185 0
156 176 0
160 179 0
161 180 0
160 180 0
166 185 0
163 183 0
164 184 0
166 186 0
166 188 0
167 187 0
174 195 0
169 189 0
166 188 0
174 196 0
170 191 0
165 187 0
165 188 0
166 188 0
169 190 0
168 189 0
163 185 0
167 188 0
163 184 0
162 183 0
164 185 0
162 182 0
163 184 0
165 187 0
166 187 0
159 180 0
164 185 0
163 184 0
165 188 0
159 180 0
161 183 0
159 180 0
162 184 0
157 179 0
160 181 0
158 180 0
159 180 0
151 174 0
156 178 0
160 182 0
159 180 0
161 183 0
154 176 0
158 180 0
152 174 0
148 170 0
155 177 0
146 167 0
146 167 0
153 174 0
155 177 0
153 175 0
153 175 0
150 171 0
154 176 0
150 171 0
144 165 0
144 165 0
157 179 0
142 164 0
137 158 0
143 164 0
145 165 0
146 168 0
132 153 0
133 154 0
134 153 0
131 153 0
127 147 0
131 151 0
132 153 0
137 157 0
132 151 0
123 143 0
93 114 36
47 73 57
50 80 82
52 82 74
48 77 80
48 78 76
50 79 76
49 78 74
50 80 74
52 82 90
49 78 72
52 83 80
52 82 94
50 80 80
51 81 82
52 82 90
51 80 86
50 80 90
53 84 88
50 80 86
50 80 88
51 82 78
51 81 80
52 84 86
51 82 84
53 85 88
51 81 80
53 84 92
51 81 94
51 82 76
54 86 97
50 80 70
52 83 88
50 79 88
51 81 95
50 80 82
51 81 80
49 77 82
49 78 76
50 80 79
49 79 72
49 78 80
53 83 100
52 82 92
51 80 88
52 82 95
52 83 75
50 79 92
47 75 76
46 73 65
50 79 84
46 73 70
46 73 82
47 75 68
47 73 60
44 69 73
45 70 60
94 110 31
115 131 0
105 119 0
109 123 0
118 134 0
129 145 0
119 134 0
110 126 0
122 137 0
117 132 0
109 123 0
116 130 0
112 127 0
126 140 0
122 138 0
128 143 0
118 132 0
126 138 0
114 128 0
135 150 0
123 137 0
130 145 0
127 143 0
135 149 0
134 147 0
128 141 0
141 156 0
134 148 0
127 142 0
141 155 0
134 145 0
131 143 0
126 138 0
120 129 0
136 144 0
129 139 0
136 147 0
133 145 0
132 141 0
139 149 0
129 136 0
137 147 0
136 147 0
121 127 0
136 145 0
128 136 0
136 144 0
128 133 16
96 91 28
92 85 22
92 86 22
92 86 12
90 85 11
90 84 16
90 85 11
96 90 16
101 95 11
83 80 0
96 90 0
83 76 0
92 89 0
94 90 0
105 100 0
110 104 11
103 98 0
92 86 8
94 90 12
100 96 0
117 110 0
101 94 0
110 103 11
111 105 0
112 107 0
109 103 16
102 97 0
114 107 0
112 106 11
117 112 11
110 106 0
111 107 0
119 115 0
114 110 11
124 119 21
121 117 0
122 116 11
123 117 11
124 120 0
129 123 22
126 122 11
128 122 11
118 113 11
124 118 19
130 124 22
120 115 22
127 120 30
131 125 25
131 125 19
129 123 25
130 123 19
136 131 28
135 129 28
116 111 16
126 120 16
140 134 30
133 128 16
132 127 25
131 125 25
143 136 30
126 120 25
130 123 36
128 123 30
131 126 30
140 132 32
142 136 36
135 129 32
136 130 30
126 121 19
130 124 32
137 132 37
137 133 32
124 118 22
132 125 32
137 131 39
138 132 36
132 126 30
140 132 42
142 137 39
138 131 32
133 126 36
126 119 39
129 123 32
142 136 42
136 131 41
135 129 36
133 127 37
138 130 34
132 126 32
129 123 32
139 132 41
135 129 36
150 143 44
128 121 28
137 131 37
140 135 42
141 133 42
140 135 36
138 133 32
135 131 45
143 137 49
132 126 41
135 130 36
129 123 25
137 130 42
137 131 44
135 129 44
139 133 45
133 126 41
126 120 44
134 128 42
136 129 36
142 135 53
135 129 47
135 129 41
133 128 44
128 122 39
130 124 42
140 134 51
130 125 42
137 129 47
135 128 34
126 121 37
130 124 47
175 198 0
175 198 0
173 197 0
174 197 0
175 198 0
174 198 0
174 197 0
174 198 0
171 196 0
174 197 0
176 198 0
173 197 0
173 197 0
171 196 0
174 197 0
174 197 0
175 198 0
174 197 0
172 196 0
171 196 0
173 197 0
175 198 0
174 198 0
175 198 0
173 197 0
174 198 0
173 196 0
174 197 0
174 198 0
176 199 0
173 197 0
174 197 0
174 198 0
172 195 0
174 197 0
171 194 0
174 197 0
174 197 0
174 195 0
172 194 0
174 195 0
175 197 0
172 194 0
178 199 0
172 194 0
175 196 0
175 196 0
172 193 0
170 191 0
172 194 0
172 192 0
171 192 0
172 194 0
175 197 0
173 194 0
171 191 0
169 190 0
172 192 0
172 193 0
169 191 0
167 188 0
171 191 0
167 187 0
171 191 0
171 191 0
168 189 0
169 189 0
168 189 0
168 190 0
170 190 0
163 183 0
168 188 0
169 190 0
164 184 0
162 182 0
171 191 0
162 182 0
166 186 0
161 181 0
168 189 0
168 188 0
167 187 0
164 183 0
161 181 0
165 184 0
162 182 0
160 180 0
161 181 0
165 184 0
165 185 0
167 186 0
159 178 0
170 189 0
163 182 0
158 177 0
163 182 0
163 183 0
165 185 0
167 189 0
171 193 0
171 192 0
164 186 0
167 188 0
169 191 0
171 192 0
173 194 0
168 189 0
165 187 0
169 191 0
167 188 0
170 192 0
163 184 0
162 183 0
166 187 0
163 183 0
158 180 0
168 189 0
163 182 0
159 180 0
163 185 0
159 181 0
165 186 0
163 183 0
161 182 0
162 184 0
161 182 0
159 180 0
157 179 0
160 182 0
164 185 0
147 168 0
164 186 0
161 182 0
163 185 0
159 180 0
151 173 0
160 181 0
157 180 0
160 181 0
159 181 0
156 177 0
147 169 0
153 174 0
156 178 0
151 173 0
142 165 0
152 173 0
147 168 0
150 172 0
159 181 0
151 172 0
137 158 0
140 162 0
143 164 0
139 160 0
147 169 0
142 163 0
143 165 0
141 161 0
135 155 0
135 154 0
141 162 0
137 158 0
138 158 0
127 146 0
131 152 0
127 147 0
124 144 0
117 136 0
115 134 0
122 141 0
124 142 0
110 130 25
73 94 57
50 80 65
50 79 72
50 80 72
48 77 70
51 82 82
51 81 82
51 81 80
48 76 78
49 78 70
50 80 78
51 81 90
49 78 67
51 82 78
48 77 76
53 84 105
51 81 62
51 81 80
49 79 80
50 80 78
50 80 80
50 80 76
53 83 95
53 83 97
50 80 78
50 80 86
52 83 95
52 82 89
49 78 84
51 81 78
47 76 80
50 80 80
50 80 82
49 79 74
50 80 78
49 77 70
49 79 74
48 76 78
52 82 84
52 82 88
49 79 72
46 73 77
49 77 84
50 79 72
47 75 62
47 75 84
50 79 84
47 74 72
47 74 60
46 72 63
46 73 60
46 73 75
47 74 56
65 83 54
93 108 25
107 119 0
98 112 0
104 117 0
111 125 0
109 123 0
116 130 0
120 134 0
113 127 0
119 132 0
123 137 0
106 120 0
124 138 0
127 143 0
124 138 0
123 136 0
127 143 0
129 142 0
126 141 0
129 145 0
110 123 0
123 136 0
122 135 0
132 146 0
124 137 0
133 146 0
132 145 0
131 144 0
127 141 0
133 144 0
127 141 0
138 151 0
125 136 0
126 135 0
123 133 0
129 138 0
137 151 0
132 140 0
134 144 0
127 138 0
130 141 0
122 131 0
136 144 0
125 134 0
131 139 0
132 140 0
124 131 0
137 146 0
127 130 0
135 139 0
85 81 0
102 94 28
86 81 16
83 78 11
88 81 11
81 78 11
89 83 11
87 82 0
96 90 11
90 85 3
97 92 12
108 102 0
92 88 0
101 94 0
97 92 0
104 97 0
103 98 11
94 88 0
97 92 0
105 101 0
104 98 0
106 101 8
99 94 14
116 110 0
108 103 0
120 115 16
114 109 0
115 109 11
105 99 12
119 112 0
114 108 11
119 112 11
112 106 0
114 109 11
126 121 11
120 114 0
120 115 19
119 113 11
121 116 16
126 119 22
116 111 11
127 122 19
130 123 22
120 115 16
128 124 30
128 122 16
123 119 11
120 114 16
129 124 11
129 124 11
132 128 16
131 126 25
127 122 19
124 119 16
136 130 25
130 124 22
123 118 22
124 118 34
138 132 25
132 125 32
125 121 11
137 131 36
134 128 30
138 132 28
123 120 22
132 127 22
143 137 37
134 128 32
136 131 22
130 124 30
126 121 22
125 120 22
135 129 25
133 127 30
133 128 36
140 134 41
126 119 25
137 131 36
135 129 37
132 125 42
140 134 30
136 131 28
141 135 42
146 138 45
129 124 30
128 123 36
135 128 34
130 123 36
136 131 42
138 131 37
138 132 36
131 125 37
134 127 45
123 117 34
133 129 34
141 134 44
136 130 36
141 135 48
133 127 41
139 135 48
137 130 36
140 134 47
141 134 47
136 129 49
136 130 39
142 134 51
129 123 34
136 129 41
133 127 39
141 135 52
139 132 39
129 124 42
131 125 39
138 131 41
136 128 41
129 124 44
129 124 45
138 131 54
132 125 39
136 130 49
142 134 52
139 133 45
139 133 52
173 197 0
174 197 0
174 197 0
174 197 0
174 197 0
174 197 0
172 196 0
174 197 0
172 196 0
173 197 0
173 196 0
171 195 0
174 198 0
172 197 0
174 197 0
175 198 0
173 197 0
173 197 0
176 199 0
173 197 0
173 197 0
171 196 0
173 196 0
175 198 0
175 198 0
174 197 0
172 195 0
173 197 0
174 197 0
174 197 0
171 195 0
172 196 0
174 198 0
175 198 0
174 197 0
175 198 0
173 197 0
173 196 0
175 197 0
174 196 0
173 196 0
173 196 0
174 196 0
170 192 0
172 194 0
175 197 0
173 194 0
174 196 0
172 194 0
177 198 0
173 194 0
171 192 0
171 193 0
169 190 0
172 192 0
174 195 0
170 191 0
173 194 0
170 190 0
167 189 0
168 189 0
173 194 0
165 185 0
175 195 0
175 195 0
167 187 0
167 188 0
173 193 0
168 188 0
163 184 0
163 184 0
168 188 0
167 188 0
171 190 0
168 188 0
172 192 0
166 186 0
165 185 0
168 188 0
168 188 0
164 184 0
163 183 0
167 187 0
163 182 0
170 189 0
160 180 0
167 187 0
166 185 0
158 177 0
167 186 0
166 185 0
159 179 0
162 181 0
169 189 0
165 186 0
174 194 0
174 195 0
174 195 0
167 189 0
171 192 0
169 190 0
171 193 0
168 190 0
165 186 0
171 192 0
171 192 0
168 190 0
171 192 0
170 191 0
167 189 0
162 182 0
166 187 0
163 183 0
167 188 0
160 181 0
154 175 0
165 186 0
160 182 0
164 184 0
158 179 0
157 177 0
159 180 0
154 175 0
160 181 0
160 181 0
160 180 0
153 174 0
155 176 0
158 179 0
152 173 0
147 169 0
155 177 0
156 178 0
155 177 0
153 174 0
156 177 0
159 180 0
155 177 0
159 181 0
152 173 0
153 174 0
149 171 0
148 170 0
149 172 0
148 169 0
161 183 0
146 168 0
146 167 0
149 170 0
145 166 0
150 171 0
147 169 0
152 174 0
153 174 0
149 170 0
148 170 0
136 157 0
137 158 0
131 152 0
136 156 0
134 155 0
140 161 0
136 156 0
146 166 0
136 156 0
128 147 0
120 139 0
131 150 0
132 151 0
127 147 0
117 135 0
114 132 0
110 127 0
111 129 0
100 118 36
64 89 62
46 74 65
50 80 70
50 79 80
51 81 76
46 75 65
50 79 76
50 79 80
49 79 72
51 80 88
50 80 72
50 80 80
50 80 78
51 81 60
51 81 76
47 75 72
50 79 80
49 79 60
52 83 84
53 84 88
50 79 78
52 82 80
48 77 78
50 79 70
52 82 82
48 77 65
49 78 78
49 78 74
50 80 72
48 77 70
53 84 95
53 83 94
47 75 78
49 77 84
46 73 57
49 79 76
47 74 74
49 78 76
46 73 62
48 75 72
53 83 84
45 72 68
44 70 54
49 77 62
46 72 65
45 72 65
46 73 62
44 70 65
41 65 72
60 78 54
78 91 31
90 103 0
106 119 0
107 120 0
93 105 0
114 126 0
93 106 0
108 121 0
105 119 0
115 126 0
109 120 0
123 136 0
110 125 0
110 125 0
127 142 0
126 143 0
123 136 0
122 138 0
116 128 0
117 130 0
127 142 0
127 142 0
124 138 0
114 125 0
121 135 0
120 133 0
112 124 0
128 142 0
129 141 0
132 146 0
122 134 0
133 144 0
126 138 0
127 139 0
125 135 0
123 134 0
137 149 0
129 139 0
130 139 0
125 133 0
126 138 0
126 135 0
124 129 0
125 132 0
130 139 0
125 130 0
111 118 0
114 120 0
128 135 0
131 140 0
125 129 0
124 129 0
127 130 0
105 108 0
75 68 16
84 77 16
86 82 0
80 75 16
91 85 0
93 87 16
84 79 16
89 82 0
96 90 0
83 77 8
88 83 0
93 87 8
99 94 0
96 90 0
104 99 0
89 82 0
113 105 0
107 101 0
99 94 0
106 98 0
101 97 0
114 108 0
108 102 0
106 100 0
114 108 0
117 112 0
120 114 0
116 109 0
115 110 0
115 109 0
124 118 0
114 110 11
116 108 16
112 107 0
113 107 0
128 120 19
119 113 16
125 119 11
110 105 0
122 117 16
124 118 16
124 120 22
124 119 16
127 122 22
115 111 19
121 117 0
131 125 28
128 123 19
124 120 16
129 120 28
132 126 11
135 128 28
121 115 19
128 122 19
128 123 19
127 122 22
123 117 19
133 126 19
119 116 28
135 127 25
127 121 25
133 127 30
133 127 16
129 123 16
131 125 25
143 138 36
126 121 32
129 124 19
135 129 34
133 128 28
130 125 32
132 125 25
131 125 36
123 118 16
131 126 37
126 121 36
130 125 30
138 131 45
129 123 30
133 128 39
128 121 34
129 122 41
136 129 36
137 131 36
141 135 42
135 130 34
135 129 39
129 123 28
128 121 28
139 133 39
135 128 44
136 129 42
141 134 39
131 124 34
135 129 37
130 125 30
136 130 47
137 132 34
137 131 51
134 129 36
134 128 41
132 127 30
140 134 49
137 132 45
136 130 34
142 135 44
124 119 34
130 124 42
128 122 34
130 125 36
140 133 41
137 131 45
128 122 28
129 123 49
132 127 42
129 123 41
127 121 42
130 125 44
133 126 52
130 123 42
132 126 41
175 198 0
173 196 0
174 197 0
175 198 0
175 198 0
174 197 0
173 196 0
175 198 0
172 196 0
174 197 0
173 197 0
173 197 0
173 197 0
172 196 0
174 197 0
175 198 0
173 196 0
174 198 0
172 195 0
174 197 0
174 197 0
173 197 0
175 198 0
173 196 0
174 197 0
171 195 0
173 197 0
170 194 0
174 197 0
174 197 0
173 196 0
173 197 0
174 197 0
174 198 0
173 196 0
170 194 0
171 195 0
173 197 0
174 197 0
172 196 0
174 197 0
175 198 0
174 197 0
176 198 0
173 195 0
173 195 0
174 195 0
173 195 0
175 196 0
172 194 0
172 193 0
171 191 0
175 196 0
174 195 0
174 195 0
172 194 0
174 194 0
175 195 0
174 194 0
170 191 0
170 191 0
167 188 0
172 193 0
172 192 0
169 190 0
169 189 0
170 190 0
173 193 0
171 190 0
171 191 0
171 191 0
169 190 0
163 183 0
172 191 0
168 187 0
163 183 0
167 187 0
161 181 0
171 189 0
162 182 0
170 190 0
164 184 0
164 183 0
162 183 0
169 188 0
163 183 0
165 184 0
168 188 0
166 184 0
167 187 0
173 193 0
169 189 0
168 189 0
170 190 0
164 185 0
168 189 0
168 189 0
173 194 0
171 191 0
168 189 0
170 191 0
164 184 0
170 191 0
164 185 0
167 188 0
166 187 0
168 188 0
161 182 0
169 190 0
167 188 0
158 178 0
167 187 0
162 183 0
164 184 0
163 184 0
162 184 0
161 182 0
163 184 0
161 181 0
158 179 0
166 186 0
162 183 0
162 182 0
152 173 0
160 180 0
150 170 0
160 180 0
155 175 0
162 183 0
157 178 0
160 181 0
156 178 0
157 178 0
157 178 0
157 178 0
150 172 0
158 180 0
151 173 0
145 166 0
149 171 0
151 173 0
159 180 0
152 174 0
149 172 0
148 169 0
143 165 0
138 158 0
143 164 0
144 165 0
141 161 0
150 171 0
149 171 0
142 162 0
139 160 0
139 161 0
135 155 0
132 153 0
142 162 0
139 159 0
135 155 0
135 155 0
123 142 0
126 146 0
135 156 0
125 144 0
127 146 0
121 141 0
118 137 0
124 143 0
116 135 0
118 136 0
116 135 0
104 123 0
108 126 0
110 126 0
92 108 0
85 104 31
58 83 54
49 79 72
47 75 62
49 79 72
46 74 72
45 72 62
48 76 57
49 78 82
47 75 67
50 79 76
49 79 86
51 81 90
49 78 78
49 78 62
51 81 82
51 81 84
49 77 82
49 78 76
50 79 80
48 77 67
48 75 72
47 75 79
49 79 84
52 82 92
49 79 70
47 76 65
47 74 70
49 78 74
51 81 88
48 76 70
48 76 76
47 75 74
46 74 70
47 75 60
50 79 85
47 75 70
48 77 78
45 73 72
45 71 62
44 70 67
46 73 67
47 74 86
48 75 84
45 71 67
42 67 48
50 71 47
86 99 36
84 95 0
101 113 0
106 119 0
95 107 0
88 100 0
102 113 0
106 120 0
99 110 0
90 105 0
112 123 0
107 121 0
108 121 0
116 130 0
122 133 0
99 110 0
110 123 0
116 128 0
121 137 0
111 123 0
127 140 0
124 138 0
128 141 0
135 150 0
117 127 0
112 125 0
128 141 0
116 129 0
111 125 0
119 132 0
119 129 0
123 133 0
126 136 0
129 139 0
127 140 0
124 135 0
133 144 0
127 135 0
111 122 0
121 131 0
120 130 0
118 127 0
129 139 0
121 127 0
131 139 0
130 139 0
125 135 0
124 130 0
133 140 0
107 108 0
130 137 0
120 125 0
132 137 0
115 119 0
131 137 0
122 126 0
114 114 0
86 81 0
87 81 19
91 85 22
85 78 0
81 73 8
82 76 16
80 74 8
84 75 0
96 90 0
99 93 0
85 80 0
91 87 0
93 88 0
93 88 0
103 96 0
105 97 0
101 95 0
101 95 0
106 100 0
109 103 0
106 99 0
104 96 0
110 104 0
121 114 11
103 96 0
114 108 0
102 97 0
109 105 0
113 108 11
111 107 0
107 103 0
113 108 0
122 115 0
123 117 0
122 115 0
123 118 0
118 113 11
112 106 0
130 125 0
117 113 11
119 112 0
112 109 0
132 125 16
116 110 25
118 113 16
125 119 11
133 128 16
126 121 16
126 120 19
132 126 30
127 122 19
126 120 0
128 122 19
126 121 22
113 106 25
131 126 25
120 115 22
125 120 19
120 115 16
130 124 25
133 126 22
133 127 25
128 123 22
134 129 28
133 126 19
140 135 22
135 128 30
130 124 32
132 127 25
139 134 34
137 131 36
128 121 36
133 128 28
130 125 22
124 120 32
134 127 32
134 127 32
136 129 30
136 129 34
132 126 37
125 118 28
135 129 22
136 130 37
132 125 39
126 121 25
137 131 34
132 127 39
137 131 34
127 123 32
123 118 30
132 126 37
136 130 36
133 126 44
129 122 28
133 128 42
128 121 41
126 118 37
122 117 36
143 135 42
143 138 48
139 132 39
114 110 25
129 123 42
132 127 37
143 136 49
138 129 48
132 127 34
135 129 34
131 125 47
131 125 36
129 121 45
132 126 36
133 127 45
128 121 37
126 120 34
130 124 49
134 125 53
137 132 44
125 120 37
119 115 42
173 197 0
172 196 0
174 198 0
173 196 0
173 197 0
174 197 0
175 198 0
173 197 0
174 197 0
172 196 0
173 197 0
173 197 0
174 197 0
174 197 0
172 196 0
172 196 0
175 198 0
172 197 0
174 198 0
174 197 0
172 196 0
175 197 0
173 197 0
174 197 0
173 197 0
175 198 0
173 196 0
171 195 0
172 197 0
172 195 0
173 196 0
173 197 0
171 196 0
172 195 0
173 196 0
175 198 0
170 195 0
170 194 0
171 195 0
173 196 0
175 197 0
173 197 0
174 197 0
173 196 0
174 197 0
173 195 0
174 197 0
171 195 0
172 193 0
174 195 0
175 195 0
173 194 0
176 197 0
172 193 0
172 193 0
174 196 0
172 193 0
169 190 0
174 194 0
173 193 0
171 192 0
170 191 0
170 190 0
171 191 0
166 186 0
168 189 0
173 192 0
168 189 0
170 190 0
168 188 0
169 189 0
163 183 0
168 188 0
171 191 0
167 187 0
170 189 0
170 190 0
169 188 0
169 189 0
167 187 0
165 185 0
167 186 0
173 193 0
169 189 0
171 190 0
174 194 0
170 191 0
173 194 0
171 192 0
173 194 0
171 192 0
171 192 0
173 194 0
165 186 0
171 193 0
171 192 0
166 187 0
164 184 0
171 192 0
169 190 0
170 191 0
167 188 0
165 186 0
163 183 0
157 178 0
166 187 0
169 188 0
167 188 0
167 187 0
162 182 0
158 178 0
171 191 0
169 189 0
165 185 0
161 182 0
162 183 0
157 178 0
161 181 0
164 184 0
163 184 0
157 176 0
157 178 0
161 181 0
159 179 0
157 177 0
161 182 0
158 179 0
159 179 0
156 176 0
153 174 0
156 177 0
156 178 0
148 168 0
157 177 0
148 170 0
148 168 0
148 169 0
143 165 0
158 178 0
155 176 0
158 179 0
152 175 0
153 174 0
145 166 0
150 171 0
144 165 0
150 170 0
150 172 0
143 164 0
146 167 0
142 164 0
132 154 0
143 162 0
142 164 0
130 151 0
142 162 0
141 161 0
136 156 0
148 170 0
128 149 0
130 150 0
131 151 0
121 142 0
127 146 0
126 145 0
131 150 0
132 151 0
112 132 0
125 144 0
120 138 0
119 136 0
105 123 0
93 111 0
104 121 0
106 122 0
111 127 0
101 117 0
104 120 0
78 96 44
56 80 47
44 71 44
45 72 67
46 74 57
46 74 54
45 73 62
49 78 72
49 78 70
45 72 70
49 78 82
51 81 76
47 75 78
52 82 90
46 74 62
49 79 84
47 76 72
52 82 94
49 78 80
50 80 88
46 75 70
50 79 88
49 78 76
49 77 67
50 80 82
47 74 72
48 77 76
50 80 84
46 75 72
47 75 62
45 72 65
46 74 70
42 69 62
52 83 72
44 70 51
48 76 51
46 73 65
43 70 36
47 75 70
45 71 74
45 71 63
39 63 45
53 74 72
71 85 36
84 95 18
82 94 0
99 108 0
82 90 0
103 115 0
91 103 0
95 108 0
95 107 0
94 108 0
90 101 0
103 114 0
109 121 0
103 117 0
107 119 0
118 129 0
103 117 0
111 126 0
114 128 0
101 114 0
119 132 0
119 132 0
117 131 0
123 135 0
110 123 0
103 117 0
107 119 0
136 150 0
129 143 0
122 137 0
115 128 0
136 149 0
110 122 0
119 133 0
118 129 0
111 122 0
128 140 0
129 140 0
117 129 0
124 135 0
123 136 0
116 125 0
112 120 0
123 131 0
116 125 0
122 130 0
122 131 0
130 139 0
112 120 0
112 117 0
123 127 0
129 137 0
130 138 0
113 117 0
111 114 0
123 128 0
114 117 0
118 123 0
120 119 0
122 125 0
98 92 0
69 61 16
76 71 11
67 61 11
82 75 16
85 78 8
95 89 11
92 86 11
95 89 0
87 82 0
89 84 0
95 89 0
97 89 0
99 91 0
100 95 8
94 89 0
101 94 0
105 100 0
108 101 0
107 100 0
104 98 0
113 105 0
112 104 0
112 105 8
109 103 0
109 104 0
106 101 0
107 101 0
111 104 8
115 110 11
109 103 0
112 105 0
117 111 0
117 111 0
116 111 11
119 114 0
118 111 0
125 119 11
122 115 11
120 114 11
119 112 11
119 112 16
122 117 11
131 125 22
118 111 11
121 113 0
122 116 0
125 120 16
125 120 0
127 120 11
127 120 19
131 125 22
122 116 30
115 109 16
123 118 16
127 121 22
127 120 22
122 115 28
127 120 25
120 117 19
125 118 22
131 126 25
131 124 28
121 115 19
134 127 28
128 122 32
132 127 19
128 124 19
128 120 34
133 127 30
125 119 32
133 127 32
131 125 22
139 132 34
135 128 34
126 121 34
127 121 36
122 116 22
135 127 37
124 119 22
133 125 39
125 119 25
129 122 37
137 131 32
126 122 22
126 122 22
129 123 32
131 125 32
140 131 37
129 124 30
126 120 28
133 127 39
133 126 37
127 121 34
132 126 37
132 127 44
127 121 28
138 133 47
127 120 32
142 134 48
127 119 32
133 128 36
135 130 37
134 127 42
128 123 39
133 126 41
125 119 41
140 134 53
131 125 36
133 127 49
126 122 41
135 129 44
131 125 49
135 129 42
134 127 48
134 128 36
125 120 39
133 127 44
121 115 32
173 197 0
173 197 0
171 195 0
174 198 0
173 196 0
174 198 0
173 197 0
173 196 0
173 197 0
174 198 0
173 196 0
176 198 0
173 196 0
173 197 0
172 196 0
172 196 0
176 199 0
172 196 0
172 195 0
173 197 0
174 197 0
172 196 0
174 198 0
173 196 0
174 197 0
173 196 0
172 196 0
172 196 0
173 196 0
172 196 0
175 198 0
174 197 0
174 198 0
172 196 0
174 197 0
174 197 0
173 196 0
176 199 0
173 196 0
173 197 0
174 197 0
174 197 0
173 196 0
174 197 0
174 198 0
174 197 0
174 197 0
174 197 0
173 196 0
170 194 0
175 197 0
177 199 0
173 195 0
174 196 0
174 195 0
174 195 0
173 194 0
173 194 0
171 192 0
170 191 0
175 196 0
171 192 0
171 190 0
169 190 0
168 189 0
170 190 0
174 194 0
172 193 0
166 186 0
168 189 0
172 191 0
169 189 0
171 191 0
168 188 0
167 186 0
164 184 0
175 195 0
170 190 0
173 193 0
168 188 0
172 192 0
171 191 0
171 192 0
174 195 0
168 189 0
172 193 0
172 193 0
173 194 0
172 193 0
170 191 0
169 190 0
169 190 0
162 183 0
169 189 0
169 190 0
175 195 0
167 188 0
169 190 0
162 182 0
163 184 0
168 189 0
166 186 0
163 184 0
166 186 0
164 183 0
167 187 0
165 186 0
158 179 0
160 180 0
168 188 0
159 180 0
162 182 0
161 182 0
162 182 0
164 185 0
163 184 0
162 182 0
154 175 0
162 182 0
160 180 0
163 184 0
166 186 0
158 179 0
156 178 0
161 182 0
161 182 0
161 182 0
158 179 0
155 175 0
157 177 0
152 172 0
157 179 0
153 174 0
158 180 0
161 182 0
162 183 0
160 181 0
160 181 0
155 176 0
148 170 0
151 172 0
135 155 0
148 170 0
151 171 0
149 170 0
147 167 0
142 163 0
143 165 0
146 168 0
142 163 0
140 161 0
146 168 0
147 169 0
136 157 0
145 166 0
137 158 0
138 159 0
133 153 0
142 162 0
135 155 0
133 152 0
133 152 0
119 138 0
133 154 0
123 141 0
132 152 0
133 152 0
115 134 0
113 131 0
103 120 0
121 138 0
113 131 0
99 116 0
112 130 0
101 118 0
96 113 0
104 120 0
93 108 0
90 105 0
88 103 0
72 90 40
64 85 47
41 66 65
46 75 72
44 71 62
49 78 74
48 77 78
46 74 67
44 71 65
45 72 62
49 78 67
44 72 47
49 78 78
46 75 60
46 74 70
48 76 72
46 74 65
46 74 70
48 76 76
47 75 70
47 74 72
46 73 74
49 78 72
47 75 74
46 75 51
47 75 65
46 72 51
45 72 67
44 70 80
49 78 65
46 73 70
44 71 65
46 72 67
43 69 57
44 70 70
42 67 57
41 66 57
41 65 68
51 69 44
79 91 18
80 90 0
81 90 0
77 89 0
97 108 0
88 98 0
84 96 0
98 111 0
90 104 0
96 107 0
106 118 0
98 111 0
99 113 0
104 116 0
114 127 0
102 116 0
111 123 0
109 122 0
104 114 0
118 131 0
105 119 0
119 133 0
116 129 0
114 127 0
124 137 0
109 120 0
115 128 0
112 122 0
117 132 0
123 137 0
108 120 0
125 140 0
117 128 0
122 135 0
121 133 0
125 136 0
116 127 0
114 125 0
117 125 0
117 128 0
119 128 0
117 128 0
129 137 0
123 130 0
112 120 0
108 118 0
114 121 0
118 126 0
121 129 0
119 124 0
112 120 0
123 129 0
114 121 0
118 122 0
116 118 0
118 125 0
120 127 0
122 126 0
108 112 0
111 114 0
123 127 0
117 118 0
113 116 0
108 108 0
87 87 22
74 68 19
72 66 16
83 76 0
85 76 0
80 73 0
80 74 11
90 83 11
94 87 11
96 89 0
93 86 0
106 97 0
99 91 0
101 95 0
90 84 0
86 81 0
96 90 0
96 90 0
105 98 0
108 102 0
97 91 0
99 92 0
98 93 0
100 97 0
105 98 0
119 112 0
105 98 0
109 103 0
112 105 0
111 104 0
110 104 0
112 104 0
116 111 0
111 107 0
115 109 0
114 108 0
124 117 16
121 115 11
123 116 0
115 112 0
127 120 11
111 106 0
115 109 11
125 119 25
128 124 16
123 116 16
125 118 19
124 118 22
110 103 11
124 118 16
122 115 11
124 116 22
127 123 19
131 124 25
127 121 22
126 120 16
126 121 25
135 130 25
124 117 0
127 120 11
130 122 28
131 126 28
130 125 16
127 120 11
124 118 22
126 119 32
127 121 32
129 124 19
132 127 30
120 114 19
126 120 25
128 123 34
129 124 28
125 119 19
131 125 34
128 122 22
126 120 30
127 122 32
129 123 34
128 123 22
131 124 28
134 128 32
124 120 22
137 130 41
136 128 32
124 119 36
130 124 36
130 123 32
129 123 32
136 130 44
129 123 34
129 124 32
136 129 32
124 118 28
128 122 37
129 122 42
134 128 32
132 127 32
132 125 39
134 128 44
134 128 34
119 112 32
135 128 41
130 124 42
143 135 44
130 124 34
125 119 37
137 130 44
133 127 42
130 124 39
142 134 48
127 121 41
133 126 36
135 129 49
142 134 51
118 110 37
136 130 44
176 198 0
172 196 0
172 196 0
174 197 0
175 198 0
174 198 0
173 196 0
175 198 0
174 198 0
173 197 0
174 197 0
174 197 0
172 196 0
172 196 0
173 197 0
173 197 0
174 198 0
174 197 0
173 197 0
174 197 0
172 196 0
176 198 0
172 196 0
176 198 0
174 197 0
175 198 0
173 197 0
174 198 0
173 196 0
172 196 0
172 195 0
172 196 0
173 197 0
175 198 0
175 197 0
173 196 0
173 197 0
174 197 0
174 198 0
173 197 0
176 199 0
175 197 0
171 194 0
174 197 0
171 194 0
173 197 0
174 197 0
172 196 0
173 196 0
173 196 0
178 199 0
173 196 0
174 197 0
174 196 0
171 194 0
174 196 0
175 198 0
172 195 0
175 197 0
169 192 0
174 196 0
176 197 0
173 195 0
172 194 0
169 191 0
174 195 0
172 194 0
172 193 0
170 191 0
171 192 0
175 196 0
170 191 0
174 195 0
170 191 0
172 193 0
170 191 0
172 193 0
173 195 0
173 195 0
173 194 0
171 192 0
175 196 0
179 199 0
170 191 0
171 193 0
172 193 0
175 195 0
169 190 0
170 191 0
172 192 0
170 191 0
168 188 0
172 193 0
168 188 0
171 191 0
169 189 0
170 190 0
166 186 0
173 193 0
166 186 0
165 185 0
165 185 0
165 185 0
168 188 0
171 191 0
162 183 0
161 181 0
160 179 0
159 179 0
160 180 0
160 180 0
161 180 0
159 179 0
160 180 0
162 182 0
164 184 0
159 180 0
160 180 0
159 179 0
154 175 0
153 173 0
154 175 0
157 177 0
157 177 0
159 179 0
154 175 0
155 176 0
162 182 0
165 185 0
151 172 0
156 177 0
164 184 0
159 180 0
153 174 0
153 175 0
157 178 0
152 173 0
145 165 0
145 166 0
144 166 0
148 170 0
154 174 0
145 166 0
141 162 0
150 171 0
150 170 0
139 159 0
141 161 0
142 163 0
143 164 0
140 162 0
146 168 0
145 165 0
133 154 0
135 156 0
134 154 0
132 152 0
141 161 0
127 147 0
128 147 0
120 139 0
130 151 0
129 148 0
122 140 0
125 145 0
132 152 0
122 141 0
117 135 0
107 125 0
118 137 0
112 131 0
107 125 0
113 131 0
111 128 0
109 126 0
92 107 0
90 106 0
84 98 0
101 116 0
93 108 0
82 97 0
73 87 0
75 88 18
68 85 44
53 75 60
41 66 60
43 69 65
48 76 76
45 71 72
47 74 74
42 68 60
45 72 62
47 75 70
46 73 72
42 69 44
46 74 67
47 74 72
47 75 78
43 70 60
43 68 65
46 73 63
46 73 67
44 70 57
47 74 78
48 76 72
44 71 60
43 69 60
42 68 54
42 67 62
45 71 62
44 71 62
45 72 67
43 68 67
40 64 54
42 64 51
49 67 44
58 71 18
60 68 8
87 95 0
82 92 0
74 83 0
84 94 0
74 83 0
85 98 0
81 90 0
82 93 0
93 106 0
105 118 0
88 99 0
88 99 0
91 105 0
92 104 0
90 101 0
101 112 0
100 111 0
99 112 0
105 118 0
113 124 0
110 123 0
121 135 0
104 119 0
112 123 0
114 122 0
114 127 0
125 139 0
113 126 0
125 139 0
115 129 0
115 127 0
121 132 0
116 128 0
117 129 0
116 128 0
128 141 0
100 111 0
108 117 0
123 133 0
131 141 0
119 130 0
120 128 0
126 136 0
102 112 0
114 123 0
118 126 0
108 117 0
102 108 0
122 129 0
115 123 0
123 131 0
121 127 0
122 128 0
116 124 0
112 118 0
114 118 0
122 129 0
115 118 0
108 112 0
119 122 0
103 100 0
116 116 0
112 115 0
104 106 0
122 126 0
105 105 0
104 104 16
81 77 16
74 67 0
75 68 0
93 85 0
76 69 11
85 80 0
100 91 11
99 92 16
98 90 0
86 81 0
92 86 0
94 87 0
95 89 0
98 91 0
89 83 0
96 88 0
100 94 0
104 95 0
112 104 0
96 88 0
112 107 0
103 97 0
101 94 8
110 102 0
108 101 0
97 92 0
108 102 8
110 103 0
112 106 0
116 110 0
108 103 0
106 101 0
117 110 0
105 100 0
123 115 0
121 117 0
109 104 0
125 118 16
122 115 11
111 106 0
120 113 0
129 122 0
120 115 0
130 125 16
128 121 16
125 118 19
123 117 11
120 114 11
120 113 19
120 115 19
117 112 11
121 115 0
131 125 28
125 119 25
124 117 22
127 120 19
124 118 22
127 120 22
130 123 16
131 125 25
123 119 25
127 121 19
138 132 34
133 126 19
129 122 30
121 116 22
127 123 22
130 124 25
130 122 25
134 127 32
124 119 19
128 121 22
125 118 30
122 117 30
130 124 34
126 119 22
130 124 25
127 121 30
138 132 36
131 125 34
130 123 36
126 119 34
128 122 37
128 122 25
125 118 44
130 122 32
129 123 22
126 120 25
134 128 34
127 121 34
130 123 32
130 125 28
128 125 28
131 122 34
130 124 39
131 124 28
133 127 32
131 124 37
130 124 30
130 124 39
127 120 42
135 128 37
124 118 32
120 115 32
128 123 37
129 122 34
136 131 39
126 120 39
125 119 36
123 115 36
119 112 32
118 113 39
124 119 41
127 122 41
122 117 30
173 197 0
176 198 0
175 198 0
173 197 0
173 197 0
173 197 0
175 197 0
172 196 0
174 197 0
169 193 0
172 195 0
174 197 0
174 197 0
173 197 0
176 198 0
174 197 0
172 196 0
172 195 0
173 197 0
172 195 0
173 197 0
172 195 0
174 197 0
173 196 0
174 197 0
173 197 0
172 195 0
174 197 0
175 198 0
171 194 0
173 196 0
172 196 0
173 197 0
172 196 0
172 195 0
171 195 0
172 195 0
173 196 0
173 197 0
173 196 0
173 196 0
173 197 0
175 198 0
173 196 0
175 197 0
172 196 0
175 197 0
171 195 0
171 195 0
173 196 0
172 194 0
173 195 0
173 196 0
173 196 0
175 197 0
171 194 0
172 195 0
173 196 0
171 194 0
174 196 0
171 194 0
174 196 0
173 195 0
171 194 0
169 192 0
174 196 0
174 197 0
170 193 0
173 195 0
174 197 0
172 195 0
174 195 0
174 195 0
173 195 0
176 198 0
172 193 0
172 193 0
175 196 0
176 197 0
171 192 0
173 195 0
171 192 0
169 189 0
171 192 0
172 192 0
172 192 0
171 191 0
169 190 0
165 185 0
166 187 0
170 190 0
170 190 0
167 188 0
169 189 0
172 192 0
172 192 0
171 190 0
162 182 0
167 187 0
170 190 0
163 182 0
164 184 0
168 188 0
167 188 0
166 185 0
165 184 0
163 184 0
167 186 0
164 183 0
158 178 0
165 185 0
155 174 0
154 175 0
160 180 0
162 182 0
166 186 0
159 179 0
157 177 0
145 165 0
161 181 0
152 172 0
158 178 0
149 169 0
160 180 0
152 173 0
156 176 0
157 178 0
153 174 0
153 174 0
157 177 0
155 176 0
153 174 0
154 175 0
144 165 0
154 175 0
150 172 0
160 181 0
155 177 0
152 173 0
148 168 0
152 173 0
144 165 0
149 170 0
143 163 0
145 166 0
146 167 0
148 169 0
148 169 0
144 164 0
135 156 0
145 166 0
142 163 0
145 166 0
144 164 0
142 162 0
136 156 0
130 150 0
136 155 0
132 151 0
128 148 0
121 141 0
124 144 0
129 149 0
127 147 0
129 147 0
115 134 0
121 140 0
117 135 0
110 127 0
121 138 0
114 131 0
113 131 0
117 135 0
104 120 0
105 121 0
92 108 0
92 108 0
95 111 0
97 110 0
79 95 0
82 96 0
85 101 0
74 88 0
80 92 0
78 90 0
65 77 0
71 84 36
56 72 44
39 62 51
38 62 44
44 71 54
43 69 54
42 67 76
44 71 65
38 62 44
43 68 47
45 72 65
42 69 60
47 75 78
44 70 62
42 68 47
42 68 54
44 70 65
41 67 65
43 68 60
44 71 62
43 69 54
40 64 51
39 62 57
40 64 60
44 68 62
37 55 40
55 71 31
56 68 36
60 66 0
72 80 0
76 84 0
61 72 0
81 93 0
67 77 0
76 87 0
69 81 0
75 85 0
76 86 0
99 110 0
79 89 0
100 110 0
77 89 0
85 97 0
92 104 0
89 99 0
102 114 0
100 112 0
107 121 0
96 107 0
96 107 0
103 116 0
106 119 0
111 124 0
111 124 0
111 125 0
108 120 0
109 123 0
109 118 0
114 126 0
119 132 0
111 122 0
117 132 0
115 126 0
111 123 0
119 131 0
110 120 0
108 120 0
115 127 0
120 132 0
120 132 0
127 138 0
122 132 0
119 130 0
119 128 0
111 121 0
109 117 0
110 121 0
109 116 0
114 119 0
115 124 0
115 122 0
122 131 0
114 121 0
113 122 0
111 116 0
104 111 0
109 112 0
115 119 0
103 105 0
110 112 0
108 107 0
108 109 0
124 125 0
116 119 0
113 117 0
105 107 0
110 112 0
106 106 0
107 108 0
99 97 0
86 82 11
78 70 11
86 77 11
75 69 11
86 78 11
79 75 0
88 80 0
94 86 11
93 85 3
94 85 0
98 91 0
99 93 0
85 78 0
95 88 0
102 94 0
89 85 0
96 89 0
105 99 0
99 90 0
110 102 0
115 106 0
108 100 0
112 103 0
111 106 0
106 98 0
119 111 0
103 97 0
113 107 0
108 101 0
113 105 0
107 101 0
125 116 0
128 121 0
111 106 11
109 105 0
119 113 0
113 108 0
120 114 0
117 110 11
113 107 0
112 107 11
126 120 16
113 105 11
116 111 0
121 115 11
115 107 0
126 120 19
106 101 11
127 118 16
123 117 11
126 120 16
114 108 0
122 115 16
132 124 16
123 116 22
123 116 22
118 113 11
120 115 16
125 119 32
125 119 25
126 119 19
126 119 32
123 117 16
122 115 19
125 118 16
128 121 19
125 120 19
126 120 16
131 125 30
129 122 28
119 112 25
127 121 22
127 121 25
128 122 28
123 116 22
127 120 30
134 128 32
113 106 25
127 121 28
125 119 37
129 122 28
135 128 37
130 125 30
122 116 30
126 120 25
135 129 28
126 119 22
125 120 37
124 117 39
126 121 28
130 123 25
133 127 39
127 119 30
127 121 34
127 121 34
127 121 22
135 127 45
129 121 39
131 124 44
130 124 39
127 120 39
127 121 41
130 122 37
137 129 42
127 119 41
129 124 37
122 116 39
124 117 30
131 125 37
119 113 30
132 125 39
113 106 37
123 117 32
119 114 39
173 197 0
174 197 0
174 197 0
174 198 0
174 197 0
175 198 0
173 196 0
175 198 0
173 197 0
174 198 0
173 196 0
174 197 0
174 197 0
174 197 0
175 198 0
172 196 0
171 195 0
174 197 0
173 196 0
174 197 0
174 197 0
173 196 0
174 197 0
174 197 0
172 196 0
171 195 0
175 197 0
173 196 0
173 197 0
170 194 0
172 196 0
175 198 0
174 197 0
172 196 0
173 196 0
171 195 0
175 198 0
175 198 0
174 197 0
175 198 0
175 197 0
175 198 0
175 198 0
172 196 0
173 196 0
175 197 0
172 195 0
170 193 0
176 198 0
173 195 0
172 195 0
172 195 0
172 195 0
169 193 0
169 192 0
173 195 0
174 196 0
172 195 0
171 193 0
172 194 0
174 196 0
174 196 0
175 197 0
174 196 0
172 194 0
171 193 0
174 196 0
172 194 0
174 196 0
172 194 0
176 197 0
172 194 0
173 193 0
177 199 0
173 193 0
173 194 0
171 192 0
172 193 0
177 197 0
172 193 0
174 195 0
169 189 0
171 191 0
169 190 0
173 193 0
171 191 0
171 192 0
171 191 0
173 193 0
167 187 0
167 187 0
172 191 0
164 184 0
164 184 0
162 182 0
166 185 0
157 176 0
170 189 0
167 187 0
168 187 0
161 180 0
164 183 0
160 179 0
160 180 0
160 180 0
157 176 0
159 180 0
159 179 0
162 182 0
160 179 0
158 178 0
153 173 0
164 183 0
155 175 0
160 180 0
161 181 0
151 170 0
156 176 0
160 180 0
161 181 0
159 179 0
160 179 0
150 171 0
155 175 0
148 168 0
161 181 0
162 183 0
153 174 0
151 171 0
158 178 0
147 167 0
153 173 0
152 173 0
155 175 0
148 168 0
149 170 0
145 167 0
149 171 0
150 171 0
152 174 0
147 167 0
147 168 0
149 170 0
148 168 0
156 178 0
138 159 0
147 167 0
146 167 0
152 173 0
146 167 0
146 166 0
143 164 0
133 154 0
141 162 0
134 154 0
137 156 0
129 149 0
140 160 0
127 148 0
131 151 0
119 138 0
128 148 0
130 150 0
127 146 0
113 133 0
124 143 0
122 140 0
123 142 0
105 123 0
102 119 0
120 138 0
109 126 0
105 122 0
121 138 0
97 115 0
89 104 0
100 117 0
91 106 0
101 118 0
94 110 0
82 95 0
88 103 0
77 90 0
83 97 0
74 87 0
70 83 0
71 83 0
65 75 0
68 79 0
54 65 0
52 65 0
66 78 0
63 77 0
51 68 31
38 57 36
46 67 47
38 62 36
41 65 51
36 59 40
39 62 54
38 62 51
40 65 51
38 61 54
36 57 47
37 59 51
42 61 47
47 65 44
36 53 40
41 56 36
58 66 31
54 62 0
54 62 0
56 65 0
81 91 0
71 82 0
60 68 0
62 72 0
67 74 0
71 82 0
63 73 0
78 88 0
72 82 0
76 87 0
80 90 0
88 98 0
90 99 0
89 102 0
99 111 0
96 107 0
101 111 0
98 109 0
93 106 0
90 101 0
112 124 0
98 110 0
107 121 0
105 115 0
99 112 0
103 117 0
118 132 0
107 119 0
123 137 0
115 127 0
107 120 0
120 134 0
132 148 0
113 125 0
125 136 0
114 128 0
127 140 0
117 130 0
123 136 0
111 122 0
119 133 0
117 127 0
122 135 0
107 118 0
120 133 0
107 118 0
108 116 0
110 117 0
108 117 0
114 123 0
116 126 0
118 126 0
112 117 0
114 121 0
108 115 0
115 119 0
110 114 0
111 117 0
109 113 0
110 115 0
111 116 0
112 117 0
104 108 0
117 122 0
112 116 0
100 103 0
107 110 0
109 111 0
115 116 0
103 104 0
96 97 0
102 101 0
105 102 0
105 102 0
89 89 0
99 95 19
82 77 11
76 68 0
91 84 0
76 68 0
91 85 11
86 80 8
94 87 11
96 90 0
78 71 0
98 92 0
89 80 0
96 89 0
101 94 0
94 87 0
103 97 0
92 87 0
99 93 0
96 89 0
103 95 0
97 91 0
95 88 0
109 102 0
99 93 0
105 98 0
107 100 0
107 100 0
105 100 0
117 110 0
118 109 0
107 101 0
114 106 0
115 108 0
107 102 0
104 99 0
113 107 0
109 104 16
110 103 11
124 117 11
110 106 0
129 121 11
117 111 0
117 111 11
124 118 22
131 125 11
116 109 16
124 118 11
123 116 25
128 121 19
118 110 11
129 123 28
126 119 25
131 123 22
120 111 19
126 120 16
127 120 22
121 115 22
124 118 16
123 116 32
126 120 19
123 117 11
131 124 22
126 120 16
127 120 28
123 117 28
125 119 19
127 121 28
128 122 30
126 121 19
124 117 19
122 115 25
136 129 34
133 126 32
129 121 22
122 116 22
138 132 32
129 124 28
124 118 25
124 119 32
127 122 28
130 125 25
132 126 30
123 118 32
134 128 32
133 127 32
123 118 25
124 120 16
133 127 32
130 124 32
133 127 34
117 112 32
128 122 32
132 125 41
126 121 37
128 123 32
126 120 36
129 122 39
122 117 30
126 118 39
117 112 36
125 118 32
123 114 30
125 119 42
133 128 39
118 113 28
133 127 32
118 112 44
114 108 36
128 122 39
121 114 41
121 114 34
122 117 42
176 198 0
173 197 0
174 197 0
175 198 0
175 198 0
174 198 0
173 196 0
173 196 0
172 196 0
173 196 0
173 197 0
174 198 0
174 198 0
174 198 0
172 196 0
175 197 0
170 194 0
174 197 0
173 197 0
173 197 0
172 196 0
175 198 0
171 195 0
173 197 0
174 197 0
175 198 0
173 196 0
173 196 0
175 198 0
173 197 0
173 196 0
173 196 0
172 196 0
170 194 0
172 195 0
174 197 0
175 198 0
176 198 0
172 195 0
175 197 0
173 196 0
171 195 0
172 196 0
175 197 0
174 196 0
174 197 0
172 195 0
174 196 0
172 195 0
172 195 0
172 195 0
175 197 0
174 196 0
175 196 0
171 194 0
174 197 0
170 192 0
173 195 0
175 196 0
170 192 0
172 195 0
175 196 0
171 193 0
173 195 0
172 195 0
175 196 0
173 195 0
173 194 0
173 194 0
174 196 0
175 196 0
173 194 0
174 195 0
172 193 0
175 196 0
171 192 0
175 196 0
176 196 0
170 190 0
171 192 0
172 193 0
170 190 0
173 194 0
170 190 0
173 192 0
173 194 0
173 193 0
172 192 0
169 189 0
169 189 0
166 185 0
162 182 0
164 183 0
165 184 0
164 184 0
170 189 0
168 188 0
165 185 0
167 186 0
164 183 0
163 182 0
163 182 0
164 184 0
161 180 0
164 183 0
164 184 0
156 174 0
157 177 0
165 185 0
153 173 0
156 176 0
153 172 0
153 173 0
153 172 0
156 176 0
162 183 0
159 178 0
156 176 0
156 176 0
155 175 0
157 178 0
158 178 0
152 172 0
155 176 0
165 185 0
157 177 0
152 173 0
150 171 0
151 171 0
147 170 0
148 169 0
152 172 0
147 168 0
149 170 0
157 177 0
140 160 0
152 173 0
152 172 0
147 168 0
145 166 0
147 168 0
143 163 0
144 164 0
142 162 0
148 169 0
146 167 0
145 167 0
146 167 0
135 155 0
145 165 0
138 158 0
144 165 0
133 154 0
142 162 0
135 156 0
140 161 0
138 158 0
130 151 0
141 161 0
141 161 0
141 161 0
125 144 0
130 148 0
133 152 0
123 142 0
125 144 0
113 132 0
117 135 0
117 136 0
124 142 0
117 134 0
113 131 0
108 124 0
116 132 0
114 131 0
94 108 0
107 123 0
107 123 0
99 114 0
99 115 0
78 93 0
77 92 0
91 106 0
100 115 0
78 91 0
76 90 0
75 87 0
79 90 0
84 95 0
75 86 0
68 79 0
71 82 0
69 79 0
64 73 0
61 72 0
51 59 0
60 69 0
47 59 0
44 54 0
47 54 0
47 58 18
43 48 0
48 56 0
54 61 0
62 71 0
51 60 0
76 84 0
66 75 0
54 63 0
61 69 0
57 66 0
67 76 0
68 77 0
56 66 0
71 81 0
61 73 0
67 79 0
71 83 0
79 90 0
82 91 0
75 87 0
88 99 0
76 86 0
86 99 0
99 111 0
86 99 0
96 106 0
81 94 0
105 118 0
106 116 0
96 108 0
99 113 0
110 121 0
100 112 0
99 110 0
109 121 0
96 109 0
107 118 0
118 131 0
112 127 0
121 136 0
116 128 0
113 127 0
106 119 0
116 129 0
116 128 0
116 130 0
118 130 0
108 121 0
119 131 0
111 122 0
117 129 0
121 134 0
114 127 0
130 140 0
115 127 0
111 122 0
112 123 0
118 128 0
115 124 0
119 129 0
111 122 0
118 124 0
119 129 0
116 125 0
129 140 0
102 107 0
119 126 0
118 124 0
120 126 0
121 126 0
103 107 0
115 120 0
124 126 0
113 117 0
110 115 0
107 110 0
103 109 0
111 111 0
116 119 0
102 104 0
108 111 0
107 110 0
99 100 0
109 107 0
94 95 0
102 100 0
98 97 0
98 98 0
98 94 0
89 81 0
78 70 0
73 67 0
89 79 0
78 71 0
82 75 0
81 73 0
90 82 0
88 81 0
91 83 0
90 83 0
87 79 0
98 89 0
93 86 0
93 84 0
95 88 0
104 96 0
91 85 0
100 91 0
107 100 0
104 96 0
99 93 0
116 109 0
109 99 0
103 95 0
105 99 0
106 96 0
111 104 0
106 98 11
118 108 0
111 103 0
108 103 11
109 102 0
110 105 0
116 109 0
116 109 11
105 99 0
112 107 11
118 110 0
110 104 11
125 117 19
116 110 11
121 115 0
120 113 0
116 109 16
120 114 19
118 113 16
112 107 0
123 118 11
116 109 11
120 113 11
119 111 16
122 114 25
117 111 19
111 106 11
117 111 19
124 118 11
127 121 25
120 114 16
125 120 16
128 122 28
126 118 25
122 115 19
115 108 11
128 120 19
131 124 30
124 118 19
131 124 28
120 115 32
131 123 39
117 112 0
127 122 30
117 113 0
130 123 28
114 107 34
124 116 32
121 115 30
134 129 32
126 119 36
128 122 28
120 115 22
132 124 34
132 126 36
125 118 25
123 117 25
119 114 34
131 125 32
119 112 19
132 123 30
127 120 28
126 119 36
124 118 30
121 114 42
130 124 37
128 122 36
128 120 34
120 114 32
132 126 44
124 118 30
121 115 32
126 119 32
128 121 36
124 118 37
132 125 48
119 114 37
118 112 34
123 116 32
125 119 34
127 120 44
120 114 36
174 197 0
174 198 0
173 197 0
174 197 0
174 198 0
173 196 0
174 197 0
171 195 0
175 198 0
173 196 0
171 195 0
172 196 0
174 197 0
175 198 0
173 197 0
174 198 0
176 199 0
173 197 0
173 196 0
173 196 0
175 198 0
173 196 0
174 196 0
173 196 0
173 196 0
174 197 0
175 198 0
172 195 0
171 194 0
173 196 0
172 196 0
175 197 0
171 194 0
175 197 0
173 196 0
174 196 0
173 196 0
170 193 0
173 197 0
174 197 0
170 193 0
172 195 0
172 195 0
173 196 0
174 196 0
173 196 0
170 193 0
171 193 0
174 196 0
174 196 0
172 194 0
174 196 0
174 196 0
174 196 0
171 192 0
175 196 0
176 197 0
172 194 0
175 196 0
175 197 0
173 195 0
171 192 0
174 195 0
173 195 0
171 191 0
173 195 0
174 196 0
171 192 0
171 192 0
174 195 0
171 191 0
172 193 0
168 189 0
172 193 0
171 191 0
173 193 0
175 195 0
169 189 0
173 193 0
172 192 0
171 190 0
169 190 0
172 193 0
174 194 0
170 191 0
165 186 0
169 188 0
170 190 0
169 189 0
172 191 0
166 185 0
166 186 0
164 184 0
165 186 0
168 188 0
164 183 0
164 184 0
167 187 0
163 182 0
165 185 0
171 190 0
166 185 0
163 183 0
161 180 0
157 176 0
165 185 0
163 182 0
164 183 0
160 180 0
153 173 0
162 182 0
159 178 0
162 182 0
158 177 0
164 184 0
159 179 0
160 180 0
154 175 0
148 169 0
162 183 0
159 179 0
154 175 0
155 176 0
155 175 0
149 170 0
159 179 0
159 180 0
156 176 0
151 171 0
153 173 0
156 176 0
150 171 0
153 174 0
146 167 0
147 168 0
155 176 0
149 170 0
148 168 0
149 170 0
143 165 0
147 168 0
147 167 0
152 173 0
138 158 0
148 170 0
141 163 0
146 167 0
144 164 0
137 158 0
135 155 0
132 153 0
138 160 0
132 152 0
137 157 0
135 156 0
136 157 0
136 157 0
131 152 0
136 156 0
131 150 0
125 146 0
129 149 0
116 136 0
129 148 0
117 136 0
130 150 0
126 146 0
104 123 0
126 143 0
110 127 0
107 125 0
109 126 0
123 141 0
110 127 0
115 133 0
95 112 0
104 121 0
97 112 0
106 121 0
109 125 0
94 109 0
100 115 0
84 98 0
95 110 0
87 101 0
90 105 0
72 85 0
86 99 0
82 95 0
73 85 0
67 80 0
70 81 0
65 76 0
69 80 0
65 76 0
64 75 0
69 79 0
64 73 0
61 72 0
54 64 0
68 80 0
50 58 0
59 68 0
52 60 0
70 79 0
63 72 0
56 65 0
84 94 0
59 70 0
76 86 0
59 69 0
77 86 0
65 74 0
69 78 0
79 90 0
76 85 0
87 98 0
85 95 0
80 91 0
87 99 0
86 97 0
79 90 0
84 96 0
91 103 0
102 115 0
89 102 0
91 100 0
88 99 0
104 115 0
108 119 0
104 116 0
96 107 0
97 110 0
113 128 0
106 118 0
109 121 0
105 119 0
91 103 0
98 111 0
110 124 0
118 131 0
113 129 0
119 131 0
119 133 0
109 121 0
105 116 0
116 129 0
112 123 0
119 130 0
110 121 0
115 127 0
127 141 0
115 126 0
113 127 0
121 133 0
116 127 0
123 137 0
126 138 0
125 138 0
111 123 0
126 138 0
119 128 0
119 127 0
125 133 0
109 119 0
132 141 0
125 131 0
111 120 0
116 122 0
117 126 0
109 115 0
119 124 0
116 122 0
102 105 0
114 122 0
109 112 0
122 127 0
116 118 0
115 121 0
120 122 0
104 108 0
101 105 0
107 107 0
108 110 0
101 101 0
94 93 0
105 105 0
92 90 0
96 94 0
103 102 0
88 86 0
104 102 0
78 74 0
79 73 11
88 79 0
75 66 0
78 71 0
92 84 0
97 87 0
82 76 0
85 77 0
91 81 0
98 90 0
101 93 0
108 100 0
103 97 0
94 86 0
94 86 0
105 96 0
94 86 0
102 95 0
96 89 0
95 84 0
107 99 0
100 91 0
99 91 0
108 100 0
112 105 0
112 103 0
103 94 0
111 106 0
106 99 0
108 100 0
108 101 0
113 108 0
117 111 0
115 111 0
115 107 11
108 102 0
121 114 0
116 108 16
109 100 11
114 107 0
112 105 0
114 107 0
120 115 11
117 110 0
116 109 16
122 116 11
118 111 16
120 114 11
120 114 16
114 109 11
119 112 16
116 109 16
122 115 28
126 120 22
120 114 16
112 104 28
121 114 22
127 120 22
120 114 28
112 106 11
124 117 22
136 129 30
123 116 25
114 108 16
124 117 22
130 124 28
118 112 22
130 123 34
123 115 22
125 118 32
117 112 30
124 118 30
131 124 28
129 122 39
116 109 22
125 121 19
122 116 36
125 119 30
114 108 28
127 121 22
130 123 36
119 112 25
121 114 32
124 117 34
126 119 37
135 129 45
126 121 36
124 117 30
131 123 28
127 121 34
118 112 36
116 110 30
120 114 41
122 115 36
124 118 36
131 125 36
119 115 36
122 116 44
128 123 36
122 117 34
124 119 51
106 101 16
126 120 42
120 114 32
118 112 34
111 106 19
116 110 34
173 197 0
173 197 0
173 197 0
174 197 0
171 195 0
175 198 0
173 197 0
175 198 0
172 195 0
173 197 0
174 197 0
171 195 0
176 198 0
174 197 0
174 197 0
172 196 0
171 194 0
173 196 0
174 198 0
173 197 0
172 195 0
173 197 0
173 196 0
172 195 0
173 196 0
174 197 0
174 197 0
172 196 0
173 196 0
172 195 0
170 193 0
175 198 0
174 196 0
175 197 0
171 194 0
173 196 0
171 194 0
173 196 0
174 197 0
172 195 0
174 197 0
172 195 0
174 196 0
173 195 0
171 194 0
168 190 0
172 194 0
175 198 0
173 195 0
172 194 0
175 196 0
175 197 0
171 193 0
175 197 0
175 197 0
167 188 0
174 195 0
176 197 0
172 194 0
168 189 0
173 194 0
173 194 0
172 193 0
173 195 0
173 194 0
172 193 0
175 196 0
174 195 0
170 191 0
172 193 0
171 192 0
169 190 0
171 192 0
175 196 0
174 194 0
165 186 0
172 193 0
168 188 0
169 189 0
168 187 0
168 188 0
166 185 0
169 189 0
171 191 0
168 187 0
172 192 0
170 190 0
163 183 0
163 183 0
170 190 0
169 188 0
170 189 0
171 189 0
167 187 0
165 184 0
164 183 0
164 184 0
164 183 0
154 174 0
165 185 0
168 186 0
163 183 0
164 183 0
159 178 0
160 179 0
164 184 0
154 174 0
159 179 0
156 176 0
163 182 0
149 168 0
160 179 0
154 174 0
156 175 0
157 177 0
149 169 0
157 177 0
147 167 0
151 173 0
147 167 0
154 173 0
155 176 0
157 179 0
156 177 0
158 178 0
150 171 0
151 172 0
151 172 0
156 176 0
147 168 0
152 174 0
143 164 0
150 171 0
141 161 0
146 168 0
151 171 0
146 168 0
148 169 0
151 172 0
144 165 0
141 161 0
147 166 0
146 167 0
148 169 0
148 169 0
143 164 0
149 169 0
156 176 0
141 162 0
135 156 0
130 150 0
144 164 0
137 159 0
130 151 0
125 145 0
140 160 0
125 145 0
128 150 0
135 155 0
129 149 0
125 145 0
126 145 0
112 131 0
132 151 0
122 140 0
120 139 0
120 138 0
110 128 0
115 133 0
122 141 0
121 139 0
119 136 0
106 124 0
114 131 0
100 117 0
100 117 0
108 125 0
114 130 0
101 117 0
98 114 0
104 120 0
103 119 0
90 105 0
103 118 0
88 104 0
93 107 0
92 107 0
76 92 0
83 95 0
85 98 0
78 91 0
76 87 0
89 101 0
74 86 0
76 89 0
68 82 0
67 79 0
62 73 0
67 77 0
78 89 0
72 84 0
62 72 0
64 74 0
58 68 0
61 72 0
69 80 0
72 82 0
68 77 0
52 65 0
65 73 0
80 91 0
64 75 0
70 81 0
81 92 0
75 85 0
85 95 0
71 83 0
80 93 0
80 91 0
72 85 0
90 105 0
84 97 0
92 105 0
88 100 0
100 113 0
94 107 0
97 111 0
94 105 0
95 109 0
109 122 0
104 116 0
96 108 0
98 110 0
109 123 0
107 122 0
111 125 0
100 114 0
105 118 0
108 119 0
110 121 0
112 125 0
111 122 0
107 118 0
111 123 0
112 122 0
116 129 0
123 136 0
120 133 0
112 123 0
126 138 0
116 129 0
114 127 0
115 125 0
112 121 0
125 138 0
122 132 0
116 127 0
108 118 0
122 134 0
122 134 0
119 130 0
119 130 0
126 135 0
118 124 0
114 124 0
115 124 0
120 130 0
117 124 0
110 118 0
114 121 0
119 128 0
114 121 0
106 111 0
102 106 0
117 125 0
110 115 0
108 112 0
111 115 0
104 107 0
111 114 0
109 112 0
106 107 0
103 106 0
98 98 0
101 105 0
104 103 0
98 98 0
104 106 0
91 90 0
87 84 0
99 99 0
99 98 0
93 90 0
92 89 0
84 79 0
77 71 0
86 74 0
80 71 0
77 68 0
84 77 11
85 76 0
86 79 0
95 88 0
89 81 0
78 69 0
102 93 0
101 93 0
85 79 0
97 89 0
92 83 0
98 89 0
101 92 0
106 94 0
98 92 0
95 88 0
105 97 0
105 96 0
103 94 0
104 97 0
102 93 0
106 99 0
104 97 0
105 99 11
107 99 0
102 94 0
106 100 0
113 104 11
106 98 11
113 106 0
110 102 11
118 112 0
113 107 11
117 109 19
119 111 0
109 102 11
114 106 0
121 115 11
116 108 0
111 104 16
124 117 11
108 102 0
118 111 16
122 116 16
119 111 11
117 109 0
127 123 11
126 120 30
120 115 11
121 114 32
125 118 16
116 108 22
117 111 25
113 105 25
127 120 19
122 116 19
119 113 22
121 114 19
128 121 30
117 111 25
128 121 25
117 111 25
124 117 25
125 119 37
122 114 36
119 112 28
117 111 30
116 110 25
128 122 32
124 117 34
128 122 32
129 122 37
128 121 36
124 118 32
123 115 32
124 117 34
128 120 34
114 109 22
127 119 32
132 125 39
122 116 32
128 120 39
123 115 32
128 123 36
118 111 28
123 116 34
121 116 30
126 120 34
119 112 34
119 114 34
123 117 30
128 122 34
136 130 37
129 122 42
118 112 34
122 117 41
119 113 30
123 117 42
116 110 28
117 112 36
118 114 34
173 197 0
173 197 0
174 197 0
173 196 0
173 196 0
171 194 0
175 198 0
174 197 0
174 197 0
174 196 0
171 196 0
173 197 0
174 197 0
173 196 0
173 196 0
173 196 0
171 194 0
174 196 0
173 196 0
173 197 0
174 197 0
173 196 0
172 196 0
175 198 0
172 196 0
173 196 0
173 197 0
174 198 0
175 198 0
172 195 0
173 196 0
175 197 0
172 195 0
174 196 0
174 197 0
173 195 0
172 195 0
172 195 0
174 197 0
175 197 0
174 197 0
176 198 0
170 192 0
173 196 0
173 196 0
174 196 0
175 196 0
170 193 0
173 196 0
173 196 0
175 197 0
172 194 0
172 194 0
174 195 0
177 198 0
174 196 0
175 196 0
174 196 0
173 195 0
174 195 0
176 197 0
169 190 0
173 194 0
169 190 0
177 197 0
172 193 0
173 193 0
170 191 0
173 194 0
169 190 0
174 195 0
169 190 0
170 191 0
171 191 0
168 188 0
170 189 0
165 186 0
171 190 0
168 188 0
171 191 0
168 188 0
169 189 0
175 194 0
158 178 0
168 188 0
166 186 0
161 180 0
166 186 0
168 188 0
167 187 0
160 180 0
164 184 0
165 185 0
166 185 0
166 186 0
157 176 0
163 181 0
162 182 0
164 184 0
158 178 0
164 185 0
155 175 0
159 179 0
157 177 0
160 180 0
155 175 0
155 174 0
149 169 0
158 178 0
166 185 0
158 178 0
155 175 0
163 182 0
159 180 0
155 175 0
161 180 0
159 179 0
158 179 0
155 175 0
161 181 0
156 177 0
153 174 0
158 178 0
159 179 0
157 178 0
157 177 0
146 167 0
154 175 0
152 173 0
147 168 0
159 179 0
138 160 0
150 171 0
150 170 0
151 173 0
158 179 0
150 171 0
152 174 0
142 163 0
152 173 0
151 172 0
152 173 0
148 170 0
140 161 0
149 170 0
140 160 0
135 157 0
139 159 0
134 154 0
142 163 0
134 155 0
131 152 0
140 160 0
142 162 0
140 161 0
129 150 0
135 155 0
133 152 0
142 163 0
128 147 0
123 143 0
123 142 0
120 139 0
128 147 0
113 133 0
129 148 0
120 139 0
108 128 0
118 136 0
113 130 0
113 131 0
102 119 0
111 128 0
121 138 0
108 125 0
100 117 0
115 133 0
112 129 0
107 123 0
103 119 0
96 110 0
107 122 0
101 116 0
98 113 0
88 103 0
80 94 0
89 104 0
76 90 0
81 95 0
85 99 0
89 104 0
86 99 0
78 90 0
70 83 0
71 84 0
87 101 0
86 97 0
64 76 0
71 83 0
80 92 0
73 84 0
73 84 0
81 92 0
77 89 0
76 88 0
78 92 0
63 74 0
77 88 0
81 94 0
75 88 0
86 98 0
79 92 0
86 98 0
89 100 0
91 103 0
81 94 0
91 103 0
96 111 0
85 99 0
99 112 0
87 100 0
86 96 0
102 115 0
104 118 0
99 112 0
100 114 0
91 104 0
94 106 0
112 126 0
101 115 0
111 125 0
97 110 0
99 113 0
108 120 0
116 130 0
110 123 0
112 127 0
112 125 0
105 116 0
102 112 0
105 119 0
111 125 0
119 131 0
107 120 0
116 130 0
114 127 0
124 137 0
103 115 0
119 133 0
125 138 0
116 129 0
109 119 0
120 133 0
113 125 0
125 138 0
108 122 0
115 127 0
123 135 0
127 139 0
105 115 0
122 133 0
121 133 0
123 133 0
113 123 0
112 123 0
118 128 0
105 115 0
113 122 0
121 128 0
116 123 0
114 121 0
104 112 0
116 124 0
107 112 0
118 124 0
120 125 0
107 111 0
114 116 0
120 124 0
118 124 0
101 105 0
109 111 0
110 112 0
103 105 0
98 101 0
110 109 0
119 122 0
94 90 0
97 96 0
109 109 0
81 78 0
109 108 0
79 77 0
101 99 0
72 65 0
88 83 0
91 87 0
77 68 0
75 65 11
79 70 0
89 82 11
85 77 0
77 69 0
79 70 0
83 77 0
95 86 0
94 83 0
89 82 0
103 94 0
93 84 0
94 85 0
96 89 0
101 91 0
101 94 0
110 100 0
112 102 0
106 94 0
101 91 0
104 96 0
110 103 0
110 101 0
115 107 0
112 104 0
102 96 11
105 99 0
105 97 0
110 101 0
121 115 0
110 102 0
98 92 0
109 103 0
105 95 11
115 106 11
115 107 19
112 105 11
120 112 0
107 99 11
104 97 0
114 108 0
111 105 0
119 111 22
124 116 25
115 108 0
118 110 19
119 112 22
125 116 25
118 111 16
112 106 16
115 108 19
121 114 28
123 118 19
122 114 22
124 117 19
121 115 28
118 112 22
118 112 19
125 116 34
126 119 34
126 119 22
124 118 25
119 113 28
125 117 36
117 111 19
120 113 22
129 121 28
121 113 28
131 124 34
120 113 22
119 112 28
123 117 25
129 121 22
132 124 32
125 118 36
119 112 16
112 108 22
119 112 32
128 122 34
131 123 44
125 118 36
119 113 34
124 118 22
117 109 22
127 120 30
129 121 25
127 121 37
122 114 42
112 106 34
116 109 28
119 113 22
122 115 37
116 110 32
119 112 44
116 110 32
116 108 37
114 109 28
127 121 37
122 116 39
110 105 30
113 106 39
122 114 39
172 196 0
175 198 0
175 198 0
172 196 0
173 197 0
173 196 0
174 197 0
174 197 0
172 195 0
172 196 0
173 196 0
174 197 0
173 197 0
174 197 0
173 196 0
173 197 0
172 195 0
174 196 0
174 197 0
172 195 0
171 194 0
172 196 0
173 196 0
174 197 0
174 197 0
169 193 0
170 193 0
172 195 0
172 196 0
174 197 0
174 197 0
168 191 0
173 196 0
171 194 0
173 196 0
171 194 0
176 198 0
174 196 0
173 196 0
176 198 0
175 197 0
172 195 0
173 195 0
175 197 0
172 194 0
174 196 0
174 197 0
175 197 0
173 196 0
167 189 0
175 196 0
173 194 0
174 196 0
174 195 0
173 194 0
175 197 0
173 194 0
175 195 0
175 196 0
174 195 0
171 192 0
177 197 0
173 193 0
172 193 0
172 193 0
173 194 0
175 194 0
176 196 0
170 190 0
172 193 0
169 189 0
169 190 0
167 187 0
168 188 0
170 190 0
171 191 0
163 183 0
172 191 0
167 186 0
165 184 0
169 189 0
170 190 0
161 180 0
166 185 0
164 184 0
168 187 0
161 180 0
171 190 0
163 183 0
162 181 0
171 190 0
162 182 0
163 183 0
158 177 0
160 179 0
167 186 0
158 177 0
155 174 0
161 180 0
164 184 0
162 182 0
166 186 0
159 178 0
158 177 0
152 172 0
163 182 0
160 180 0
164 184 0
155 176 0
159 179 0
164 184 0
154 173 0
155 175 0
154 174 0
156 177 0
154 175 0
153 173 0
158 178 0
154 174 0
146 166 0
156 177 0
153 174 0
157 177 0
154 175 0
147 168 0
153 173 0
154 174 0
146 167 0
153 173 0
153 174 0
148 168 0
156 177 0
150 172 0
153 175 0
144 165 0
149 170 0
142 162 0
144 165 0
148 169 0
149 169 0
146 168 0
141 162 0
146 166 0
141 163 0
145 166 0
144 164 0
138 159 0
143 163 0
138 159 0
133 153 0
146 167 0
135 156 0
135 155 0
137 158 0
134 155 0
131 151 0
135 156 0
138 158 0
130 151 0
132 152 0
123 142 0
137 158 0
130 150 0
131 151 0
131 151 0
125 144 0
115 134 0
120 139 0
124 142 0
120 138 0
118 138 0
121 140 0
112 130 0
117 135 0
96 114 0
121 137 0
107 126 0
107 124 0
118 135 0
101 117 0
117 135 0
95 111 0
102 118 0
94 110 0
108 124 0
100 116 0
104 118 0
91 104 0
91 107 0
85 100 0
87 102 0
75 90 0
80 94 0
85 100 0
78 90 0
93 105 0
89 101 0
84 96 0
82 95 0
72 84 0
90 104 0
87 100 0
74 85 0
75 88 0
86 97 0
72 84 0
82 95 0
79 91 0
77 89 0
71 83 0
83 94 0
79 90 0
89 103 0
85 99 0
76 89 0
101 113 0
79 92 0
108 122 0
96 109 0
79 91 0
92 105 0
93 109 0
104 117 0
93 106 0
108 121 0
107 122 0
100 113 0
103 117 0
107 122 0
89 104 0
104 117 0
100 114 0
104 117 0
112 126 0
98 112 0
108 121 0
98 108 0
104 116 0
113 127 0
117 129 0
105 119 0
112 124 0
112 125 0
110 122 0
114 128 0
112 123 0
126 139 0
120 132 0
123 137 0
114 129 0
122 134 0
121 134 0
122 135 0
119 133 0
111 123 0
116 131 0
122 134 0
136 148 0
122 132 0
125 138 0
118 129 0
121 131 0
123 133 0
108 118 0
111 121 0
112 117 0
119 130 0
131 141 0
130 139 0
115 123 0
112 122 0
117 126 0
114 119 0
116 126 0
115 121 0
107 113 0
107 115 0
103 108 0
114 116 0
104 108 0
111 114 0
107 109 0
108 113 0
107 108 0
119 125 0
90 90 0
90 88 0
108 110 0
105 103 0
102 103 0
94 92 0
92 91 0
94 89 0
85 84 0
80 75 0
84 77 0
94 87 0
89 85 0
79 74 0
63 58 0
66 62 0
62 55 0
82 73 0
76 67 0
67 57 0
82 73 0
79 72 0
87 78 0
105 96 0
95 84 0
86 78 0
94 83 0
88 78 0
100 89 0
97 89 0
105 99 0
101 93 0
101 92 0
108 98 0
101 94 0
114 103 0
103 96 0
92 86 0
108 101 0
111 105 0
116 107 0
108 99 0
94 87 0
109 100 0
110 102 11
118 108 19
110 101 11
109 100 11
107 100 0
111 103 11
118 111 0
107 99 11
124 118 19
117 110 0
122 115 16
108 102 16
111 104 19
112 103 11
121 113 22
114 107 19
124 117 16
114 108 19
121 114 16
117 111 16
126 118 16
115 108 19
105 99 11
119 112 28
107 100 22
111 106 22
115 107 19
116 107 25
121 114 19
122 115 25
113 104 11
122 114 22
117 110 19
115 109 22
121 114 28
119 111 25
117 111 19
116 110 19
124 115 36
120 114 19
119 113 28
117 111 19
126 118 39
120 112 32
117 110 32
115 109 28
127 120 30
125 117 22
130 125 36
121 115 22
113 106 30
129 121 36
119 114 25
116 109 30
119 112 30
125 117 37
115 108 30
119 112 34
119 112 34
122 115 30
121 116 25
118 114 34
115 108 34
114 109 34
118 112 37
115 108 32
118 112 39
109 103 32
114 107 41
116 110 34
135 136 30
172 196 0
172 195 0
174 197 0
175 198 0
175 198 0
174 197 0
172 195 0
173 196 0
173 197 0
172 196 0
174 197 0
177 199 0
173 196 0
172 195 0
174 197 0
170 193 0
173 196 0
172 196 0
173 196 0
172 195 0
174 198 0
173 196 0
171 194 0
173 196 0
174 197 0
173 196 0
176 199 0
172 195 0
174 197 0
176 198 0
172 194 0
173 196 0
173 195 0
174 197 0
173 196 0
174 196 0
173 194 0
174 196 0
172 195 0
175 197 0
173 195 0
174 196 0
176 198 0
173 196 0
174 197 0
172 194 0
173 196 0
175 197 0
173 195 0
172 193 0
173 194 0
168 190 0
174 195 0
172 194 0
173 195 0
171 193 0
174 195 0
172 194 0
176 197 0
175 195 0
170 191 0
178 198 0
172 193 0
173 194 0
171 191 0
172 192 0
172 193 0
171 191 0
173 193 0
172 192 0
172 191 0
170 190 0
170 190 0
167 187 0
169 189 0
171 191 0
161 180 0
171 190 0
170 190 0
168 187 0
173 191 0
170 190 0
176 195 0
165 185 0
171 191 0
162 181 0
160 180 0
169 188 0
164 184 0
164 184 0
163 182 0
169 188 0
170 189 0
165 184 0
166 185 0
167 186 0
160 179 0
158 177 0
160 179 0
161 180 0
155 175 0
158 178 0
164 183 0
161 181 0
158 178 0
154 174 0
154 174 0
161 182 0
150 170 0
161 181 0
156 177 0
159 178 0
153 174 0
161 181 0
156 176 0
153 173 0
157 178 0
162 183 0
154 174 0
156 176 0
162 183 0
159 180 0
155 175 0
148 168 0
155 175 0
158 179 0
153 175 0
159 180 0
150 171 0
147 169 0
160 181 0
150 171 0
151 172 0
146 168 0
152 173 0
150 172 0
150 171 0
155 175 0
151 172 0
146 167 0
151 172 0
139 160 0
151 172 0
147 168 0
144 164 0
147 169 0
139 161 0
142 162 0
138 159 0
139 160 0
136 156 0
149 170 0
144 165 0
139 159 0
135 156 0
136 157 0
121 141 0
140 161 0
129 150 0
126 146 0
132 152 0
131 150 0
126 146 0
143 163 0
134 154 0
116 136 0
116 135 0
111 130 0
114 133 0
118 136 0
124 143 0
113 131 0
109 128 0
118 136 0
108 126 0
114 132 0
106 124 0
98 115 0
107 124 0
106 124 0
104 121 0
105 121 0
94 110 0
109 126 0
98 114 0
106 121 0
96 112 0
95 110 0
81 97 0
95 110 0
98 112 0
99 114 0
82 97 0
84 99 0
84 98 0
77 91 0
92 106 0
88 100 0
85 99 0
82 95 0
90 104 0
87 100 0
79 93 0
97 110 0
82 96 0
77 89 0
87 100 0
82 94 0
94 107 0
76 89 0
89 101 0
85 99 0
95 108 0
87 102 0
96 112 0
82 95 0
87 101 0
84 96 0
101 114 0
92 106 0
79 91 0
90 103 0
95 110 0
99 114 0
106 121 0
103 117 0
106 119 0
100 114 0
105 120 0
106 120 0
106 117 0
109 122 0
118 133 0
103 116 0
112 125 0
114 128 0
112 127 0
127 142 0
110 123 0
113 127 0
101 113 0
128 142 0
114 127 0
115 129 0
118 132 0
110 123 0
114 127 0
113 126 0
115 128 0
119 130 0
110 122 0
132 144 0
102 113 0
122 136 0
126 139 0
121 133 0
122 132 0
118 128 0
118 129 0
123 133 0
107 118 0
119 129 0
120 131 0
122 133 0
119 129 0
119 129 0
124 132 0
114 122 0
118 127 0
114 124 0
111 119 0
119 127 0
130 137 0
125 133 0
123 130 0
104 108 0
120 128 0
112 119 0
121 128 0
119 124 0
113 115 0
109 114 0
105 108 0
126 130 0
103 103 0
102 106 0
114 119 0
105 105 0
84 87 0
104 103 0
109 109 0
95 94 0
100 100 0
94 91 0
86 83 0
84 79 0
84 80 0
88 84 0
85 79 0
77 72 0
93 87 0
88 82 0
85 78 0
76 68 0
73 63 0
71 62 0
82 74 0
92 82 0
87 80 0
85 77 0
83 75 0
87 81 0
98 90 0
88 80 0
95 87 0
104 93 0
95 84 0
107 98 0
92 84 0
105 96 0
89 84 0
98 90 11
92 81 11
109 103 0
103 94 0
105 97 0
105 96 0
110 102 0
105 97 0
111 103 0
110 102 0
99 91 0
117 108 11
105 96 11
108 100 0
116 110 0
120 111 22
110 101 0
109 102 16
112 103 22
112 106 11
127 119 0
109 102 19
113 106 22
109 103 11
113 105 11
110 103 19
115 107 16
119 111 0
110 104 16
111 105 11
112 104 16
115 106 25
114 107 22
110 103 11
119 111 25
122 114 19
118 110 19
118 112 16
116 110 22
110 106 22
124 118 32
119 113 25
113 108 16
120 112 16
120 112 22
120 112 36
119 112 19
108 100 19
118 110 22
122 114 28
125 117 34
121 113 32
112 105 16
120 114 37
120 114 25
119 113 22
123 115 32
119 112 28
118 112 30
114 108 28
120 116 32
114 106 32
121 115 34
114 108 25
120 115 28
121 114 28
107 102 34
126 119 42
102 97 32
121 114 32
116 110 37
113 107 28
111 104 34
106 100 30
116 110 34
107 105 28
156 168 30
162 178 16
167 188 0
175 198 0
174 197 0
171 195 0
174 197 0
174 197 0
172 196 0
175 198 0
173 197 0
172 196 0
172 196 0
173 197 0
175 197 0
174 197 0
172 195 0
172 195 0
172 196 0
172 195 0
173 196 0
173 196 0
176 198 0
173 197 0
173 195 0
173 196 0
173 195 0
169 194 0
170 193 0
173 195 0
174 197 0
174 196 0
174 196 0
174 196 0
174 197 0
177 199 0
174 196 0
169 193 0
174 196 0
175 197 0
172 194 0
174 196 0
173 195 0
176 198 0
174 196 0
175 197 0
175 197 0
171 192 0
171 193 0
175 197 0
173 194 0
169 191 0
170 192 0
175 197 0
175 197 0
172 193 0
174 195 0
178 199 0
175 196 0
172 192 0
174 196 0
169 190 0
171 191 0
171 191 0
173 194 0
176 196 0
174 195 0
169 189 0
170 190 0
172 192 0
168 188 0
171 191 0
170 191 0
174 194 0
173 193 0
169 188 0
167 187 0
169 189 0
168 189 0
163 183 0
168 188 0
168 188 0
169 188 0
165 185 0
169 189 0
168 188 0
166 185 0
167 186 0
165 184 0
166 186 0
166 186 0
169 187 0
168 187 0
160 179 0
162 181 0
161 180 0
164 183 0
162 181 0
159 179 0
163 182 0
158 179 0
158 178 0
157 177 0
161 181 0
156 176 0
157 177 0
168 187 0
159 177 0
154 174 0
161 181 0
152 172 0
159 178 0
153 173 0
154 173 0
156 176 0
163 183 0
163 183 0
154 174 0
157 178 0
151 171 0
161 181 0
162 181 0
155 175 0
155 174 0
156 177 0
144 166 0
155 175 0
157 179 0
159 180 0
147 168 0
155 176 0
155 177 0
156 178 0
153 173 0
149 171 0
150 171 0
156 177 0
146 168 0
157 178 0
159 180 0
154 175 0
142 162 0
149 170 0
149 171 0
145 168 0
144 165 0
144 166 0
149 169 0
148 169 0
148 169 0
139 160 0
144 165 0
140 161 0
148 169 0
142 163 0
137 158 0
128 148 0
138 159 0
133 153 0
137 158 0
138 159 0
137 158 0
122 141 0
134 155 0
140 159 0
128 147 0
131 150 0
133 153 0
126 146 0
124 144 0
125 144 0
119 139 0
120 138 0
112 130 0
112 131 0
120 138 0
119 137 0
126 144 0
111 129 0
114 132 0
112 130 0
108 125 0
114 131 0
103 119 0
99 116 0
103 120 0
105 122 0
97 114 0
97 114 0
96 113 0
91 107 0
97 112 0
109 124 0
105 121 0
93 110 0
80 95 0
98 113 0
79 95 0
98 112 0
85 100 0
89 105 0
104 119 0
89 103 0
100 115 0
106 123 0
90 102 0
88 102 0
97 111 0
94 111 0
101 114 0
94 108 0
81 95 0
94 108 0
95 108 0
80 94 0
100 113 0
91 104 0
92 105 0
95 111 0
101 115 0
94 108 0
100 116 0
99 113 0
99 112 0
99 112 0
101 117 0
107 122 0
97 112 0
108 124 0
106 118 0
101 115 0
96 110 0
114 129 0
107 121 0
105 119 0
113 125 0
112 125 0
110 124 0
110 124 0
110 123 0
114 126 0
107 120 0
118 133 0
111 124 0
119 133 0
121 134 0
112 128 0
117 133 0
116 128 0
112 126 0
119 134 0
112 125 0
127 138 0
120 135 0
128 141 0
130 144 0
115 128 0
118 133 0
114 125 0
120 132 0
118 130 0
122 134 0
122 136 0
117 126 0
120 131 0
127 138 0
122 133 0
119 130 0
110 119 0
127 139 0
116 127 0
125 134 0
118 126 0
120 130 0
120 127 0
113 119 0
122 132 0
111 120 0
119 128 0
120 127 0
115 124 0
115 119 0
117 123 0
118 122 0
111 112 0
119 126 0
106 108 0
111 114 0
117 118 0
119 122 0
107 108 0
118 121 0
103 102 0
112 112 0
117 116 0
100 98 0
105 104 0
103 101 0
96 96 0
106 103 0
84 82 0
97 95 0
87 81 0
81 76 0
81 72 0
85 81 0
88 82 0
81 78 0
67 59 0
74 66 0
84 75 0
86 74 0
62 54 0
75 65 0
85 76 0
91 82 0
85 76 0
91 82 0
91 82 0
96 86 0
91 82 0
108 99 11
94 87 0
109 100 0
100 92 0
101 93 0
103 94 0
101 91 0
104 96 0
107 98 0
112 103 11
114 106 11
111 100 0
110 102 0
104 96 0
110 101 16
108 98 0
112 103 0
105 96 0
116 108 22
105 96 0
110 105 11
106 98 16
101 92 11
115 108 0
106 100 16
108 100 16
106 98 0
106 98 0
112 105 11
109 103 0
116 109 22
113 104 19
114 105 11
106 98 16
112 103 16
118 110 25
128 121 22
114 107 22
117 109 22
114 105 22
121 114 22
115 109 16
117 109 22
118 111 22
116 110 19
110 104 19
113 105 28
113 106 25
123 116 16
116 108 30
119 112 32
113 105 25
113 107 19
112 104 30
120 114 39
116 108 25
120 111 25
116 108 32
111 102 30
115 109 16
116 110 28
119 111 36
123 115 37
111 106 28
114 108 32
119 111 30
115 109 28
121 114 34
108 102 34
120 115 32
119 112 32
115 107 37
110 102 28
121 114 41
122 114 37
133 131 42
146 158 22
152 167 19
172 193 0
164 182 0
168 188 0
168 189 0
175 198 0
173 197 0
174 197 0
175 198 0
174 197 0
173 196 0
173 196 0
174 197 0
173 197 0
169 194 0
173 196 0
173 196 0
173 196 0
172 196 0
172 195 0
172 195 0
174 197 0
174 196 0
173 196 0
173 195 0
173 197 0
173 196 0
174 197 0
173 195 0
173 196 0
172 195 0
175 198 0
173 196 0
175 198 0
173 195 0
175 197 0
174 196 0
175 197 0
173 195 0
174 195 0
174 196 0
174 196 0
173 196 0
178 199 0
173 195 0
174 195 0
172 194 0
172 195 0
175 197 0
172 194 0
173 195 0
174 196 0
176 196 0
171 192 0
174 196 0
173 195 0
172 193 0
174 196 0
177 197 0
179 199 0
170 191 0
169 191 0
169 189 0
168 189 0
167 188 0
171 192 0
166 187 0
172 191 0
170 191 0
169 189 0
173 193 0
169 189 0
172 192 0
170 190 0
171 191 0
171 190 0
171 191 0
172 192 0
168 188 0
169 189 0
172 191 0
166 185 0
169 189 0
161 181 0
165 184 0
164 183 0
166 185 0
159 178 0
165 185 0
162 182 0
165 183 0
164 183 0
165 185 0
164 184 0
166 185 0
160 180 0
160 180 0
158 179 0
157 176 0
158 177 0
164 183 0
160 180 0
163 183 0
160 180 0
157 177 0
160 181 0
154 174 0
160 179 0
156 176 0
158 179 0
163 183 0
157 176 0
157 178 0
161 180 0
159 179 0
158 179 0
152 173 0
152 172 0
151 171 0
166 187 0
148 168 0
155 175 0
156 176 0
152 173 0
150 172 0
156 177 0
151 172 0
154 175 0
157 177 0
150 172 0
159 180 0
153 174 0
149 170 0
152 172 0
149 170 0
156 176 0
151 172 0
152 173 0
148 169 0
148 169 0
155 175 0
147 168 0
153 174 0
143 163 0
152 173 0
146 167 0
153 174 0
143 165 0
146 167 0
141 162 0
151 173 0
146 167 0
145 166 0
144 165 0
136 157 0
141 162 0
136 157 0
138 158 0
136 155 0
138 158 0
127 147 0
137 158 0
133 154 0
128 149 0
128 149 0
127 149 0
131 150 0
132 152 0
126 145 0
134 153 0
125 144 0
123 143 0
127 145 0
126 146 0
126 144 0
118 137 0
119 138 0
124 144 0
126 144 0
112 131 0
121 141 0
111 129 0
109 126 0
116 133 0
115 132 0
109 126 0
112 130 0
105 120 0
96 112 0
112 129 0
110 128 0
116 132 0
97 114 0
104 121 0
94 111 0
99 114 0
104 121 0
96 112 0
108 124 0
77 94 0
105 121 0
91 107 0
92 106 0
88 103 0
95 109 0
88 103 0
98 113 0
100 114 0
98 111 0
100 114 0
99 116 0
96 109 0
100 114 0
99 114 0
96 110 0
99 114 0
94 108 0
102 117 0
102 117 0
97 112 0
105 120 0
84 99 0
99 114 0
103 116 0
108 124 0
107 122 0
105 120 0
93 108 0
106 121 0
100 116 0
104 119 0
103 116 0
102 117 0
105 120 0
110 123 0
107 122 0
96 110 0
100 115 0
115 130 0
103 116 0
112 127 0
111 126 0
119 136 0
122 135 0
121 136 0
117 132 0
118 133 0
118 133 0
112 127 0
109 121 0
124 137 0
112 125 0
120 134 0
118 130 0
128 142 0
127 141 0
117 130 0
110 125 0
113 126 0
124 138 0
117 131 0
119 134 0
132 146 0
109 122 0
132 144 0
125 137 0
131 145 0
121 130 0
123 136 0
127 139 0
125 136 0
121 129 0
120 129 0
131 141 0
129 140 0
123 133 0
124 131 0
119 127 0
119 128 0
124 132 0
110 117 0
122 130 0
110 115 0
123 130 0
115 124 0
122 127 0
112 119 0
125 133 0
102 105 0
116 120 0
106 110 0
120 127 0
94 97 0
112 111 0
104 104 0
117 117 0
98 100 0
108 109 0
108 108 0
103 102 0
100 98 0
98 98 0
102 100 0
86 87 0
99 96 0
94 86 0
94 91 0
86 83 0
88 86 0
93 88 0
79 72 0
81 75 0
78 71 0
75 69 0
68 60 0
69 60 0
72 62 0
77 67 0
91 81 0
73 64 0
95 86 0
89 80 0
102 93 0
95 86 0
97 85 0
96 85 0
99 90 0
96 87 0
107 96 0
93 86 0
96 88 0
104 93 0
104 96 0
107 99 0
100 92 0
111 100 0
104 97 11
91 83 0
106 98 0
93 85 11
92 85 16
103 95 11
103 96 19
114 105 0
105 99 0
102 94 11
109 101 11
102 93 19
109 101 0
114 106 11
117 109 19
114 106 11
110 103 11
114 107 22
103 95 0
104 97 0
117 109 19
120 112 19
117 108 25
118 109 11
100 94 16
108 100 19
111 104 19
119 112 28
116 109 16
118 110 22
115 109 22
114 108 0
121 114 30
130 121 30
113 105 22
120 112 25
120 111 30
111 105 25
114 107 22
108 100 28
117 108 36
112 104 25
122 114 30
113 107 19
119 111 30
127 120 34
109 103 19
121 113 32
111 103 25
119 112 28
120 113 30
114 108 28
122 113 34
103 97 22
111 104 36
114 109 25
109 103 25
120 113 37
110 102 39
124 123 30
147 155 28
160 175 25
166 185 0
165 183 0
165 182 0
167 187 0
166 185 0
168 188 0
168 189 0
173 197 0
172 196 0
172 196 0
172 195 0
173 196 0
171 194 0
172 195 0
173 196 0
173 197 0
174 197 0
170 193 0
172 195 0
173 196 0
173 196 0
174 197 0
173 195 0
174 196 0
172 195 0
172 195 0
172 196 0
174 196 0
174 196 0
173 196 0
173 196 0
175 197 0
172 194 0
173 196 0
172 195 0
173 196 0
175 197 0
174 196 0
173 195 0
170 193 0
173 195 0
175 198 0
174 197 0
176 197 0
177 198 0
174 195 0
175 197 0
173 195 0
177 199 0
171 192 0
174 195 0
174 195 0
173 195 0
173 194 0
173 194 0
175 197 0
172 193 0
173 195 0
172 194 0
179 199 0
173 194 0
174 195 0
178 198 0
176 196 0
173 193 0
172 192 0
169 189 0
172 192 0
170 191 0
173 193 0
177 197 0
171 190 0
172 192 0
171 191 0
172 192 0
166 187 0
170 190 0
169 188 0
165 184 0
172 191 0
169 188 0
168 187 0
165 183 0
160 180 0
170 190 0
167 186 0
167 187 0
168 187 0
167 187 0
159 178 0
156 175 0
169 188 0
164 184 0
168 187 0
162 180 0
160 181 0
161 180 0
157 175 0
161 180 0
164 184 0
160 180 0
153 173 0
152 172 0
160 179 0
163 182 0
161 180 0
150 169 0
158 178 0
162 181 0
160 179 0
162 181 0
149 170 0
155 174 0
161 181 0
161 180 0
152 172 0
157 177 0
163 183 0
160 180 0
152 173 0
155 175 0
153 174 0
160 179 0
161 181 0
155 176 0
159 180 0
152 172 0
149 170 0
159 181 0
151 172 0
152 173 0
162 183 0
147 167 0
147 168 0
141 162 0
146 168 0
144 166 0
148 170 0
147 169 0
144 165 0
151 172 0
150 172 0
150 171 0
146 167 0
158 179 0
151 172 0
147 169 0
148 169 0
154 176 0
141 162 0
147 168 0
148 170 0
141 163 0
145 166 0
142 163 0
147 168 0
151 172 0
142 163 0
138 159 0
144 164 0
137 158 0
132 152 0
137 157 0
142 163 0
135 154 0
129 150 0
133 153 0
129 148 0
136 157 0
135 155 0
137 157 0
129 149 0
122 142 0
128 148 0
129 149 0
120 139 0
127 147 0
122 140 0
130 149 0
115 135 0
121 139 0
120 139 0
117 136 0
114 134 0
110 129 0
115 134 0
110 128 0
112 128 0
106 125 0
117 136 0
108 125 0
117 136 0
111 128 0
106 122 0
100 119 0
116 133 0
102 119 0
107 123 0
99 116 0
101 116 0
92 108 0
111 126 0
104 119 0
106 121 0
96 112 0
96 111 0
108 125 0
103 118 0
101 116 0
93 109 0
100 115 0
87 102 0
85 98 0
97 111 0
98 114 0
102 117 0
91 106 0
83 99 0
107 121 0
105 121 0
97 111 0
95 109 0
103 120 0
105 118 0
98 113 0
105 121 0
101 113 0
97 111 0
106 122 0
106 121 0
105 120 0
115 129 0
109 122 0
124 139 0
111 126 0
98 111 0
104 119 0
112 127 0
99 113 0
104 120 0
105 118 0
123 138 0
107 120 0
114 128 0
106 121 0
108 122 0
125 141 0
118 132 0
108 122 0
111 127 0
116 131 0
115 129 0
121 137 0
122 137 0
124 137 0
120 133 0
128 142 0
116 130 0
125 139 0
127 142 0
120 133 0
130 144 0
129 143 0
114 129 0
113 126 0
134 145 0
122 132 0
119 131 0
118 128 0
122 133 0
127 139 0
124 138 0
121 131 0
131 139 0
127 138 0
123 133 0
130 142 0
118 126 0
133 143 0
125 133 0
118 130 0
115 122 0
108 116 0
114 123 0
120 125 0
122 130 0
114 121 0
119 126 0
110 114 0
123 130 0
123 128 0
117 125 0
110 115 0
114 116 0
118 122 0
116 120 0
108 112 0
106 109 0
109 112 0
109 109 0
119 120 0
107 110 0
96 96 0
92 92 0
104 102 0
93 91 0
97 97 0
108 107 0
99 94 0
95 90 0
106 103 0
93 87 0
86 79 0
83 76 0
84 74 0
85 77 0
80 73 0
64 61 0
78 68 0
79 70 0
69 58 0
78 69 0
86 74 0
85 75 0
88 79 0
92 81 0
81 72 0
102 93 0
93 82 0
84 74 0
99 89 0
92 83 0
104 92 11
96 87 0
107 99 0
92 82 0
105 95 0
95 85 0
102 95 0
106 97 0
106 98 0
104 95 11
102 93 0
104 96 0
95 84 0
109 101 0
109 101 11
106 96 11
112 101 16
109 102 16
112 104 11
107 99 16
106 97 19
101 93 11
108 99 16
113 104 11
108 101 22
115 105 11
112 104 19
111 103 19
116 107 22
126 119 28
112 103 0
119 110 28
109 102 28
106 97 19
106 97 22
106 98 0
105 99 19
123 115 22
121 113 28
105 97 16
107 100 22
117 110 25
116 109 32
117 109 19
124 115 28
107 98 16
116 109 30
115 109 32
106 97 22
114 108 19
110 103 22
121 115 41
109 101 22
116 107 28
114 108 11
114 106 28
114 107 30
117 109 39
111 103 22
117 110 41
110 105 30
114 112 30
127 132 22
153 166 0
161 178 19
164 182 0
169 188 0
168 188 0
167 187 0
169 189 0
165 184 0
166 183 0
166 184 0
169 189 0
169 188 0
174 197 0
175 197 0
175 198 0
174 197 0
174 198 0
172 196 0
174 197 0
173 196 0
174 197 0
174 196 0
175 198 0
173 196 0
173 196 0
170 193 0
172 196 0
172 195 0
173 196 0
174 197 0
174 198 0
173 195 0
172 195 0
171 194 0
172 194 0
171 195 0
177 199 0
174 197 0
175 197 0
173 195 0
175 197 0
171 194 0
174 196 0
175 196 0
170 192 0
175 196 0
174 196 0
173 195 0
174 196 0
173 194 0
174 196 0
173 195 0
170 191 0
173 194 0
170 192 0
174 195 0
175 196 0
173 194 0
177 198 0
174 194 0
171 192 0
175 196 0
174 195 0
170 190 0
173 194 0
175 194 0
171 191 0
174 195 0
178 198 0
173 193 0
174 195 0
173 193 0
172 192 0
173 194 0
168 188 0
171 191 0
175 195 0
173 193 0
170 190 0
170 190 0
173 192 0
169 188 0
167 187 0
170 190 0
168 187 0
167 186 0
170 189 0
166 186 0
162 182 0
158 178 0
164 183 0
164 183 0
163 183 0
163 183 0
166 186 0
162 182 0
163 182 0
161 180 0
161 182 0
159 179 0
165 184 0
164 184 0
164 184 0
166 186 0
167 186 0
158 177 0
154 174 0
158 178 0
159 179 0
156 176 0
163 183 0
161 180 0
158 177 0
161 180 0
159 178 0
154 173 0
162 182 0
160 179 0
157 176 0
150 171 0
158 179 0
147 167 0
158 178 0
158 178 0
161 181 0
158 178 0
152 173 0
158 179 0
153 173 0
144 165 0
153 174 0
154 175 0
151 171 0
151 172 0
154 176 0
154 176 0
154 176 0
152 174 0
156 178 0
154 176 0
156 177 0
153 174 0
150 171 0
151 173 0
148 169 0
151 172 0
150 170 0
151 171 0
154 176 0
142 163 0
141 163 0
147 168 0
139 160 0
136 157 0
151 173 0
148 170 0
149 170 0
138 158 0
137 159 0
142 162 0
143 165 0
141 162 0
141 162 0
144 164 0
151 172 0
145 165 0
138 159 0
133 153 0
139 159 0
134 154 0
129 149 0
116 136 0
123 142 0
138 158 0
137 156 0
131 151 0
134 154 0
131 151 0
141 161 0
124 143 0
115 135 0
121 141 0
135 154 0
125 144 0
122 140 0
125 144 0
125 144 0
121 140 0
115 134 0
107 126 0
126 145 0
110 127 0
112 130 0
121 139 0
104 122 0
124 143 0
102 119 0
111 128 0
101 120 0
117 133 0
109 126 0
117 135 0
92 109 0
103 120 0
110 128 0
116 134 0
99 116 0
86 104 0
100 117 0
99 115 0
98 114 0
107 125 0
105 122 0
109 126 0
112 126 0
96 112 0
107 123 0
111 127 0
99 116 0
99 114 0
104 119 0
107 123 0
99 115 0
108 124 0
101 116 0
109 126 0
103 119 0
100 114 0
115 129 0
97 114 0
100 115 0
111 125 0
106 122 0
112 126 0
116 131 0
114 130 0
125 138 0
106 121 0
106 121 0
100 116 0
116 131 0
118 132 0
110 124 0
97 112 0
121 138 0
128 144 0
126 142 0
116 131 0
110 125 0
106 123 0
123 138 0
111 126 0
111 128 0
119 134 0
123 140 0
117 130 0
132 148 0
126 140 0
112 126 0
122 137 0
120 134 0
124 138 0
114 125 0
128 141 0
126 139 0
113 127 0
124 138 0
134 147 0
123 137 0
122 136 0
121 136 0
126 139 0
129 141 0
125 137 0
121 133 0
120 132 0
131 146 0
130 144 0
133 145 0
119 131 0
125 137 0
126 138 0
133 147 0
118 130 0
126 138 0
125 134 0
133 143 0
132 142 0
120 130 0
124 135 0
113 123 0
118 125 0
114 122 0
115 124 0
112 121 0
107 112 0
108 113 0
123 129 0
115 119 0
116 121 0
109 113 0
109 113 0
119 124 0
116 119 0
109 109 0
119 126 0
111 111 0
113 115 0
115 117 0
106 108 0
94 95 0
119 118 0
114 114 0
110 111 0
98 97 0
104 100 0
92 85 0
95 89 0
88 84 0
96 95 0
98 95 0
88 84 0
94 90 0
79 71 0
79 75 0
102 95 0
86 78 0
69 61 0
64 55 0
90 76 0
94 84 0
83 73 11
76 67 0
85 75 0
82 71 0
90 80 0
88 80 0
95 85 0
97 88 0
94 83 0
92 81 0
100 90 0
98 89 0
101 94 11
103 92 16
93 85 0
101 92 0
100 92 0
103 96 0
106 97 0
99 91 0
106 95 0
93 83 0
106 99 11
107 99 11
104 96 16
107 99 22
110 101 22
104 96 11
114 105 25
106 96 11
117 108 16
112 103 16
113 106 0
98 91 11
101 93 16
99 92 16
107 99 22
106 97 11
116 109 22
105 99 16
113 105 30
98 91 11
114 106 22
113 104 25
118 110 16
107 101 16
109 104 28
121 113 22
111 104 16
115 107 19
111 103 25
115 107 25
102 95 25
108 100 34
109 103 19
109 101 22
112 104 30
114 107 19
110 102 37
106 99 28
113 105 22
102 95 25
110 103 32
119 118 22
136 139 22
140 147 22
156 170 11
169 185 0
161 178 0
164 178 0
156 171 0
165 183 0
164 181 0
165 182 0
165 185 0
169 188 0
165 183 0
167 186 0
172 192 0
165 184 0
167 186 0
173 196 0
173 195 0
172 196 0
173 196 0
174 197 0
174 196 0
173 196 0
171 195 0
174 197 0
174 197 0
176 198 0
173 197 0
173 197 0
174 196 0
171 194 0
172 195 0
173 195 0
175 197 0
173 196 0
172 195 0
174 196 0
175 197 0
173 195 0
170 194 0
172 194 0
172 194 0
174 196 0
172 194 0
174 196 0
174 196 0
173 196 0
174 195 0
173 196 0
176 198 0
175 197 0
176 197 0
173 195 0
172 193 0
175 197 0
172 194 0
175 197 0
174 195 0
176 198 0
176 197 0
176 197 0
171 192 0
174 194 0
171 192 0
173 194 0
173 194 0
173 194 0
174 195 0
175 196 0
172 193 0
173 193 0
173 193 0
173 193 0
173 193 0
170 190 0
173 193 0
172 193 0
173 192 0
170 190 0
167 188 0
167 186 0
171 191 0
171 191 0
169 188 0
169 189 0
169 188 0
167 186 0
167 186 0
168 187 0
165 184 0
170 189 0
167 187 0
163 183 0
167 186 0
166 185 0
170 189 0
165 184 0
171 190 0
163 182 0
168 188 0
161 181 0
166 186 0
165 184 0
162 182 0
152 173 0
162 181 0
155 174 0
161 181 0
159 178 0
160 180 0
163 183 0
162 182 0
162 182 0
166 186 0
161 181 0
157 177 0
154 175 0
155 176 0
162 182 0
161 181 0
160 180 0
158 178 0
160 181 0
155 176 0
156 177 0
159 179 0
154 175 0
154 175 0
159 179 0
150 171 0
160 181 0
157 178 0
163 183 0
155 176 0
161 182 0
148 169 0
148 169 0
156 178 0
162 184 0
160 181 0
151 172 0
148 169 0
147 169 0
155 177 0
149 169 0
159 180 0
147 168 0
149 170 0
144 166 0
150 172 0
144 165 0
149 169 0
156 177 0
146 168 0
136 157 0
149 170 0
143 164 0
145 166 0
145 166 0
153 174 0
137 159 0
142 163 0
133 153 0
144 165 0
134 155 0
139 160 0
137 157 0
145 166 0
147 168 0
134 154 0
136 157 0
138 160 0
131 152 0
135 156 0
139 160 0
134 155 0
127 146 0
135 156 0
133 153 0
140 161 0
128 148 0
126 146 0
129 149 0
126 146 0
130 149 0
113 133 0
123 143 0
133 154 0
127 148 0
123 142 0
119 138 0
126 146 0
110 129 0
121 141 0
121 141 0
111 130 0
121 139 0
124 142 0
97 116 0
115 132 0
114 132 0
108 125 0
112 131 0
123 142 0
100 117 0
115 132 0
103 121 0
126 144 0
108 124 0
106 123 0
124 142 0
106 123 0
110 127 0
106 123 0
109 125 0
99 116 0
118 134 0
101 116 0
113 131 0
110 127 0
94 109 0
108 126 0
112 127 0
113 129 0
107 123 0
105 123 0
100 117 0
116 132 0
101 116 0
108 124 0
101 119 0
111 126 0
112 130 0
111 128 0
104 121 0
114 132 0
107 124 0
101 116 0
112 127 0
107 123 0
109 124 0
98 113 0
111 127 0
109 121 0
109 124 0
112 126 0
116 130 0
104 120 0
120 135 0
113 128 0
126 143 0
109 123 0
126 141 0
118 132 0
108 121 0
131 147 0
109 124 0
116 130 0
130 146 0
122 136 0
118 135 0
122 136 0
132 147 0
122 136 0
125 142 0
130 144 0
114 129 0
124 138 0
135 150 0
133 147 0
131 145 0
122 135 0
132 149 0
136 149 0
126 139 0
128 140 0
123 137 0
129 144 0
139 150 0
128 142 0
129 140 0
129 142 0
127 141 0
127 137 0
115 128 0
129 139 0
124 134 0
127 137 0
121 131 0
122 133 0
125 135 0
132 144 0
115 124 0
117 127 0
128 137 0
127 137 0
104 112 0
122 128 0
127 137 0
126 132 0
123 130 0
125 133 0
124 131 0
127 133 0
110 111 0
120 123 0
115 120 0
123 130 0
130 135 0
117 119 0
118 122 0
111 116 0
109 112 0
113 112 0
113 120 0
105 108 0
123 122 0
94 94 0
95 91 0
115 116 0
94 94 0
99 96 0
112 111 0
96 94 0
104 97 0
96 92 0
97 90 0
90 84 0
88 85 0
70 61 0
83 76 0
99 95 0
84 78 0
90 85 0
83 75 0
85 77 0
80 69 0
75 66 11
81 69 0
89 78 0
85 74 0
86 74 0
78 69 0
89 77 11
96 86 16
89 81 0
91 79 0
100 89 0
104 91 11
86 78 0
95 86 0
98 90 19
96 86 0
102 94 11
99 90 11
88 78 11
96 88 16
108 98 16
106 95 11
97 90 11
102 91 11
108 99 11
110 103 11
107 99 16
104 94 28
98 91 11
101 92 16
109 99 19
106 98 19
114 106 19
122 113 25
102 92 11
112 104 19
102 93 25
109 103 0
110 102 19
110 101 19
114 106 25
108 101 32
114 106 28
107 99 16
116 107 22
102 95 22
111 100 25
107 99 22
111 103 22
106 97 25
109 103 28
103 95 28
107 100 28
113 105 19
103 96 11
116 108 37
114 111 28
122 123 25
139 145 19
151 161 19
153 165 16
163 178 0
162 174 0
164 178 0
167 184 0
164 181 0
168 187 0
167 186 0
164 181 0
165 181 0
172 192 0
164 181 0
161 178 0
165 183 0
164 182 0
164 182 0
166 181 0
167 187 0
166 183 0
172 196 0
175 197 0
171 194 0
173 196 0
172 195 0
172 196 0
173 196 0
171 194 0
172 195 0
175 197 0
174 197 0
174 197 0
177 199 0
173 196 0
171 195 0
172 196 0
174 197 0
173 195 0
174 196 0
172 195 0
174 197 0
171 194 0
174 196 0
173 195 0
173 196 0
173 195 0
172 195 0
175 197 0
176 197 0
176 198 0
171 192 0
173 194 0
170 192 0
174 196 0
171 192 0
173 195 0
177 198 0
170 192 0
172 192 0
177 197 0
173 194 0
172 193 0
177 198 0
174 196 0
173 195 0
168 189 0
172 193 0
173 194 0
173 193 0
173 194 0
169 190 0
167 187 0
171 191 0
175 195 0
172 192 0
172 192 0
174 193 0
172 192 0
170 190 0
172 192 0
168 188 0
169 189 0
172 191 0
166 186 0
170 190 0
170 190 0
169 189 0
170 190 0
166 186 0
172 192 0
164 184 0
165 185 0
166 186 0
172 192 0
169 188 0
169 188 0
164 183 0
166 186 0
169 188 0
163 183 0
171 191 0
163 182 0
167 187 0
161 182 0
169 189 0
163 182 0
162 182 0
167 188 0
162 181 0
165 185 0
158 179 0
162 182 0
162 182 0
156 176 0
160 180 0
164 183 0
160 180 0
158 178 0
156 177 0
161 180 0
158 179 0
160 180 0
165 185 0
158 178 0
161 181 0
156 177 0
160 179 0
154 175 0
157 177 0
162 182 0
155 176 0
155 176 0
153 174 0
158 178 0
159 180 0
157 178 0
157 178 0
152 174 0
156 178 0
159 180 0
153 174 0
157 178 0
153 174 0
153 174 0
157 179 0
152 172 0
154 175 0
157 178 0
149 172 0
145 167 0
152 173 0
156 178 0
146 167 0
149 170 0
155 176 0
149 171 0
153 174 0
150 171 0
147 169 0
145 166 0
140 161 0
151 173 0
151 173 0
153 174 0
144 165 0
146 167 0
145 167 0
143 164 0
137 158 0
145 166 0
147 167 0
151 172 0
138 160 0
139 161 0
140 160 0
132 153 0
136 157 0
143 163 0
142 162 0
136 156 0
130 151 0
129 149 0
135 157 0
138 158 0
131 152 0
134 154 0
125 145 0
127 146 0
122 142 0
136 156 0
126 146 0
132 151 0
119 139 0
125 144 0
126 146 0
123 143 0
122 140 0
128 146 0
108 125 0
110 129 0
128 146 0
115 134 0
118 135 0
110 129 0
123 141 0
111 130 0
108 125 0
108 126 0
131 151 0
117 133 0
105 123 0
117 136 0
116 134 0
110 128 0
107 124 0
118 136 0
113 130 0
110 127 0
110 128 0
114 133 0
95 111 0
111 128 0
107 124 0
104 119 0
112 130 0
118 134 0
110 127 0
99 114 0
104 119 0
115 132 0
113 128 0
107 123 0
110 126 0
111 127 0
107 124 0
112 127 0
100 116 0
114 130 0
116 132 0
115 130 0
107 123 0
110 126 0
120 136 0
92 109 0
121 136 0
113 129 0
122 137 0
109 126 0
125 141 0
115 132 0
115 130 0
115 130 0
121 137 0
118 133 0
125 142 0
108 122 0
121 135 0
122 137 0
120 135 0
108 122 0
117 131 0
133 149 0
121 136 0
116 131 0
137 152 0
122 139 0
132 147 0
128 142 0
121 138 0
135 149 0
128 143 0
131 145 0
134 148 0
122 137 0
123 136 0
135 148 0
121 136 0
132 147 0
125 139 0
122 134 0
126 140 0
128 143 0
122 134 0
135 148 0
132 148 0
129 145 0
125 138 0
120 130 0
123 136 0
121 131 0
135 149 0
120 131 0
125 138 0
122 132 0
118 129 0
121 128 0
132 144 0
130 141 0
127 138 0
126 137 0
120 128 0
133 141 0
123 133 0
113 117 0
133 140 0
121 128 0
124 132 0
120 129 0
121 127 0
123 127 0
117 118 0
111 113 0
124 127 0
123 131 0
122 125 0
115 120 0
116 119 0
108 108 0
121 123 0
122 125 0
120 123 0
97 98 0
112 109 0
97 95 0
108 109 0
115 114 0
115 116 0
101 98 0
106 106 0
106 104 0
100 97 0
88 84 0
96 95 0
97 91 0
97 92 0
98 91 0
96 90 0
100 98 0
89 83 0
91 85 0
102 99 0
100 94 0
90 84 0
98 92 0
91 84 0
97 89 0
84 76 11
90 78 0
76 69 0
81 70 11
86 76 0
93 85 11
91 80 11
95 87 11
87 79 19
93 84 11
88 78 11
94 83 11
98 88 0
100 90 11
95 85 11
85 77 0
96 86 11
101 92 11
94 86 16
88 80 0
109 99 22
104 95 11
103 93 11
108 100 16
111 102 22
100 92 22
94 85 16
105 95 11
102 94 11
106 97 19
110 101 16
106 98 28
99 91 16
101 92 16
110 101 19
94 84 19
96 90 11
110 101 19
106 98 16
98 91 19
113 103 22
109 101 19
105 96 30
105 98 30
113 106 28
114 109 16
117 116 16
127 130 11
139 147 28
146 158 11
156 167 0
161 175 0
160 176 0
161 174 0
155 168 0
160 174 0
168 182 0
158 176 0
164 178 0
165 183 0
162 178 0
164 181 0
159 174 0
165 181 0
164 181 0
166 184 0
163 179 0
163 180 0
165 183 0
167 186 0
167 184 0
167 186 0
168 186 0
168 186 0
174 197 0
172 195 0
173 197 0
172 195 0
173 196 0
173 196 0
173 195 0
175 197 0
171 195 0
171 194 0
174 196 0
172 195 0
171 194 0
173 195 0
172 195 0
175 197 0
175 198 0
174 196 0
170 193 0
177 198 0
173 195 0
173 196 0
168 191 0
176 197 0
171 195 0
172 195 0
173 196 0
175 198 0
174 196 0
173 195 0
173 195 0
174 197 0
174 196 0
172 194 0
173 194 0
174 195 0
177 197 0
173 195 0
174 195 0
174 196 0
175 196 0
172 193 0
175 196 0
174 194 0
174 194 0
171 192 0
172 192 0
176 196 0
172 193 0
167 187 0
176 197 0
171 191 0
172 192 0
174 194 0
172 192 0
172 193 0
166 186 0
173 193 0
169 190 0
172 193 0
169 189 0
169 189 0
170 190 0
171 191 0
169 189 0
169 189 0
169 189 0
166 186 0
168 189 0
167 186 0
172 192 0
165 184 0
166 186 0
167 187 0
165 186 0
163 183 0
164 184 0
169 189 0
168 187 0
165 185 0
164 183 0
167 186 0
166 187 0
164 184 0
161 181 0
156 176 0
160 180 0
162 182 0
163 183 0
163 183 0
163 182 0
166 185 0
165 185 0
161 181 0
161 181 0
161 182 0
161 180 0
167 186 0
157 178 0
164 183 0
160 180 0
169 189 0
152 172 0
153 173 0
161 182 0
153 174 0
152 174 0
152 172 0
162 183 0
159 180 0
163 184 0
154 175 0
156 177 0
157 178 0
155 176 0
157 177 0
154 175 0
153 174 0
157 179 0
153 175 0
145 165 0
151 173 0
158 180 0
151 172 0
151 172 0
158 178 0
162 183 0
148 169 0
150 171 0
149 171 0
149 172 0
160 181 0
143 165 0
155 177 0
153 174 0
143 166 0
152 174 0
141 162 0
149 171 0
156 178 0
149 170 0
145 166 0
147 168 0
153 174 0
142 163 0
144 165 0
145 166 0
146 166 0
143 163 0
142 163 0
146 168 0
141 162 0
146 167 0
138 159 0
142 163 0
137 157 0
137 158 0
137 157 0
141 162 0
130 150 0
133 154 0
137 158 0
132 152 0
136 155 0
131 151 0
139 160 0
130 150 0
127 147 0
129 149 0
129 148 0
126 146 0
137 157 0
127 146 0
122 142 0
129 149 0
117 136 0
126 146 0
128 146 0
119 137 0
127 145 0
119 137 0
123 142 0
127 147 0
122 142 0
111 128 0
110 128 0
108 126 0
127 143 0
119 138 0
116 135 0
123 142 0
119 136 0
119 136 0
121 140 0
99 116 0
123 140 0
117 134 0
113 132 0
107 125 0
107 124 0
121 139 0
109 127 0
121 139 0
112 129 0
99 116 0
113 130 0
113 130 0
106 123 0
118 135 0
105 122 0
108 123 0
115 132 0
113 129 0
123 141 0
112 128 0
93 108 0
119 136 0
99 114 0
116 133 0
114 130 0
113 130 0
115 131 0
103 121 0
123 139 0
124 142 0
124 140 0
119 135 0
120 136 0
109 124 0
117 133 0
115 130 0
126 141 0
114 131 0
110 125 0
115 131 0
112 128 0
120 139 0
119 134 0
118 134 0
124 139 0
124 139 0
125 142 0
118 135 0
124 139 0
122 139 0
114 131 0
122 137 0
122 137 0
123 140 0
125 142 0
131 146 0
132 147 0
124 140 0
131 145 0
126 141 0
126 143 0
123 137 0
117 133 0
122 137 0
128 143 0
127 141 0
133 148 0
127 139 0
129 143 0
127 140 0
124 137 0
132 147 0
123 135 0
119 134 0
130 143 0
124 135 0
130 143 0
130 144 0
124 137 0
135 150 0
130 142 0
129 141 0
119 130 0
122 130 0
124 134 0
125 136 0
119 130 0
133 142 0
123 129 0
130 141 0
122 132 0
131 139 0
132 140 0
122 130 0
124 132 0
122 129 0
126 131 0
124 130 0
113 117 0
118 122 0
117 122 0
119 122 0
111 112 0
116 117 0
109 113 0
123 125 0
108 109 0
106 108 0
109 110 0
122 122 0
113 113 0
110 111 0
117 115 0
120 120 0
107 105 0
103 100 0
105 103 0
115 109 0
104 101 0
97 94 0
94 87 0
104 101 0
107 101 0
97 91 0
97 89 0
105 103 0
98 92 0
84 78 0
110 104 0
93 89 0
92 85 0
105 101 0
94 87 0
111 105 0
96 90 0
106 99 0
110 105 0
93 89 0
102 97 0
92 82 0
96 90 11
93 84 0
88 77 11
93 84 11
92 85 11
95 84 16
89 81 11
99 85 16
97 89 11
96 86 11
98 89 11
93 84 0
98 91 11
107 96 22
96 88 11
95 85 16
103 94 11
93 83 0
102 94 25
102 93 0
98 89 22
111 101 28
102 94 25
105 96 28
103 93 22
102 93 25
106 96 28
102 94 19
109 103 19
109 108 0
117 116 19
130 130 11
132 137 11
132 138 11
146 154 11
149 159 0
159 172 0
156 167 0
155 167 0
158 168 0
159 170 0
158 171 0
161 173 0
162 175 0
162 177 0
162 176 0
157 172 0
158 171 0
160 172 0
161 175 0
162 178 0
163 180 0
161 177 0
162 177 0
160 172 0
163 179 0
164 179 0
166 183 0
161 179 0
162 180 0
164 181 0
165 181 0
162 178 0
167 185 0
168 186 0
175 197 0
175 198 0
174 197 0
176 197 0
171 194 0
174 197 0
173 196 0
173 196 0
174 196 0
174 196 0
171 194 0
171 194 0
173 197 0
174 196 0
173 195 0
175 197 0
174 196 0
173 195 0
171 194 0
171 194 0
169 191 0
174 197 0
174 196 0
176 197 0
166 189 0
174 195 0
175 197 0
173 194 0
175 198 0
173 195 0
175 197 0
174 194 0
171 193 0
171 193 0
174 195 0
173 194 0
169 190 0
176 197 0
173 194 0
172 194 0
171 192 0
173 194 0
175 196 0
172 193 0
173 193 0
173 194 0
170 190 0
171 191 0
167 188 0
174 194 0
174 194 0
173 194 0
169 190 0
170 190 0
168 188 0
173 193 0
172 192 0
173 194 0
167 187 0
169 189 0
170 189 0
173 192 0
167 187 0
168 188 0
164 184 0
170 189 0
167 187 0
169 189 0
166 186 0
168 187 0
162 183 0
166 187 0
172 192 0
170 190 0
167 187 0
166 185 0
165 185 0
163 182 0
160 180 0
165 185 0
162 182 0
164 184 0
165 185 0
166 185 0
168 187 0
162 181 0
167 187 0
162 182 0
157 176 0
163 183 0
154 174 0
159 180 0
160 180 0
163 183 0
158 177 0
157 177 0
159 179 0
156 176 0
158 178 0
160 180 0
162 182 0
156 176 0
157 178 0
159 181 0
159 179 0
158 180 0
154 174 0
158 179 0
154 175 0
150 171 0
158 179 0
157 179 0
149 170 0
153 173 0
156 178 0
158 180 0
154 176 0
153 175 0
158 179 0
157 178 0
158 179 0
158 180 0
159 180 0
145 167 0
154 175 0
154 176 0
150 172 0
152 174 0
145 166 0
149 171 0
148 170 0
149 171 0
159 180 0
143 166 0
149 171 0
143 164 0
147 168 0
156 177 0
149 171 0
144 166 0
145 166 0
142 163 0
143 165 0
148 169 0
136 159 0
153 174 0
148 169 0
139 161 0
139 160 0
134 156 0
139 160 0
138 159 0
145 167 0
138 158 0
137 159 0
144 164 0
140 162 0
143 163 0
135 156 0
136 156 0
142 163 0
139 159 0
131 152 0
144 163 0
131 151 0
125 145 0
131 152 0
119 138 0
128 148 0
136 156 0
129 149 0
135 155 0
124 144 0
124 144 0
122 142 0
130 150 0
125 145 0
125 145 0
127 147 0
129 149 0
112 131 0
122 141 0
113 133 0
122 140 0
128 146 0
114 133 0
116 135 0
111 130 0
117 136 0
117 135 0
116 135 0
110 128 0
126 145 0
117 135 0
121 139 0
122 140 0
117 136 0
108 125 0
111 129 0
113 130 0
115 132 0
113 130 0
115 133 0
117 132 0
115 131 0
122 138 0
112 129 0
111 129 0
103 119 0
105 120 0
112 129 0
117 135 0
112 128 0
109 126 0
117 134 0
129 147 0
122 139 0
115 132 0
114 130 0
117 135 0
118 136 0
113 131 0
114 130 0
122 139 0
111 125 0
119 135 0
112 129 0
118 135 0
121 139 0
114 130 0
125 142 0
116 133 0
120 137 0
124 141 0
128 145 0
119 136 0
121 139 0
128 145 0
111 127 0
126 143 0
127 145 0
127 145 0
112 127 0
125 140 0
117 132 0
133 149 0
132 149 0
124 141 0
120 135 0
134 152 0
132 147 0
141 156 0
122 135 0
119 136 0
126 139 0
120 134 0
126 140 0
128 142 0
124 139 0
122 135 0
131 146 0
130 145 0
127 142 0
132 145 0
128 138 0
130 144 0
131 145 0
119 131 0
131 141 0
139 153 0
130 142 0
127 138 0
116 125 0
130 140 0
129 140 0
138 150 0
127 138 0
124 138 0
113 124 0
112 123 0
127 136 0
130 142 0
129 140 0
132 141 0
122 131 0
118 126 0
119 126 0
127 135 0
123 132 0
132 140 0
113 120 0
127 134 0
121 127 0
122 130 0
121 128 0
128 135 0
120 124 0
119 126 0
117 120 0
118 121 0
116 118 0
128 135 0
120 124 0
115 114 0
126 126 0
106 108 0
116 118 0
118 118 0
112 113 0
117 116 0
103 101 0
98 95 0
103 98 0
109 108 0
105 102 0
111 109 0
106 103 0
99 97 0
95 93 0
107 101 0
106 101 0
107 102 0
101 94 0
104 96 0
101 95 0
96 89 0
97 91 0
108 104 0
103 96 0
96 90 0
118 114 0
102 97 0
95 89 0
113 108 0
106 98 0
106 102 0
103 98 0
111 105 0
109 103 0
107 104 0
109 105 0
118 113 11
107 101 0
119 114 11
101 96 0
108 105 16
117 112 0
121 118 11
112 107 16
112 107 11
111 108 11
119 118 0
123 119 19
121 120 16
125 123 16
133 131 16
128 128 0
131 131 11
132 133 11
143 144 0
143 149 0
141 146 0
147 154 0
151 158 0
151 159 0
149 155 0
150 157 0
145 153 0
146 153 0
154 162 0
161 170 0
155 163 0
151 160 0
160 170 0
154 166 0
150 162 0
153 163 0
158 169 0
154 165 0
159 172 0
160 173 0
158 169 0
162 177 0
159 174 0
163 180 0
157 172 0
162 174 0
159 173 0
165 181 0
162 179 0
158 173 0
162 177 0
165 180 0
165 182 0
166 185 0
164 179 0
167 185 0
163 181 0
161 176 0
166 185 0
171 195 0
172 196 0
176 199 0
175 197 0
173 196 0
174 197 0
173 196 0
174 197 0
174 197 0
170 193 0
174 197 0
173 195 0
174 196 0
172 195 0
172 195 0
175 197 0
175 198 0
172 195 0
173 195 0
175 197 0
171 194 0
173 195 0
175 196 0
174 195 0
175 197 0
175 197 0
173 195 0
174 196 0
175 197 0
173 195 0
174 195 0
176 197 0
173 195 0
169 190 0
178 198 0
176 197 0
170 191 0
168 189 0
173 193 0
172 193 0
173 195 0
168 190 0
172 193 0
172 193 0
174 195 0
173 193 0
176 197 0
169 189 0
171 192 0
173 193 0
170 190 0
171 191 0
170 191 0
170 191 0
172 192 0
172 193 0
172 192 0
173 194 0
165 186 0
171 192 0
175 193 0
169 189 0
164 184 0
169 190 0
169 190 0
165 185 0
168 188 0
168 189 0
166 186 0
165 185 0
171 191 0
170 189 0
165 185 0
173 193 0
167 186 0
160 180 0
167 186 0
162 182 0
165 184 0
166 186 0
163 183 0
165 184 0
166 186 0
163 183 0
160 180 0
160 180 0
163 183 0
159 179 0
166 187 0
162 182 0
165 185 0
160 180 0
160 180 0
162 183 0
153 174 0
158 178 0
158 178 0
157 177 0
156 176 0
165 185 0
155 176 0
163 184 0
158 179 0
159 180 0
159 181 0
159 180 0
161 182 0
155 176 0
159 181 0
152 172 0
154 175 0
161 183 0
154 175 0
156 177 0
157 179 0
167 188 0
153 174 0
153 173 0
154 175 0
157 179 0
148 170 0
155 176 0
150 171 0
139 161 0
155 176 0
156 177 0
158 179 0
154 176 0
154 175 0
158 180 0
151 172 0
152 173 0
143 165 0
153 174 0
145 166 0
149 171 0
146 169 0
152 174 0
148 170 0
146 167 0
155 177 0
148 169 0
142 164 0
147 170 0
145 168 0
151 172 0
151 171 0
145 166 0
144 165 0
145 166 0
135 157 0
142 163 0
135 155 0
139 159 0
152 175 0
138 160 0
140 161 0
137 159 0
150 170 0
132 152 0
145 166 0
133 153 0
137 158 0
136 156 0
137 158 0
124 144 0
133 153 0
133 153 0
137 158 0
129 149 0
126 146 0
136 154 0
133 153 0
140 161 0
130 149 0
134 154 0
127 146 0
128 148 0
127 146 0
123 141 0
140 161 0
104 122 0
120 138 0
123 142 0
122 142 0
118 138 0
125 143 0
119 138 0
111 130 0
127 147 0
112 130 0
119 138 0
114 132 0
128 147 0
116 135 0
116 133 0
120 139 0
120 138 0
107 124 0
127 145 0
122 141 0
123 143 0
115 132 0
116 134 0
124 142 0
120 138 0
113 132 0
108 125 0
124 142 0
126 144 0
119 137 0
122 139 0
125 142 0
114 134 0
117 136 0
107 124 0
119 136 0
125 140 0
125 143 0
114 131 0
128 147 0
125 142 0
95 110 0
117 135 0
126 143 0
132 149 0
111 129 0
119 137 0
128 145 0
126 143 0
122 138 0
126 142 0
115 132 0
129 145 0
121 139 0
118 134 0
121 138 0
127 145 0
128 144 0
129 146 0
127 142 0
123 139 0
124 141 0
129 146 0
133 149 0
126 140 0
125 141 0
132 148 0
123 139 0
124 139 0
123 137 0
135 150 0
120 135 0
120 134 0
125 138 0
128 143 0
135 151 0
119 134 0
131 146 0
129 145 0
130 145 0
132 147 0
132 148 0
126 143 0
119 130 0
124 138 0
128 141 0
137 151 0
133 149 0
130 144 0
128 140 0
134 147 0
132 146 0
126 140 0
134 146 0
128 140 0
136 145 0
118 129 0
132 143 0
128 138 0
115 123 0
134 146 0
134 146 0
120 131 0
123 131 0
123 131 0
134 143 0
131 140 0
130 139 0
117 122 0
124 133 0
125 132 0
136 143 0
130 136 0
130 135 0
128 133 0
128 136 0
119 125 0
128 135 0
113 120 0
118 120 0
125 129 0
119 124 0
121 124 0
120 126 0
121 123 0
121 123 0
115 115 0
112 115 0
115 113 0
119 123 0
111 109 0
114 112 0
104 100 0
107 107 0
113 114 0
108 109 0
108 106 0
110 108 0
111 107 0
103 99 0
117 112 0
117 113 0
103 102 0
113 110 0
114 109 0
101 94 0
97 93 0
105 99 0
103 99 0
109 106 0
113 106 0
108 103 0
118 110 0
114 111 0
109 103 0
115 111 0
112 110 0
115 111 0
117 112 0
129 124 0
128 125 0
126 123 0
126 124 0
129 127 0
127 126 0
130 131 0
131 129 0
135 138 0
134 134 0
127 127 0
131 128 0
130 130 0
134 133 0
132 132 0
146 150 0
141 144 0
129 129 0
141 142 0
148 153 0
144 149 0
144 149 0
140 143 0
137 140 0
148 152 0
151 158 0
145 149 0
150 160 0
157 164 0
145 151 0
150 159 0
150 159 0
156 166 0
151 157 0
151 158 0
157 171 0
154 166 0
160 171 0
153 163 0
157 168 0
158 168 0
164 177 0
154 165 0
159 174 0
163 175 0
160 175 0
162 175 0
161 175 0
159 175 0
159 173 0
160 177 0
164 178 0
163 177 0
161 178 0
170 185 0
163 180 0
164 177 0
162 176 0
166 182 0
165 182 0
173 195 0
174 196 0
171 193 0
171 194 0
174 197 0
171 194 0
175 198 0
170 194 0
177 198 0
173 196 0
174 196 0
174 197 0
172 195 0
173 196 0
175 197 0
174 196 0
175 196 0
176 197 0
173 196 0
176 197 0
172 194 0
175 197 0
170 191 0
172 195 0
172 194 0
174 195 0
171 193 0
174 196 0
176 197 0
175 196 0
167 188 0
172 194 0
176 197 0
172 193 0
172 192 0
176 197 0
175 195 0
171 193 0
171 193 0
174 195 0
173 193 0
171 191 0
171 191 0
175 196 0
172 193 0
173 194 0
175 196 0
171 192 0
173 193 0
171 192 0
171 191 0
174 193 0
173 193 0
172 192 0
167 187 0
172 192 0
172 192 0
171 191 0
171 190 0
165 185 0
170 190 0
165 186 0
172 192 0
169 190 0
173 192 0
172 191 0
169 189 0
171 191 0
166 187 0
164 185 0
167 187 0
172 192 0
167 186 0
172 192 0
162 183 0
170 190 0
164 185 0
168 187 0
164 185 0
162 182 0
160 180 0
162 181 0
161 181 0
158 178 0
163 183 0
164 184 0
158 178 0
164 185 0
168 187 0
163 183 0
156 176 0
159 179 0
157 177 0
160 180 0
157 177 0
159 179 0
159 180 0
159 179 0
158 178 0
153 175 0
160 180 0
160 181 0
160 180 0
163 184 0
159 180 0
154 175 0
161 182 0
159 180 0
161 182 0
157 178 0
154 175 0
158 179 0
166 186 0
158 179 0
158 180 0
157 178 0
161 181 0
150 172 0
153 174 0
161 183 0
152 173 0
153 175 0
155 177 0
150 172 0
149 169 0
142 163 0
147 168 0
151 173 0
149 171 0
148 170 0
150 171 0
151 172 0
150 173 0
148 170 0
150 173 0
151 172 0
150 172 0
148 171 0
152 174 0
144 165 0
149 170 0
150 172 0
146 167 0
151 173 0
150 171 0
146 168 0
150 172 0
140 161 0
137 160 0
137 159 0
145 166 0
148 170 0
143 164 0
142 163 0
128 149 0
137 160 0
136 156 0
149 171 0
145 165 0
123 143 0
136 156 0
136 157 0
143 164 0
141 161 0
138 158 0
144 165 0
140 160 0
133 153 0
121 142 0
131 152 0
136 157 0
130 149 0
128 149 0
124 144 0
133 153 0
129 148 0
132 151 0
123 143 0
126 147 0
123 143 0
126 145 0
129 149 0
123 142 0
116 136 0
133 152 0
127 146 0
132 150 0
130 148 0
119 137 0
134 152 0
118 138 0
117 137 0
116 134 0
124 144 0
125 144 0
126 143 0
114 133 0
122 141 0
119 137 0
117 136 0
118 137 0
125 143 0
119 138 0
118 135 0
127 146 0
118 137 0
115 132 0
114 132 0
109 126 0
115 132 0
120 137 0
125 143 0
118 136 0
120 138 0
117 134 0
111 128 0
123 140 0
125 145 0
125 142 0
129 146 0
125 142 0
124 142 0
121 139 0
121 138 0
125 140 0
120 136 0
120 139 0
123 139 0
122 138 0
127 143 0
120 136 0
117 134 0
123 140 0
124 141 0
126 143 0
128 146 0
129 146 0
118 135 0
129 145 0
137 155 0
106 123 0
125 141 0
130 146 0
138 153 0
126 143 0
128 145 0
125 141 0
128 145 0
123 138 0
124 138 0
122 138 0
126 140 0
132 147 0
127 141 0
139 157 0
130 143 0
135 151 0
125 141 0
123 137 0
129 145 0
132 145 0
133 147 0
130 145 0
133 145 0
138 153 0
127 142 0
122 134 0
129 142 0
130 145 0
127 140 0
127 139 0
129 141 0
131 143 0
129 144 0
130 143 0
128 140 0
125 136 0
127 137 0
126 137 0
129 139 0
118 129 0
132 141 0
127 138 0
126 132 0
128 139 0
133 143 0
125 136 0
138 150 0
125 137 0
130 138 0
130 138 0
133 145 0
129 137 0
130 137 0
131 141 0
124 131 0
121 126 0
120 126 0
126 133 0
126 134 0
122 128 0
115 118 0
123 126 0
130 138 0
116 117 0
113 117 0
109 111 0
117 120 0
116 118 0
116 117 0
128 131 0
117 118 0
120 122 0
116 115 0
108 107 0
119 116 0
119 121 0
119 117 0
107 108 0
100 99 0
115 116 0
108 106 0
115 114 0
105 103 0
119 114 0
117 117 0
106 101 0
115 111 0
115 112 0
118 117 0
117 116 0
123 118 0
108 107 0
118 115 0
118 112 0
121 120 0
103 100 0
106 103 0
115 111 0
121 119 0
117 114 0
116 111 0
122 120 0
112 109 0
127 123 0
124 121 0
125 123 0
129 128 0
135 135 0
123 117 0
135 132 0
143 146 0
134 136 0
133 137 0
127 126 0
135 137 0
138 143 0
128 130 0
138 139 0
144 148 0
138 139 0
142 146 0
145 148 0
141 146 0
150 157 0
149 157 0
135 137 0
143 149 0
154 162 0
149 157 0
145 149 0
152 160 0
150 158 0
152 162 0
155 163 0
158 168 0
151 159 0
156 165 0
148 159 0
155 167 0
157 168 0
156 167 0
157 166 0
162 177 0
161 173 0
159 172 0
159 174 0
162 177 0
167 181 0
159 170 0
157 172 0
158 172 0
152 167 0
163 179 0
156 171 0
166 182 0
160 174 0
163 176 0
163 182 0
161 178 0
175 197 0
175 198 0
175 197 0
174 197 0
174 196 0
172 195 0
172 194 0
174 197 0
176 198 0
173 195 0
174 196 0
174 197 0
172 196 0
174 197 0
173 196 0
173 196 0
170 193 0
174 195 0
173 196 0
176 197 0
175 197 0
172 193 0
176 198 0
171 192 0
173 195 0
174 196 0
171 192 0
173 194 0
172 193 0
176 198 0
173 196 0
175 197 0
174 196 0
172 193 0
174 195 0
176 197 0
175 196 0
172 192 0
171 192 0
175 195 0
178 198 0
173 193 0
173 194 0
174 195 0
174 193 0
172 194 0
172 193 0
172 192 0
178 198 0
174 195 0
170 190 0
171 191 0
163 183 0
171 192 0
166 186 0
167 186 0
173 193 0
174 194 0
171 192 0
170 190 0
169 189 0
164 184 0
170 190 0
166 186 0
172 192 0
165 185 0
167 187 0
166 186 0
164 184 0
167 187 0
163 182 0
168 187 0
169 189 0
171 191 0
161 182 0
163 183 0
167 187 0
168 189 0
166 186 0
166 186 0
167 186 0
167 187 0
163 183 0
164 184 0
162 182 0
160 179 0
159 180 0
164 184 0
166 187 0
166 187 0
157 178 0
165 185 0
162 182 0
158 178 0
161 182 0
152 172 0
163 183 0
157 178 0
159 179 0
149 170 0
160 180 0
160 181 0
161 182 0
162 183 0
160 181 0
153 175 0
157 177 0
155 177 0
149 171 0
156 177 0
150 171 0
155 175 0
160 181 0
156 177 0
158 179 0
155 176 0
150 171 0
162 182 0
150 172 0
154 176 0
156 177 0
154 176 0
153 175 0
155 177 0
154 176 0
151 173 0
155 178 0
152 174 0
150 171 0
149 170 0
154 175 0
155 177 0
150 173 0
147 170 0
153 176 0
149 171 0
149 170 0
151 174 0
149 172 0
150 170 0
144 165 0
153 175 0
153 174 0
138 159 0
136 158 0
143 166 0
139 160 0
152 174 0
145 166 0
141 162 0
147 169 0
147 168 0
144 166 0
142 164 0
146 167 0
138 158 0
130 151 0
141 163 0
142 164 0
138 159 0
145 166 0
139 160 0
141 162 0
134 153 0
140 160 0
140 161 0
130 150 0
134 155 0
133 153 0
121 142 0
126 146 0
131 152 0
119 140 0
140 160 0
130 151 0
139 160 0
122 143 0
124 144 0
140 160 0
133 153 0
131 151 0
128 149 0
133 153 0
135 154 0
127 146 0
113 132 0
125 145 0
132 153 0
124 144 0
126 145 0
114 132 0
126 146 0
127 146 0
117 137 0
119 137 0
118 138 0
122 142 0
125 143 0
116 135 0
124 142 0
115 133 0
115 134 0
121 139 0
132 151 0
123 141 0
127 145 0
127 143 0
117 135 0
120 139 0
118 138 0
117 134 0
109 126 0
110 128 0
118 137 0
123 140 0
127 144 0
133 151 0
128 147 0
129 146 0
118 135 0
121 137 0
122 139 0
130 149 0
124 141 0
121 141 0
131 149 0
125 141 0
108 123 0
122 141 0
132 150 0
133 150 0
137 155 0
137 154 0
132 150 0
139 157 0
128 143 0
134 151 0
137 154 0
127 142 0
132 147 0
128 146 0
132 149 0
128 146 0
127 145 0
131 145 0
128 145 0
126 142 0
128 144 0
139 155 0
122 137 0
128 142 0
138 154 0
133 149 0
125 139 0
134 151 0
125 141 0
125 141 0
139 156 0
127 144 0
136 151 0
134 149 0
133 146 0
127 143 0
129 144 0
134 147 0
129 142 0
126 141 0
128 143 0
134 149 0
125 138 0
135 147 0
137 152 0
131 145 0
132 145 0
134 148 0
130 141 0
130 142 0
128 139 0
121 132 0
127 139 0
124 134 0
128 139 0
135 149 0
140 154 0
124 136 0
133 145 0
130 140 0
138 148 0
123 134 0
134 144 0
140 150 0
114 123 0
139 149 0
129 136 0
132 139 0
133 142 0
126 132 0
125 134 0
119 124 0
123 130 0
130 138 0
121 126 0
128 133 0
122 127 0
119 124 0
127 132 0
123 126 0
128 132 0
122 127 0
119 123 0
125 127 0
120 120 0
129 132 0
131 133 0
119 121 0
123 123 0
114 114 0
120 119 0
124 128 0
113 108 0
125 124 0
122 123 0
114 114 0
114 114 0
113 108 0
119 118 0
114 110 0
116 113 0
119 117 0
114 114 0
123 122 0
106 101 0
118 117 0
122 118 0
121 118 0
118 114 0
114 113 0
119 117 0
115 112 0
114 110 0
120 120 0
122 121 0
116 114 0
123 122 0
133 132 0
134 131 0
125 123 0
129 128 0
135 138 0
132 131 0
133 134 0
124 121 0
132 132 0
134 133 0
136 135 0
137 138 0
141 148 0
128 131 0
136 139 0
143 146 0
141 144 0
139 142 0
142 147 0
144 147 0
148 154 0
145 150 0
148 154 0
141 147 0
143 148 0
150 158 0
150 158 0
149 156 0
141 148 0
153 163 0
153 162 0
154 163 0
158 166 0
153 165 0
161 174 0
152 161 0
156 166 0
152 164 0
160 172 0
158 169 0
157 168 0
157 168 0
156 168 0
160 173 0
162 176 0
163 178 0
160 171 0
164 178 0
164 181 0
157 172 0
160 173 0
163 179 0
161 176 0
163 177 0
160 176 0
167 185 0
173 196 0
173 196 0
174 196 0
173 195 0
175 197 0
173 196 0
173 196 0
174 196 0
172 195 0
172 194 0
174 196 0
170 193 0
170 193 0
171 193 0
175 197 0
173 194 0
173 195 0
173 195 0
174 196 0
176 198 0
175 196 0
172 194 0
172 194 0
171 193 0
175 197 0
176 198 0
177 198 0
169 191 0
171 193 0
175 196 0
174 195 0
171 192 0
173 194 0
174 195 0
175 196 0
169 190 0
172 192 0
177 197 0
168 190 0
171 192 0
171 193 0
171 193 0
171 192 0
173 193 0
170 191 0
173 194 0
170 190 0
169 189 0
172 193 0
174 195 0
172 193 0
171 191 0
168 188 0
174 194 0
165 186 0
170 190 0
175 195 0
166 187 0
167 188 0
169 189 0
166 186 0
166 186 0
169 189 0
162 183 0
166 186 0
168 188 0
168 188 0
166 186 0
173 192 0
169 189 0
166 187 0
168 187 0
165 184 0
165 185 0
164 183 0
163 184 0
160 181 0
162 182 0
165 186 0
161 181 0
163 184 0
160 180 0
162 182 0
161 182 0
155 175 0
163 184 0
159 180 0
160 180 0
161 181 0
166 186 0
163 182 0
162 182 0
161 183 0
160 181 0
165 186 0
161 182 0
159 180 0
158 179 0
159 180 0
161 181 0
158 179 0
158 180 0
148 169 0
160 182 0
160 181 0
154 175 0
158 180 0
157 178 0
160 182 0
154 176 0
161 183 0
156 177 0
154 175 0
159 181 0
156 177 0
157 179 0
156 177 0
145 168 0
154 176 0
159 180 0
149 171 0
152 173 0
153 175 0
150 172 0
154 176 0
151 173 0
141 162 0
145 167 0
158 179 0
145 167 0
147 169 0
151 173 0
155 177 0
155 177 0
146 168 0
157 180 0
154 176 0
161 182 0
149 172 0
144 166 0
150 172 0
142 163 0
150 172 0
145 166 0
139 159 0
146 167 0
146 167 0
146 167 0
141 162 0
137 158 0
150 170 0
140 162 0
143 164 0
144 165 0
129 150 0
145 166 0
142 163 0
141 160 0
132 153 0
143 164 0
135 156 0
134 156 0
141 162 0
144 164 0
133 153 0
138 160 0
128 148 0
132 152 0
134 155 0
137 157 0
139 161 0
138 157 0
124 145 0
143 163 0
120 141 0
143 164 0
134 154 0
126 146 0
118 137 0
125 145 0
133 153 0
131 152 0
125 146 0
129 150 0
121 140 0
146 166 0
127 147 0
121 139 0
132 151 0
130 150 0
129 148 0
125 145 0
135 155 0
126 144 0
125 143 0
124 143 0
124 145 0
125 144 0
133 153 0
134 153 0
126 145 0
120 139 0
131 151 0
122 139 0
124 143 0
126 143 0
125 144 0
117 135 0
124 142 0
120 138 0
126 144 0
118 136 0
122 140 0
127 146 0
127 145 0
134 152 0
121 139 0
116 134 0
121 140 0
129 147 0
130 148 0
130 149 0
122 139 0
128 146 0
118 135 0
125 142 0
131 149 0
127 146 0
125 141 0
135 152 0
128 146 0
128 147 0
118 134 0
123 139 0
128 143 0
126 144 0
133 152 0
122 139 0
121 139 0
120 138 0
120 138 0
131 147 0
137 156 0
123 139 0
134 150 0
129 146 0
128 145 0
141 160 0
139 158 0
120 136 0
126 142 0
137 153 0
126 144 0
128 144 0
120 137 0
124 138 0
123 141 0
126 139 0
132 147 0
140 155 0
135 150 0
132 146 0
136 152 0
127 141 0
130 145 0
128 144 0
118 131 0
128 143 0
130 146 0
132 147 0
131 148 0
132 143 0
127 142 0
135 149 0
125 139 0
127 139 0
132 144 0
130 145 0
127 141 0
128 140 0
133 145 0
125 139 0
128 140 0
140 152 0
131 141 0
122 133 0
131 144 0
129 139 0
135 145 0
132 143 0
131 142 0
125 133 0
121 131 0
125 133 0
127 135 0
125 135 0
132 140 0
129 135 0
134 142 0
131 139 0
133 142 0
134 139 0
120 126 0
130 136 0
123 128 0
128 135 0
122 128 0
126 133 0
123 129 0
130 136 0
125 129 0
120 123 0
117 117 0
124 125 0
126 125 0
130 133 0
118 117 0
121 123 0
121 122 0
114 116 0
124 124 0
124 121 0
122 122 0
125 126 0
110 108 0
115 114 0
125 127 0
117 119 0
117 116 0
120 120 0
114 112 0
110 108 0
124 123 0
118 115 0
118 117 0
119 120 0
126 123 0
114 110 0
113 110 0
117 111 0
121 120 0
121 119 0
109 105 0
129 129 0
126 125 0
120 117 0
122 122 0
122 121 0
134 135 0
136 137 0
135 137 0
133 133 0
127 125 0
129 128 0
135 134 0
138 139 0
139 140 0
133 136 0
134 133 0
144 148 0
140 146 0
141 144 0
138 141 0
149 150 0
144 149 0
144 149 0
148 153 0
144 149 0
147 152 0
145 152 0
152 160 0
150 159 0
156 162 0
153 160 0
149 157 0
149 157 0
155 165 0
150 160 0
155 167 0
153 163 0
154 164 0
158 167 0
149 158 0
159 170 0
158 167 0
161 173 0
157 167 0
159 171 0
161 175 0
163 177 0
161 174 0
161 173 0
157 171 0
162 176 0
159 172 0
162 175 0
158 172 0
161 176 0
156 172 0
160 174 0
175 197 0
175 198 0
175 197 0
175 198 0
171 194 0
174 196 0
173 196 0
172 194 0
174 196 0
171 194 0
172 194 0
171 193 0
173 195 0
171 193 0
173 195 0
174 196 0
174 197 0
172 194 0
172 195 0
172 193 0
176 198 0
171 193 0
175 197 0
173 194 0
172 192 0
174 195 0
173 195 0
171 193 0
171 193 0
173 195 0
171 192 0
172 194 0
177 198 0
175 197 0
172 193 0
175 195 0
175 196 0
174 194 0
169 190 0
175 195 0
174 194 0
174 195 0
169 190 0
169 190 0
165 185 0
171 192 0
169 189 0
172 192 0
171 191 0
166 186 0
166 186 0
169 189 0
169 190 0
176 196 0
171 191 0
169 189 0
166 187 0
172 193 0
169 190 0
172 192 0
164 185 0
171 191 0
168 189 0
161 181 0
169 191 0
171 191 0
161 182 0
163 184 0
170 190 0
162 181 0
167 188 0
168 188 0
161 182 0
167 187 0
168 188 0
167 188 0
163 184 0
159 179 0
170 190 0
165 185 0
160 180 0
167 188 0
162 181 0
163 184 0
160 180 0
170 189 0
166 187 0
161 181 0
163 184 0
153 172 0
162 183 0
161 183 0
154 176 0
158 179 0
163 185 0
160 180 0
159 180 0
161 182 0
159 180 0
161 183 0
158 180 0
154 176 0
165 187 0
164 186 0
156 177 0
157 178 0
157 179 0
157 178 0
157 178 0
153 174 0
149 171 0
159 181 0
145 167 0
153 175 0
159 180 0
157 177 0
158 180 0
159 180 0
154 175 0
152 173 0
152 174 0
154 176 0
156 176 0
154 175 0
148 170 0
146 167 0
155 177 0
150 173 0
151 173 0
145 166 0
152 174 0
161 183 0
143 166 0
148 169 0
146 169 0
149 172 0
153 174 0
146 169 0
150 172 0
148 171 0
146 167 0
145 167 0
146 167 0
150 172 0
147 169 0
145 167 0
145 166 0
140 162 0
149 170 0
146 168 0
139 161 0
148 170 0
142 164 0
137 158 0
140 162 0
145 166 0
143 164 0
139 160 0
132 153 0
138 160 0
138 159 0
136 156 0
140 162 0
136 157 0
129 150 0
132 153 0
137 158 0
137 157 0
136 157 0
138 158 0
136 156 0
136 157 0
133 155 0
133 153 0
123 144 0
134 155 0
131 151 0
131 151 0
139 159 0
132 150 0
132 151 0
123 143 0
136 156 0
132 151 0
127 146 0
138 158 0
122 143 0
125 144 0
130 151 0
131 150 0
127 147 0
126 145 0
130 149 0
124 142 0
129 147 0
121 140 0
134 154 0
126 144 0
123 141 0
138 158 0
126 145 0
123 142 0
125 144 0
123 142 0
126 146 0
129 148 0
119 136 0
130 148 0
133 153 0
125 143 0
121 141 0
125 145 0
127 145 0
137 154 0
130 149 0
120 137 0
129 147 0
128 144 0
118 136 0
131 148 0
116 133 0
119 138 0
120 137 0
133 150 0
128 146 0
132 149 0
135 152 0
113 130 0
138 157 0
130 148 0
119 136 0
120 139 0
131 148 0
115 133 0
127 146 0
120 139 0
123 140 0
132 150 0
121 137 0
129 146 0
132 150 0
136 152 0
127 143 0
130 148 0
136 154 0
129 146 0
130 148 0
128 147 0
134 150 0
126 142 0
128 144 0
127 142 0
130 147 0
144 161 0
136 154 0
143 159 0
136 152 0
132 146 0
134 149 0
131 145 0
127 142 0
137 155 0
135 147 0
132 148 0
128 144 0
141 158 0
132 146 0
130 144 0
133 149 0
139 156 0
137 152 0
133 148 0
129 144 0
135 151 0
142 154 0
146 163 0
133 146 0
136 152 0
130 144 0
125 139 0
127 139 0
131 142 0
131 144 0
136 150 0
135 149 0
134 148 0
130 139 0
132 144 0
142 153 0
130 140 0
131 142 0
126 133 0
126 132 0
138 147 0
134 142 0
132 142 0
129 138 0
133 141 0
131 140 0
128 135 0
128 137 0
129 141 0
132 138 0
135 140 0
126 134 0
126 131 0
141 148 0
126 129 0
128 134 0
122 129 0
132 138 0
136 141 0
134 139 0
135 139 0
124 127 0
134 138 0
128 129 0
121 121 0
123 125 0
126 130 0
119 121 0
126 128 0
132 133 0
129 132 0
121 121 0
128 128 0
112 111 0
124 122 0
123 122 0
124 125 0
136 139 0
115 114 0
128 128 0
123 124 0
119 116 0
126 126 0
128 130 0
123 121 0
121 117 0
120 116 0
125 121 0
125 124 0
121 117 0
124 121 0
129 129 0
128 129 0
136 135 0
128 128 0
133 134 0
128 128 0
130 129 0
140 143 0
139 142 0
125 125 0
137 137 0
134 135 0
145 148 0
144 147 0
144 146 0
131 131 0
132 134 0
141 142 0
135 138 0
143 147 0
144 148 0
137 140 0
142 146 0
146 152 0
148 155 0
151 159 0
147 153 0
149 156 0
153 160 0
138 144 0
149 158 0
152 160 0
149 159 0
155 163 0
152 163 0
143 148 0
151 159 0
153 165 0
149 155 0
162 173 0
150 159 0
152 163 0
155 166 0
156 167 0
161 175 0
157 170 0
157 172 0
155 166 0
159 171 0
162 175 0
158 170 0
160 175 0
159 171 0
160 175 0
167 184 0
165 180 0
173 196 0
175 197 0
176 198 0
170 193 0
174 197 0
175 197 0
175 197 0
173 196 0
172 194 0
173 195 0
172 195 0
176 197 0
175 196 0
175 197 0
172 194 0
173 195 0
176 197 0
175 197 0
172 194 0
172 194 0
170 192 0
173 196 0
174 195 0
171 193 0
173 194 0
176 197 0
174 195 0
170 191 0
173 195 0
173 194 0
173 194 0
171 192 0
172 192 0
172 194 0
172 193 0
172 194 0
173 194 0
173 194 0
168 189 0
172 193 0
171 192 0
168 189 0
172 192 0
173 194 0
174 195 0
169 189 0
173 194 0
172 193 0
164 184 0
168 187 0
173 193 0
168 188 0
171 192 0
164 184 0
168 187 0
173 193 0
166 186 0
169 189 0
171 191 0
170 191 0
173 194 0
170 190 0
167 188 0
167 187 0
168 188 0
166 186 0
170 190 0
169 189 0
170 190 0
168 189 0
165 185 0
167 187 0
168 189 0
159 180 0
163 183 0
171 191 0
162 183 0
167 186 0
162 183 0
158 178 0
164 185 0
162 183 0
170 191 0
163 183 0
161 182 0
161 181 0
157 176 0
163 183 0
154 175 0
164 184 0
158 179 0
157 178 0
163 184 0
162 182 0
161 182 0
159 180 0
157 178 0
158 180 0
156 178 0
155 176 0
158 179 0
152 172 0
152 174 0
158 180 0
151 173 0
151 172 0
157 179 0
154 174 0
154 176 0
155 176 0
150 172 0
149 171 0
152 174 0
167 188 0
161 183 0
154 177 0
155 177 0
154 176 0
157 179 0
155 178 0
157 178 0
167 189 0
150 172 0
154 177 0
151 173 0
151 172 0
152 175 0
158 181 0
145 167 0
155 176 0
151 174 0
155 177 0
151 172 0
155 177 0
153 175 0
160 182 0
141 162 0
153 174 0
147 169 0
143 165 0
152 174 0
147 169 0
144 166 0
153 175 0
143 166 0
154 176 0
148 170 0
148 169 0
142 164 0
147 168 0
138 160 0
142 164 0
153 174 0
143 164 0
151 174 0
138 159 0
137 158 0
147 168 0
139 161 0
136 158 0
144 166 0
142 163 0
141 163 0
144 165 0
141 162 0
140 160 0
139 160 0
136 156 0
129 149 0
126 147 0
128 149 0
145 167 0
135 156 0
146 167 0
132 152 0
122 142 0
138 157 0
134 155 0
134 154 0
137 158 0
144 164 0
134 153 0
134 152 0
127 147 0
130 150 0
125 144 0
134 154 0
125 145 0
126 146 0
129 148 0
120 140 0
137 157 0
137 157 0
127 145 0
120 140 0
126 145 0
125 144 0
126 145 0
129 148 0
125 143 0
125 143 0
134 153 0
132 152 0
124 142 0
131 151 0
126 147 0
125 144 0
135 153 0
130 149 0
131 150 0
127 148 0
126 146 0
128 145 0
117 135 0
129 149 0
123 140 0
113 131 0
132 150 0
129 148 0
125 143 0
129 147 0
127 146 0
112 129 0
136 153 0
110 128 0
137 156 0
125 145 0
131 149 0
129 148 0
140 158 0
126 144 0
134 152 0
123 138 0
132 149 0
125 143 0
123 141 0
139 156 0
133 151 0
128 146 0
129 146 0
127 145 0
135 153 0
127 146 0
129 148 0
130 148 0
125 140 0
125 141 0
129 145 0
138 156 0
129 146 0
128 145 0
133 151 0
123 138 0
135 153 0
129 143 0
137 155 0
139 156 0
133 150 0
129 143 0
136 152 0
135 151 0
134 148 0
139 157 0
132 148 0
117 131 0
131 146 0
127 142 0
141 156 0
138 152 0
134 148 0
141 157 0
138 151 0
132 148 0
136 152 0
139 155 0
123 138 0
122 135 0
132 145 0
134 146 0
130 142 0
128 143 0
138 149 0
140 153 0
132 146 0
138 150 0
131 143 0
147 163 0
139 152 0
124 135 0
133 142 0
137 149 0
136 148 0
134 145 0
123 132 0
137 148 0
140 150 0
138 148 0
131 139 0
135 143 0
125 131 0
136 144 0
134 140 0
127 136 0
118 125 0
123 128 0
134 141 0
123 128 0
125 132 0
133 140 0
128 134 0
128 134 0
120 122 0
131 137 0
126 130 0
122 128 0
127 133 0
120 124 0
124 128 0
123 125 0
133 135 0
132 133 0
125 128 0
131 133 0
124 124 0
121 124 0
125 123 0
132 134 0
121 122 0
141 147 0
122 121 0
130 133 0
126 124 0
120 120 0
133 131 0
121 118 0
122 118 0
134 138 0
115 112 0
127 122 0
125 123 0
125 122 0
124 121 0
125 123 0
121 117 0
129 128 0
127 127 0
125 124 0
129 131 0
132 133 0
136 137 0
137 135 0
126 125 0
138 139 0
131 129 0
133 134 0
128 127 0
140 142 0
136 136 0
126 126 0
129 132 0
140 143 0
124 125 0
138 138 0
142 146 0
145 146 0
138 142 0
150 156 0
145 149 0
144 150 0
148 154 0
147 153 0
144 152 0
150 154 0
152 161 0
147 153 0
151 156 0
154 162 0
152 161 0
159 167 0
151 160 0
145 153 0
151 159 0
154 160 0
157 166 0
161 172 0
154 165 0
152 163 0
153 163 0
154 163 0
159 171 0
158 171 0
158 169 0
161 174 0
161 171 0
155 167 0
158 173 0
159 170 0
167 180 0
162 174 0
163 179 0
175 196 0
174 196 0
172 194 0
173 195 0
174 196 0
175 197 0
173 195 0
176 198 0
174 196 0
174 196 0
174 196 0
173 195 0
173 195 0
172 193 0
174 195 0
172 194 0
173 194 0
176 197 0
174 195 0
175 196 0
173 195 0
175 197 0
172 194 0
172 193 0
174 195 0
170 190 0
170 192 0
169 190 0
175 197 0
175 196 0
172 194 0
171 193 0
172 192 0
172 193 0
173 194 0
175 195 0
173 193 0
168 190 0
167 188 0
174 194 0
172 193 0
169 189 0
174 195 0
168 189 0
167 188 0
173 194 0
171 191 0
167 188 0
174 195 0
172 192 0
168 188 0
166 187 0
169 189 0
169 190 0
167 188 0
167 188 0
164 185 0
169 189 0
170 191 0
166 187 0
166 187 0
170 191 0
164 184 0
164 185 0
166 187 0
165 186 0
169 189 0
171 191 0
167 187 0
170 190 0
171 191 0
161 182 0
168 189 0
161 182 0
168 189 0
164 184 0
167 187 0
158 179 0
160 182 0
162 182 0
163 184 0
158 179 0
165 185 0
158 179 0
153 173 0
160 182 0
162 183 0
167 189 0
161 182 0
166 188 0
155 176 0
160 182 0
156 177 0
163 184 0
158 179 0
158 179 0
158 180 0
156 178 0
162 185 0
158 179 0
160 181 0
161 183 0
158 179 0
156 177 0
153 176 0
156 178 0
144 166 0
160 181 0
165 187 0
158 180 0
158 179 0
149 172 0
156 177 0
152 173 0
155 177 0
157 179 0
162 184 0
158 181 0
152 172 0
155 177 0
154 176 0
159 181 0
156 178 0
156 178 0
150 172 0
148 170 0
150 172 0
154 176 0
153 176 0
152 173 0
148 170 0
148 169 0
156 178 0
158 181 0
146 169 0
143 165 0
154 176 0
151 173 0
153 175 0
150 173 0
151 174 0
156 179 0
152 174 0
153 174 0
142 165 0
148 169 0
145 167 0
143 164 0
151 174 0
147 169 0
142 165 0
141 162 0
145 166 0
149 170 0
138 159 0
146 166 0
150 172 0
146 168 0
132 153 0
142 164 0
143 164 0
137 159 0
142 162 0
136 157 0
140 161 0
136 157 0
138 159 0
145 166 0
139 160 0
138 159 0
145 168 0
130 151 0
135 156 0
140 159 0
138 157 0
139 160 0
132 151 0
126 148 0
114 134 0
135 155 0
135 156 0
121 141 0
126 147 0
130 149 0
139 159 0
130 150 0
128 147 0
143 164 0
131 151 0
129 148 0
124 144 0
126 145 0
140 158 0
131 151 0
123 142 0
136 155 0
124 144 0
129 148 0
125 145 0
133 152 0
137 158 0
131 151 0
132 150 0
131 151 0
121 140 0
133 152 0
135 156 0
129 150 0
125 144 0
139 158 0
130 148 0
120 138 0
130 148 0
136 154 0
129 148 0
123 142 0
125 143 0
133 152 0
123 142 0
136 154 0
117 136 0
127 146 0
119 136 0
126 145 0
139 159 0
131 151 0
131 149 0
118 137 0
129 148 0
141 160 0
131 148 0
130 150 0
128 146 0
136 154 0
122 141 0
124 142 0
129 148 0
121 138 0
139 156 0
138 155 0
129 148 0
128 146 0
136 155 0
135 154 0
136 151 0
120 137 0
144 159 0
144 162 0
128 147 0
135 151 0
128 146 0
128 145 0
144 163 0
133 150 0
141 157 0
133 149 0
131 149 0
137 153 0
121 138 0
137 154 0
134 153 0
121 137 0
131 147 0
144 161 0
131 148 0
135 150 0
136 151 0
137 152 0
136 152 0
136 153 0
137 154 0
134 149 0
132 146 0
136 153 0
134 147 0
131 146 0
138 155 0
134 148 0
147 160 0
139 153 0
132 145 0
137 152 0
132 146 0
133 147 0
134 147 0
134 149 0
127 139 0
133 145 0
136 146 0
134 145 0
143 157 0
131 141 0
142 151 0
131 140 0
142 154 0
128 141 0
130 140 0
138 148 0
137 148 0
136 147 0
131 140 0
140 147 0
130 138 0
142 152 0
127 137 0
129 132 0
128 138 0
135 142 0
123 128 0
136 144 0
128 134 0
126 132 0
131 137 0
136 144 0
135 141 0
137 142 0
128 134 0
132 135 0
136 142 0
131 136 0
130 137 0
131 135 0
129 132 0
126 130 0
134 137 0
130 131 0
127 129 0
120 121 0
121 127 0
109 108 0
129 130 0
126 126 0
124 126 0
123 123 0
124 123 0
122 121 0
128 130 0
130 129 0
124 123 0
135 139 0
130 127 0
116 115 0
130 131 0
122 121 0
130 129 0
134 137 0
129 126 0
134 134 0
126 124 0
118 115 0
130 132 0
133 132 0
134 131 0
136 139 0
123 124 0
137 139 0
139 143 0
143 145 0
132 135 0
140 144 0
131 133 0
139 141 0
142 147 0
135 138 0
141 145 0
150 154 0
144 149 0
145 149 0
145 150 0
147 151 0
143 149 0
149 156 0
152 158 0
147 153 0
155 162 0
149 155 0
145 149 0
151 159 0
153 162 0
150 159 0
150 158 0
153 164 0
148 157 0
160 171 0
154 166 0
150 157 0
151 160 0
146 155 0
150 161 0
155 163 0
148 157 0
158 171 0
161 173 0
155 167 0
156 167 0
159 171 0
159 172 0
159 173 0
158 171 0
161 175 0
173 195 0
174 196 0
173 195 0
174 196 0
175 197 0
171 194 0
174 196 0
174 196 0
172 194 0
175 196 0
171 193 0
169 191 0
174 195 0
172 194 0
176 197 0
174 196 0
172 193 0
171 192 0
172 194 0
173 195 0
172 194 0
174 195 0
172 194 0
170 192 0
172 193 0
174 195 0
171 193 0
172 192 0
171 193 0
171 192 0
169 190 0
169 191 0
176 197 0
171 192 0
168 190 0
174 194 0
176 196 0
171 192 0
168 188 0
170 191 0
176 197 0
172 192 0
171 191 0
173 193 0
173 193 0
171 192 0
168 188 0
163 183 0
161 181 0
169 190 0
164 185 0
169 190 0
164 184 0
169 190 0
168 188 0
171 191 0
168 189 0
171 191 0
166 186 0
166 187 0
168 188 0
171 191 0
172 192 0
167 188 0
162 182 0
168 188 0
172 192 0
171 190 0
164 185 0
160 180 0
173 193 0
162 182 0
167 188 0
162 183 0
165 186 0
169 190 0
157 177 0
165 186 0
166 186 0
163 184 0
165 185 0
162 183 0
165 185 0
155 176 0
162 182 0
161 182 0
163 184 0
164 185 0
164 185 0
158 179 0
164 184 0
164 186 0
164 185 0
164 187 0
158 180 0
165 187 0
157 178 0
161 182 0
161 182 0
158 180 0
159 180 0
161 182 0
155 176 0
153 176 0
164 186 0
160 182 0
155 176 0
152 175 0
157 178 0
157 180 0
156 177 0
160 182 0
160 182 0
156 179 0
162 183 0
158 181 0
160 182 0
160 182 0
158 178 0
150 172 0
152 175 0
154 177 0
164 186 0
158 180 0
156 178 0
153 175 0
159 181 0
160 183 0
155 177 0
151 173 0
154 175 0
151 173 0
153 175 0
150 174 0
152 174 0
149 172 0
147 170 0
150 172 0
159 181 0
141 162 0
156 178 0
149 171 0
156 177 0
152 176 0
149 171 0
143 166 0
145 167 0
139 160 0
152 174 0
149 171 0
156 177 0
144 165 0
139 161 0
135 155 0
139 161 0
156 178 0
147 167 0
139 159 0
138 160 0
133 154 0
147 167 0
142 163 0
141 161 0
139 161 0
139 161 0
139 161 0
144 165 0
137 158 0
142 163 0
139 160 0
135 157 0
142 162 0
126 148 0
133 154 0
133 155 0
136 156 0
118 137 0
130 150 0
125 145 0
137 157 0
135 156 0
150 170 0
137 157 0
134 154 0
129 149 0
128 149 0
127 146 0
142 163 0
128 147 0
126 145 0
130 151 0
124 144 0
121 139 0
126 147 0
127 148 0
135 155 0
130 150 0
140 160 0
139 158 0
129 149 0
125 142 0
138 157 0
124 143 0
129 148 0
132 151 0
129 150 0
133 152 0
129 150 0
138 158 0
132 150 0
127 145 0
124 143 0
127 146 0
134 153 0
135 153 0
128 147 0
130 150 0
133 152 0
130 150 0
129 148 0
131 149 0
130 149 0
134 151 0
138 157 0
139 158 0
128 147 0
123 141 0
125 144 0
127 145 0
133 151 0
130 146 0
130 148 0
132 150 0
133 152 0
133 150 0
123 139 0
130 149 0
140 158 0
128 148 0
137 155 0
131 147 0
134 153 0
136 155 0
139 157 0
124 143 0
134 151 0
128 146 0
135 153 0
129 147 0
134 150 0
126 144 0
134 150 0
135 153 0
133 150 0
137 153 0
129 145 0
147 163 0
138 154 0
139 157 0
132 148 0
141 158 0
146 163 0
138 154 0
131 147 0
146 164 0
132 148 0
137 156 0
135 151 0
140 158 0
128 142 0
136 152 0
141 159 0
127 144 0
145 160 0
133 145 0
132 148 0
131 146 0
139 154 0
134 148 0
137 152 0
138 153 0
125 138 0
133 146 0
140 156 0
133 146 0
140 153 0
142 157 0
128 139 0
131 145 0
141 151 0
130 143 0
139 152 0
151 165 0
143 156 0
139 154 0
133 142 0
138 151 0
136 149 0
131 139 0
131 141 0
137 146 0
133 143 0
130 139 0
132 142 0
135 144 0
131 138 0
134 144 0
126 129 0
130 141 0
133 141 0
132 139 0
126 134 0
124 130 0
132 140 0
130 138 0
132 140 0
130 137 0
133 140 0
128 135 0
136 139 0
131 135 0
130 132 0
140 144 0
128 131 0
124 124 0
130 134 0
120 123 0
125 127 0
128 130 0
135 139 0
121 122 0
119 118 0
130 134 0
135 134 0
118 119 0
125 125 0
120 118 0
127 130 0
133 135 0
128 131 0
123 123 0
123 122 0
132 133 0
120 119 0
131 133 0
133 134 0
132 134 0
132 134 0
130 130 0
138 143 0
137 138 0
129 130 0
134 136 0
125 126 0
129 129 0
139 141 0
138 141 0
138 139 0
137 141 0
138 141 0
135 140 0
135 138 0
137 140 0
146 151 0
143 146 0
144 147 0
140 145 0
129 132 0
146 152 0
142 145 0
146 149 0
151 159 0
146 149 0
146 153 0
153 157 0
148 155 0
151 158 0
149 157 0
151 158 0
153 162 0
151 159 0
150 160 0
152 161 0
160 172 0
150 159 0
150 159 0
158 168 0
154 164 0
152 162 0
157 168 0
156 166 0
155 167 0
162 175 0
158 169 0
157 169 0
156 169 0
151 164 0
158 172 0
152 164 0
159 173 0
176 198 0
172 194 0
175 197 0
172 194 0
173 195 0
173 194 0
175 197 0
173 195 0
176 198 0
173 195 0
175 196 0
171 193 0
175 197 0
171 193 0
174 196 0
172 194 0
171 193 0
172 194 0
172 194 0
171 193 0
169 191 0
173 194 0
174 195 0
173 194 0
174 195 0
172 193 0
168 190 0
171 192 0
172 192 0
176 195 0
175 196 0
169 190 0
171 192 0
174 194 0
168 190 0
171 193 0
169 190 0
171 192 0
171 192 0
167 188 0
173 193 0
170 190 0
172 192 0
173 193 0
171 192 0
171 193 0
174 195 0
169 190 0
169 189 0
166 186 0
170 191 0
175 195 0
171 191 0
172 193 0
169 189 0
168 189 0
174 194 0
170 191 0
166 187 0
165 185 0
167 188 0
167 188 0
166 186 0
171 191 0
169 190 0
165 186 0
169 189 0
166 186 0
165 186 0
164 184 0
173 193 0
166 187 0
167 188 0
161 182 0
166 187 0
158 178 0
161 183 0
161 182 0
165 186 0
162 183 0
168 188 0
165 186 0
158 180 0
165 186 0
158 179 0
164 186 0
167 189 0
158 179 0
161 183 0
163 184 0
164 186 0
155 176 0
157 179 0
164 186 0
165 187 0
156 177 0
158 180 0
153 174 0
159 181 0
157 178 0
156 178 0
154 174 0
160 182 0
155 178 0
156 177 0
155 177 0
152 173 0
157 178 0
162 184 0
155 176 0
155 176 0
158 181 0
154 175 0
155 177 0
166 188 0
151 173 0
151 174 0
150 171 0
157 179 0
158 180 0
148 169 0
162 184 0
155 178 0
144 166 0
158 180 0
152 175 0
150 173 0
157 178 0
144 165 0
151 173 0
155 175 0
156 178 0
147 168 0
147 169 0
152 175 0
151 173 0
141 163 0
153 174 0
156 179 0
146 168 0
153 176 0
149 172 0
144 166 0
140 161 0
143 164 0
154 176 0
143 166 0
152 174 0
143 166 0
147 169 0
149 170 0
144 166 0
152 174 0
148 169 0
144 166 0
147 169 0
146 167 0
144 165 0
135 157 0
148 170 0
144 165 0
142 164 0
138 159 0
143 164 0
138 159 0
136 156 0
137 158 0
138 159 0
142 163 0
138 159 0
137 157 0
138 160 0
140 162 0
136 156 0
137 157 0
137 157 0
141 162 0
129 150 0
135 156 0
134 154 0
147 168 0
130 150 0
142 163 0
143 163 0
134 156 0
124 144 0
138 159 0
134 155 0
139 159 0
129 150 0
118 136 0
143 164 0
135 157 0
130 150 0
132 151 0
132 152 0
128 147 0
124 143 0
137 156 0
129 149 0
130 149 0
130 148 0
136 156 0
132 152 0
128 148 0
127 146 0
130 150 0
130 149 0
130 148 0
135 154 0
126 145 0
134 153 0
136 155 0
131 150 0
135 156 0
138 158 0
128 147 0
134 153 0
132 150 0
129 149 0
123 141 0
135 153 0
133 153 0
131 151 0
142 160 0
131 149 0
128 145 0
125 144 0
125 141 0
129 148 0
127 145 0
127 143 0
134 152 0
135 155 0
135 153 0
134 152 0
129 147 0
134 152 0
130 149 0
142 161 0
135 154 0
141 159 0
135 154 0
137 155 0
136 156 0
124 139 0
134 153 0
138 156 0
141 160 0
144 163 0
137 156 0
135 153 0
137 153 0
142 161 0
125 142 0
125 141 0
140 157 0
138 155 0
131 148 0
136 153 0
138 155 0
135 150 0
127 141 0
133 150 0
140 157 0
134 148 0
142 158 0
134 151 0
134 150 0
133 148 0
138 152 0
139 155 0
134 148 0
135 148 0
134 148 0
136 149 0
139 155 0
136 150 0
142 157 0
144 158 0
144 157 0
135 149 0
139 152 0
129 142 0
144 158 0
129 142 0
136 152 0
138 152 0
137 151 0
142 157 0
137 149 0
147 160 0
136 151 0
134 145 0
137 147 0
138 149 0
131 143 0
138 148 0
139 150 0
139 147 0
133 145 0
137 149 0
137 147 0
138 148 0
134 141 0
129 135 0
131 143 0
134 144 0
134 143 0
136 143 0
127 133 0
125 134 0
125 130 0
126 132 0
133 140 0
131 136 0
133 141 0
129 133 0
130 136 0
128 133 0
134 140 0
127 131 0
137 141 0
135 141 0
133 138 0
133 136 0
144 151 0
132 137 0
122 122 0
130 133 0
127 126 0
126 126 0
132 135 0
143 149 0
136 140 0
127 127 0
131 135 0
128 128 0
133 135 0
133 135 0
124 125 0
133 133 0
133 134 0
132 134 0
131 130 0
133 136 0
131 131 0
138 139 0
131 134 0
138 142 0
140 145 0
129 132 0
140 144 0
128 128 0
132 134 0
136 140 0
139 142 0
127 125 0
141 142 0
142 144 0
134 136 0
132 132 0
139 145 0
139 142 0
142 142 0
135 135 0
134 135 0
140 143 0
146 150 0
145 152 0
142 147 0
147 153 0
145 148 0
143 148 0
147 152 0
147 151 0
148 153 0
150 156 0
149 157 0
151 160 0
152 156 0
152 161 0
155 164 0
157 167 0
150 158 0
154 161 0
151 160 0
152 162 0
155 166 0
159 168 0
151 162 0
154 167 0
160 171 0
151 163 0
158 169 0
158 172 0
159 171 0
160 172 0
164 180 0
161 174 0
175 197 0
173 196 0
172 194 0
174 197 0
170 193 0
173 195 0
170 192 0
174 195 0
170 193 0
175 196 0
175 197 0
174 196 0
174 196 0
167 190 0
171 193 0
170 192 0
174 195 0
172 194 0
172 193 0
174 196 0
174 196 0
176 197 0
171 192 0
173 195 0
173 195 0
172 193 0
171 192 0
175 195 0
170 191 0
169 190 0
174 195 0
168 188 0
175 196 0
170 191 0
169 190 0
170 191 0
169 189 0
174 194 0
169 190 0
166 187 0
169 190 0
173 193 0
173 193 0
173 194 0
172 193 0
172 193 0
166 187 0
170 190 0
169 190 0
170 190 0
170 190 0
169 189 0
171 192 0
172 192 0
170 191 0
166 187 0
165 186 0
164 185 0
167 188 0
169 190 0
168 189 0
165 185 0
161 182 0
166 187 0
162 183 0
169 189 0
165 186 0
164 184 0
160 181 0
171 192 0
162 184 0
167 187 0
161 182 0
164 185 0
161 182 0
165 186 0
154 174 0
160 181 0
161 183 0
162 184 0
166 187 0
161 182 0
162 183 0
157 178 0
162 183 0
163 184 0
157 178 0
158 180 0
164 186 0
159 180 0
163 186 0
154 176 0
161 182 0
157 179 0
159 180 0
162 185 0
168 190 0
152 174 0
158 181 0
155 178 0
162 183 0
161 182 0
158 180 0
155 176 0
155 178 0
152 175 0
157 179 0
156 178 0
157 179 0
153 175 0
158 179 0
155 176 0
147 170 0
159 181 0
158 180 0
156 179 0
158 179 0
148 171 0
156 178 0
153 175 0
154 177 0
160 183 0
146 168 0
158 181 0
149 171 0
155 176 0
150 173 0
153 175 0
152 175 0
150 171 0
146 169 0
156 179 0
153 175 0
143 164 0
150 173 0
149 172 0
144 166 0
148 171 0
155 176 0
153 174 0
150 172 0
153 174 0
147 169 0
150 173 0
152 173 0
148 169 0
148 170 0
144 166 0
148 170 0
145 167 0
146 167 0
148 170 0
146 168 0
146 167 0
136 159 0
145 168 0
148 170 0
146 166 0
142 164 0
146 167 0
141 163 0
153 174 0
143 165 0
135 156 0
139 161 0
140 162 0
135 158 0
145 166 0
131 151 0
127 148 0
139 160 0
137 158 0
143 164 0
138 158 0
133 154 0
131 152 0
136 157 0
130 150 0
135 156 0
142 163 0
134 156 0
141 161 0
134 155 0
140 160 0
142 161 0
137 158 0
140 161 0
141 162 0
135 155 0
138 157 0
129 148 0
139 159 0
137 158 0
135 153 0
133 154 0
137 157 0
135 155 0
135 154 0
126 146 0
135 153 0
135 153 0
126 147 0
134 154 0
133 154 0
135 155 0
135 156 0
131 150 0
131 151 0
131 151 0
127 147 0
130 150 0
131 150 0
133 152 0
120 138 0
126 146 0
139 159 0
136 154 0
130 150 0
140 161 0
119 137 0
134 152 0
118 135 0
136 154 0
128 148 0
126 144 0
133 151 0
136 155 0
130 149 0
130 146 0
124 142 0
129 150 0
127 147 0
134 152 0
130 149 0
138 157 0
124 141 0
127 145 0
138 156 0
135 153 0
137 154 0
135 153 0
133 150 0
137 156 0
127 146 0
136 154 0
124 144 0
141 159 0
130 146 0
129 146 0
140 159 0
129 145 0
136 154 0
130 147 0
132 150 0
129 145 0
135 154 0
137 154 0
137 155 0
132 149 0
132 150 0
138 156 0
140 156 0
131 146 0
132 149 0
144 160 0
141 159 0
141 157 0
145 162 0
137 150 0
143 159 0
129 144 0
136 155 0
139 155 0
138 154 0
140 156 0
142 158 0
137 150 0
134 150 0
141 155 0
143 157 0
138 154 0
134 150 0
128 142 0
143 156 0
141 156 0
134 147 0
129 142 0
129 141 0
143 156 0
138 151 0
142 154 0
144 155 0
139 150 0
134 147 0
130 143 0
134 147 0
138 150 0
138 150 0
132 142 0
136 145 0
141 152 0
138 149 0
133 144 0
134 140 0
140 149 0
133 139 0
132 142 0
132 143 0
141 153 0
138 148 0
141 150 0
127 133 0
135 145 0
132 139 0
139 148 0
129 138 0
141 149 0
134 143 0
135 139 0
125 131 0
134 140 0
131 137 0
141 149 0
126 130 0
136 141 0
132 135 0
129 133 0
137 142 0
138 142 0
135 138 0
132 135 0
136 139 0
135 140 0
144 150 0
144 148 0
137 142 0
138 142 0
127 131 0
138 141 0
136 139 0
130 132 0
131 132 0
135 141 0
136 139 0
128 128 0
139 141 0
134 135 0
131 132 0
135 137 0
135 140 0
138 142 0
135 139 0
139 140 0
138 142 0
149 155 0
145 148 0
134 138 0
136 138 0
140 144 0
129 131 0
138 141 0
141 143 0
139 143 0
149 153 0
141 147 0
145 149 0
143 146 0
147 153 0
145 150 0
139 140 0
141 145 0
149 154 0
146 152 0
150 157 0
143 149 0
151 160 0
143 148 0
150 157 0
155 165 0
147 155 0
143 149 0
144 151 0
153 161 0
152 161 0
155 165 0
160 170 0
153 163 0
150 159 0
151 157 0
152 161 0
161 172 0
165 177 0
155 165 0
156 165 0
150 159 0
156 168 0
155 165 0
157 169 0
153 165 0
155 168 0
173 195 0
173 196 0
174 196 0
173 195 0
170 192 0
176 198 0
174 196 0
169 191 0
172 194 0
170 192 0
168 190 0
176 198 0
172 193 0
176 197 0
174 195 0
173 195 0
170 191 0
172 193 0
173 195 0
175 196 0
176 198 0
171 192 0
172 194 0
174 195 0
174 195 0
171 192 0
173 194 0
171 192 0
170 191 0
172 193 0
169 190 0
173 194 0
172 194 0
168 190 0
168 189 0
175 195 0
170 191 0
170 191 0
170 190 0
164 185 0
167 188 0
175 195 0
169 189 0
169 191 0
173 194 0
171 192 0
170 191 0
170 190 0
167 188 0
167 189 0
170 191 0
167 188 0
164 185 0
171 191 0
172 193 0
166 187 0
170 190 0
162 183 0
170 190 0
170 191 0
171 192 0
166 186 0
168 188 0
165 186 0
166 186 0
169 190 0
161 183 0
162 183 0
163 184 0
163 184 0
161 181 0
164 185 0
166 186 0
162 184 0
160 180 0
164 185 0
167 188 0
161 182 0
161 182 0
158 179 0
164 186 0
164 186 0
170 190 0
160 181 0
156 177 0
159 180 0
157 177 0
164 185 0
162 183 0
167 187 0
158 179 0
162 184 0
161 182 0
160 182 0
160 183 0
156 179 0
162 184 0
158 181 0
165 186 0
158 179 0
156 179 0
164 186 0
161 184 0
161 183 0
159 181 0
160 182 0
153 175 0
152 174 0
155 176 0
165 187 0
158 180 0
153 174 0
159 182 0
149 170 0
152 174 0
161 184 0
146 168 0
160 182 0
150 172 0
150 173 0
157 180 0
150 172 0
153 175 0
152 174 0
155 176 0
156 179 0
152 174 0
158 181 0
154 176 0
153 175 0
148 169 0
156 179 0
152 173 0
153 174 0
156 178 0
150 172 0
153 175 0
155 178 0
148 170 0
152 173 0
147 169 0
140 163 0
144 165 0
149 171 0
148 171 0
146 169 0
149 172 0
150 172 0
138 159 0
153 174 0
143 165 0
149 170 0
139 160 0
147 169 0
140 162 0
144 164 0
143 165 0
146 168 0
144 166 0
138 159 0
141 163 0
147 168 0
142 163 0
138 159 0
142 163 0
140 161 0
151 174 0
148 169 0
139 161 0
134 155 0
137 158 0
139 160 0
140 160 0
137 159 0
136 157 0
139 161 0
133 154 0
137 158 0
138 159 0
138 159 0
136 158 0
137 159 0
130 151 0
130 151 0
129 149 0
138 159 0
135 154 0
137 158 0
125 146 0
135 155 0
132 153 0
137 158 0
127 147 0
138 158 0
132 152 0
134 154 0
138 157 0
126 146 0
137 157 0
131 150 0
132 152 0
133 154 0
135 156 0
130 150 0
145 165 0
133 153 0
130 150 0
131 150 0
137 156 0
138 156 0
124 144 0
124 143 0
126 146 0
138 158 0
137 154 0
135 156 0
129 148 0
140 159 0
135 154 0
128 149 0
136 155 0
130 148 0
126 146 0
125 143 0
134 153 0
134 153 0
134 152 0
136 154 0
136 156 0
135 155 0
128 146 0
134 154 0
135 155 0
141 158 0
129 148 0
133 151 0
133 152 0
128 148 0
135 154 0
134 152 0
134 152 0
142 160 0
128 144 0
137 155 0
135 151 0
136 153 0
139 157 0
136 155 0
137 155 0
139 158 0
139 157 0
141 158 0
135 152 0
135 150 0
137 155 0
136 154 0
138 156 0
130 147 0
131 147 0
145 162 0
136 151 0
138 155 0
141 157 0
141 157 0
136 153 0
141 157 0
136 152 0
140 157 0
140 157 0
135 152 0
141 158 0
138 154 0
135 151 0
140 156 0
131 146 0
132 148 0
130 145 0
149 167 0
139 157 0
142 157 0
143 158 0
130 144 0
145 161 0
129 143 0
145 160 0
150 166 0
141 155 0
141 152 0
136 147 0
144 157 0
132 144 0
141 153 0
144 156 0
130 144 0
135 150 0
130 142 0
119 129 0
143 156 0
135 148 0
139 152 0
140 151 0
130 140 0
139 150 0
140 151 0
139 150 0
143 157 0
140 149 0
133 143 0
144 154 0
139 147 0
134 143 0
134 143 0
140 149 0
128 137 0
141 151 0
134 144 0
128 136 0
134 141 0
136 145 0
133 140 0
137 147 0
137 146 0
132 136 0
138 142 0
131 136 0
135 139 0
135 141 0
137 141 0
139 146 0
139 146 0
131 137 0
136 143 0
142 147 0
139 140 0
135 137 0
127 126 0
133 138 0
131 134 0
132 134 0
134 135 0
138 142 0
134 139 0
139 145 0
129 132 0
130 135 0
138 140 0
136 139 0
126 129 0
129 129 0
139 139 0
130 129 0
144 147 0
137 139 0
136 141 0
138 140 0
131 134 0
130 131 0
140 144 0
140 143 0
142 141 0
137 140 0
136 139 0
131 133 0
141 144 0
140 144 0
148 154 0
139 143 0
139 142 0
147 150 0
135 140 0
147 157 0
150 158 0
148 154 0
143 149 0
145 150 0
150 156 0
142 150 0
150 157 0
148 154 0
147 155 0
152 158 0
142 150 0
154 165 0
148 155 0
150 158 0
151 161 0
152 161 0
149 156 0
152 159 0
158 171 0
155 164 0
159 168 0
154 164 0
152 160 0
162 176 0
158 170 0
156 167 0
158 165 0
159 172 0
153 165 0
175 196 0
169 191 0
172 196 0
174 196 0
172 195 0
174 196 0
174 197 0
176 198 0
168 191 0
169 192 0
173 194 0
169 191 0
175 197 0
170 192 0
175 196 0
172 193 0
168 190 0
174 194 0
175 196 0
176 198 0
175 197 0
171 192 0
169 191 0
175 196 0
171 192 0
168 189 0
174 194 0
175 196 0
171 192 0
172 192 0
171 192 0
169 191 0
174 195 0
172 193 0
168 188 0
171 192 0
173 193 0
171 192 0
172 192 0
168 189 0
170 191 0
170 190 0
166 187 0
163 183 0
171 192 0
170 191 0
170 191 0
167 188 0
172 193 0
171 192 0
167 188 0
167 188 0
169 190 0
165 186 0
170 190 0
171 192 0
172 192 0
165 186 0
166 186 0
161 183 0
163 184 0
168 190 0
160 182 0
169 190 0
164 185 0
167 187 0
162 183 0
166 187 0
164 185 0
156 177 0
168 189 0
165 186 0
162 182 0
167 189 0
165 186 0
166 188 0
162 184 0
161 182 0
155 176 0
163 184 0
163 185 0
164 186 0
165 187 0
165 187 0
151 172 0
158 179 0
159 180 0
158 179 0
155 176 0
156 178 0
164 186 0
161 182 0
161 182 0
162 184 0
154 175 0
154 175 0
162 183 0
156 178 0
158 180 0
156 178 0
161 183 0
161 183 0
160 181 0
161 183 0
152 174 0
154 176 0
155 175 0
158 179 0
153 176 0
161 183 0
157 180 0
158 180 0
153 175 0
156 179 0
156 177 0
151 173 0
153 174 0
156 179 0
156 178 0
160 182 0
156 178 0
155 177 0
161 182 0
159 181 0
150 172 0
148 169 0
144 167 0
139 160 0
150 172 0
151 173 0
156 178 0
154 177 0
148 171 0
154 175 0
153 174 0
146 168 0
156 178 0
142 165 0
152 174 0
158 179 0
146 168 0
154 175 0
155 178 0
150 173 0
150 173 0
146 168 0
143 165 0
149 170 0
142 164 0
140 161 0
145 165 0
148 169 0
147 168 0
145 167 0
147 168 0
140 162 0
145 165 0
141 163 0
144 164 0
144 166 0
146 167 0
139 161 0
142 163 0
151 172 0
147 168 0
140 162 0
141 163 0
146 166 0
141 162 0
145 167 0
146 167 0
139 160 0
142 164 0
149 171 0
139 160 0
145 167 0
136 158 0
142 163 0
143 165 0
144 165 0
137 157 0
144 164 0
139 159 0
140 162 0
136 155 0
144 164 0
142 163 0
137 158 0
139 160 0
136 154 0
138 158 0
131 152 0
133 153 0
132 153 0
134 154 0
144 165 0
140 161 0
135 155 0
143 163 0
124 143 0
137 159 0
141 162 0
142 162 0
137 158 0
126 145 0
136 157 0
136 154 0
139 158 0
131 152 0
133 153 0
132 150 0
141 160 0
141 160 0
120 140 0
129 148 0
136 155 0
135 155 0
139 160 0
130 151 0
139 158 0
133 149 0
144 163 0
131 148 0
141 161 0
139 159 0
143 162 0
138 156 0
135 155 0
143 164 0
134 154 0
137 157 0
129 149 0
136 155 0
131 151 0
132 150 0
135 153 0
137 156 0
132 150 0
135 154 0
132 152 0
138 157 0
125 143 0
144 161 0
142 162 0
130 149 0
135 152 0
138 158 0
138 157 0
135 153 0
137 155 0
138 158 0
139 156 0
124 140 0
142 160 0
136 154 0
135 152 0
141 159 0
138 154 0
139 157 0
138 154 0
147 166 0
137 154 0
143 162 0
141 158 0
133 148 0
136 153 0
133 151 0
141 157 0
135 148 0
141 158 0
144 160 0
140 155 0
144 161 0
143 158 0
139 156 0
144 159 0
145 160 0
135 151 0
138 153 0
133 146 0
139 154 0
134 148 0
131 144 0
134 148 0
135 150 0
127 140 0
137 151 0
140 155 0
142 154 0
141 157 0
133 147 0
125 138 0
133 144 0
137 150 0
137 150 0
139 150 0
140 154 0
137 150 0
142 154 0
141 155 0
135 150 0
141 155 0
137 147 0
137 151 0
135 149 0
137 148 0
140 150 0
135 145 0
144 153 0
133 143 0
131 140 0
148 161 0
135 148 0
143 153 0
144 154 0
144 156 0
142 151 0
137 145 0
131 139 0
135 144 0
136 143 0
144 151 0
127 133 0
135 141 0
139 146 0
133 139 0
139 148 0
139 146 0
134 140 0
136 142 0
134 137 0
131 136 0
134 137 0
133 137 0
139 142 0
135 141 0
133 138 0
136 143 0
135 141 0
138 143 0
143 149 0
144 150 0
139 145 0
138 142 0
129 132 0
126 129 0
133 135 0
133 136 0
128 130 0
134 139 0
142 145 0
147 152 0
143 146 0
148 156 0
135 139 0
140 147 0
130 131 0
143 146 0
142 146 0
142 146 0
138 140 0
148 154 0
142 146 0
146 148 0
146 150 0
137 137 0
143 147 0
147 151 0
142 148 0
145 150 0
140 144 0
146 152 0
139 144 0
145 150 0
147 153 0
149 153 0
146 151 0
146 151 0
153 162 0
149 157 0
151 160 0
151 160 0
157 164 0
146 151 0
155 166 0
150 158 0
151 159 0
152 163 0
146 153 0
149 160 0
157 167 0
156 165 0
152 160 0
158 171 0
151 160 0
159 172 0
152 163 0
158 168 0
155 166 0
154 164 0
176 197 0
174 196 0
172 194 0
174 196 0
172 194 0
176 198 0
172 194 0
173 195 0
172 193 0
174 195 0
174 196 0
172 194 0
174 195 0
172 193 0
177 198 0
178 198 0
174 196 0
176 197 0
169 192 0
174 196 0
172 194 0
176 197 0
173 194 0
172 193 0
173 195 0
171 192 0
174 195 0
173 194 0
174 196 0
167 188 0
169 190 0
169 190 0
173 194 0
172 193 0
166 187 0
170 192 0
169 190 0
174 194 0
176 196 0
171 192 0
172 193 0
169 190 0
168 188 0
166 188 0
164 185 0
169 190 0
168 188 0
172 193 0
170 192 0
166 187 0
171 192 0
169 190 0
169 190 0
161 181 0
164 186 0
164 186 0
164 186 0
169 190 0
168 189 0
165 186 0
167 187 0
169 189 0
168 189 0
168 188 0
166 188 0
159 181 0
158 180 0
169 190 0
164 185 0
164 184 0
161 182 0
159 180 0
158 179 0
169 190 0
163 185 0
167 189 0
166 188 0
166 187 0
163 184 0
163 184 0
159 181 0
163 185 0
162 184 0
163 185 0
157 178 0
161 184 0
161 182 0
161 183 0
159 181 0
160 181 0
160 182 0
159 181 0
164 186 0
161 182 0
163 184 0
156 179 0
153 175 0
164 186 0
162 183 0
161 183 0
155 178 0
158 180 0
160 182 0
156 178 0
159 181 0
159 181 0
152 174 0
160 183 0
163 185 0
154 176 0
155 178 0
158 180 0
160 183 0
158 181 0
149 171 0
153 173 0
157 179 0
155 177 0
155 177 0
153 174 0
157 179 0
152 175 0
162 184 0
146 167 0
149 171 0
153 175 0
156 179 0
153 176 0
155 177 0
155 176 0
155 177 0
146 168 0
154 177 0
156 177 0
152 173 0
148 169 0
144 167 0
144 165 0
156 179 0
154 177 0
152 174 0
157 179 0
146 169 0
145 167 0
158 180 0
142 164 0
146 168 0
147 168 0
146 168 0
151 173 0
134 156 0
155 176 0
147 168 0
139 161 0
148 171 0
145 168 0
148 170 0
149 171 0
150 173 0
144 166 0
139 161 0
143 164 0
147 169 0
151 173 0
143 164 0
143 165 0
141 163 0
144 165 0
142 164 0
151 171 0
141 162 0
138 160 0
136 158 0
139 160 0
150 170 0
144 166 0
144 164 0
135 155 0
134 156 0
131 151 0
133 154 0
133 154 0
138 159 0
145 166 0
136 155 0
135 156 0
142 161 0
136 157 0
131 151 0
130 151 0
139 159 0
133 152 0
135 157 0
125 146 0
141 161 0
145 166 0
135 157 0
138 158 0
134 155 0
139 158 0
140 160 0
138 158 0
131 152 0
140 160 0
133 153 0
138 159 0
133 155 0
140 160 0
137 156 0
137 157 0
127 148 0
143 162 0
139 159 0
130 150 0
136 155 0
141 162 0
133 154 0
130 150 0
132 152 0
140 160 0
136 155 0
134 154 0
132 151 0
131 147 0
130 149 0
139 157 0
129 149 0
144 163 0
137 158 0
133 150 0
112 131 0
135 155 0
135 154 0
140 159 0
134 152 0
129 148 0
132 150 0
141 161 0
135 153 0
148 168 0
129 149 0
134 153 0
137 157 0
125 142 0
139 159 0
134 150 0
136 154 0
131 150 0
137 155 0
137 155 0
143 162 0
136 154 0
133 150 0
139 158 0
139 158 0
135 152 0
148 164 0
141 159 0
134 151 0
130 148 0
130 147 0
142 159 0
130 146 0
139 157 0
142 162 0
135 149 0
138 153 0
145 162 0
147 164 0
143 159 0
135 150 0
150 167 0
140 156 0
143 160 0
142 159 0
135 151 0
142 158 0
133 150 0
142 160 0
145 159 0
148 164 0
127 141 0
132 146 0
137 153 0
135 149 0
130 144 0
140 156 0
140 156 0
137 151 0
143 157 0
140 152 0
147 162 0
141 157 0
144 156 0
134 148 0
148 159 0
141 154 0
141 152 0
134 147 0
141 154 0
134 148 0
141 152 0
130 142 0
137 152 0
143 155 0
143 152 0
141 152 0
137 151 0
137 149 0
140 151 0
137 146 0
147 159 0
133 141 0
139 149 0
137 149 0
138 145 0
139 149 0
135 145 0
137 146 0
140 151 0
139 149 0
134 142 0
132 141 0
137 146 0
127 133 0
139 147 0
125 130 0
140 150 0
139 146 0
138 146 0
144 152 0
133 137 0
144 150 0
136 142 0
137 144 0
142 150 0
142 148 0
139 144 0
137 141 0
132 138 0
134 141 0
138 144 0
137 142 0
133 136 0
137 142 0
140 146 0
130 136 0
141 149 0
145 152 0
146 153 0
134 137 0
135 142 0
132 137 0
135 138 0
138 142 0
137 140 0
142 150 0
134 139 0
135 139 0
136 135 0
141 147 0
140 144 0
144 150 0
143 147 0
135 143 0
142 147 0
150 158 0
144 152 0
143 148 0
147 153 0
143 148 0
141 141 0
149 158 0
153 159 0
149 155 0
146 153 0
152 158 0
139 145 0
148 158 0
148 154 0
154 164 0
150 160 0
149 158 0
141 147 0
150 159 0
152 159 0
144 155 0
152 157 0
153 162 0
147 156 0
152 163 0
150 159 0
149 158 0
158 171 0
164 176 0
160 169 0
153 162 0
158 170 0
159 170 0
161 172 0
171 194 0
175 197 0
174 196 0
171 194 0
175 197 0
168 190 0
174 196 0
173 195 0
173 195 0
173 194 0
174 195 0
170 192 0
173 194 0
173 194 0
166 188 0
172 194 0
170 192 0
169 191 0
174 195 0
169 191 0
170 191 0
173 194 0
169 191 0
171 192 0
172 194 0
172 193 0
170 191 0
171 193 0
165 186 0
172 193 0
172 192 0
169 190 0
170 191 0
170 191 0
170 191 0
171 192 0
168 189 0
169 191 0
171 192 0
171 191 0
171 191 0
170 191 0
165 187 0
173 193 0
169 190 0
170 190 0
168 189 0
166 186 0
166 187 0
164 185 0
169 189 0
168 188 0
166 187 0
170 191 0
167 188 0
167 187 0
161 182 0
169 189 0
171 192 0
165 187 0
168 189 0
169 190 0
170 191 0
164 184 0
162 183 0
165 187 0
167 188 0
168 189 0
167 189 0
162 184 0
167 189 0
157 178 0
159 179 0
160 181 0
165 186 0
165 187 0
160 181 0
161 183 0
163 184 0
159 181 0
162 184 0
164 185 0
161 182 0
162 184 0
161 183 0
162 184 0
160 182 0
154 176 0
157 179 0
155 177 0
158 181 0
162 184 0
166 188 0
162 184 0
165 188 0
157 179 0
160 183 0
161 183 0
159 181 0
158 181 0
157 179 0
158 181 0
161 183 0
156 179 0
151 174 0
161 183 0
161 182 0
155 176 0
161 183 0
163 186 0
158 180 0
155 177 0
157 180 0
156 178 0
152 174 0
153 175 0
152 175 0
154 176 0
155 176 0
158 180 0
153 175 0
146 168 0
155 176 0
154 176 0
152 176 0
154 176 0
152 174 0
159 182 0
154 177 0
156 177 0
145 166 0
151 173 0
155 175 0
149 170 0
150 173 0
152 174 0
156 178 0
152 174 0
156 177 0
146 168 0
145 167 0
145 168 0
149 171 0
153 175 0
155 177 0
149 172 0
145 167 0
149 171 0
137 158 0
149 171 0
146 168 0
150 172 0
154 176 0
148 170 0
155 177 0
144 166 0
146 168 0
153 174 0
146 168 0
146 168 0
146 169 0
148 170 0
138 159 0
148 171 0
140 161 0
142 163 0
138 159 0
136 156 0
142 163 0
141 161 0
137 159 0
151 172 0
143 163 0
148 170 0
145 165 0
140 161 0
131 152 0
144 165 0
143 165 0
143 164 0
139 160 0
134 155 0
137 159 0
135 156 0
127 147 0
135 156 0
132 153 0
140 162 0
134 155 0
137 157 0
136 157 0
130 152 0
137 159 0
143 163 0
133 153 0
144 164 0
139 160 0
142 162 0
130 150 0
133 152 0
141 160 0
136 156 0
135 156 0
128 148 0
138 157 0
144 164 0
153 174 0
140 161 0
137 158 0
141 161 0
133 152 0
133 153 0
137 156 0
137 156 0
138 156 0
136 155 0
138 159 0
128 148 0
140 160 0
133 151 0
139 160 0
130 147 0
149 169 0
138 159 0
132 151 0
136 155 0
136 154 0
141 160 0
139 158 0
135 155 0
150 169 0
130 148 0
136 155 0
138 158 0
127 146 0
129 147 0
135 154 0
139 157 0
140 157 0
140 158 0
137 155 0
141 158 0
146 165 0
133 152 0
143 162 0
137 156 0
133 151 0
138 158 0
130 148 0
139 157 0
138 157 0
141 159 0
143 159 0
137 156 0
148 164 0
143 162 0
139 158 0
146 165 0
129 146 0
135 152 0
146 163 0
143 162 0
137 153 0
146 163 0
140 158 0
139 157 0
142 158 0
140 157 0
146 163 0
139 156 0
139 155 0
132 149 0
138 153 0
138 157 0
131 148 0
144 163 0
139 156 0
143 159 0
128 144 0
139 155 0
150 165 0
147 163 0
147 164 0
149 167 0
141 157 0
143 157 0
130 144 0
143 158 0
141 156 0
148 163 0
137 153 0
145 160 0
136 152 0
139 153 0
137 154 0
145 158 0
138 150 0
139 153 0
132 142 0
147 161 0
142 155 0
143 155 0
135 147 0
141 151 0
143 156 0
143 157 0
136 149 0
144 157 0
150 163 0
145 158 0
140 154 0
153 164 0
123 133 0
144 154 0
129 139 0
149 163 0
137 147 0
138 145 0
139 150 0
133 146 0
141 150 0
142 151 0
135 144 0
140 148 0
139 149 0
133 141 0
137 145 0
148 158 0
138 147 0
139 146 0
143 150 0
135 139 0
137 143 0
133 136 0
138 143 0
135 141 0
133 139 0
136 142 0
141 148 0
134 140 0
136 143 0
140 144 0
136 140 0
143 150 0
133 134 0
138 146 0
141 146 0
138 143 0
141 145 0
138 145 0
138 142 0
141 147 0
145 151 0
137 141 0
138 147 0
142 144 0
148 153 0
145 152 0
148 154 0
142 148 0
140 147 0
143 145 0
136 137 0
140 144 0
143 149 0
136 141 0
139 143 0
141 142 0
139 142 0
139 145 0
144 151 0
142 148 0
151 156 0
145 150 0
151 157 0
145 150 0
151 159 0
139 145 0
146 151 0
151 160 0
148 155 0
156 167 0
150 157 0
139 145 0
150 158 0
147 155 0
155 163 0
148 157 0
153 160 0
153 159 0
155 166 0
151 158 0
151 160 0
157 168 0
154 166 0
161 172 0
153 161 0
157 170 0
158 170 0
153 164 0
172 194 0
172 195 0
173 195 0
174 195 0
173 195 0
172 195 0
176 197 0
170 192 0
174 195 0
172 194 0
171 192 0
176 197 0
172 194 0
173 194 0
170 192 0
169 189 0
170 192 0
172 193 0
174 195 0
172 194 0
174 196 0
169 190 0
171 192 0
172 193 0
172 193 0
174 196 0
173 194 0
165 187 0
167 188 0
174 195 0
170 192 0
171 192 0
171 192 0
170 191 0
171 193 0
169 190 0
171 191 0
170 191 0
170 190 0
170 191 0
164 186 0
168 190 0
174 194 0
165 186 0
164 186 0
173 193 0
171 192 0
167 189 0
169 190 0
171 193 0
168 189 0
169 191 0
168 189 0
171 192 0
167 188 0
170 190 0
164 185 0
166 188 0
167 187 0
159 181 0
159 181 0
165 186 0
166 186 0
165 186 0
165 187 0
171 192 0
159 181 0
158 179 0
166 188 0
160 182 0
164 185 0
165 186 0
161 182 0
162 183 0
161 183 0
159 181 0
167 189 0
164 186 0
166 188 0
163 185 0
162 184 0
162 184 0
162 184 0
165 186 0
160 182 0
161 183 0
152 175 0
156 178 0
164 186 0
163 184 0
163 186 0
165 187 0
161 182 0
159 182 0
167 190 0
158 181 0
159 181 0
152 174 0
163 185 0
161 183 0
157 179 0
161 184 0
157 179 0
162 184 0
155 177 0
151 173 0
155 178 0
155 176 0
155 177 0
148 170 0
155 178 0
161 183 0
160 182 0
146 168 0
158 180 0
156 179 0
162 185 0
152 174 0
152 174 0
158 180 0
161 184 0
147 170 0
155 177 0
159 181 0
154 177 0
154 177 0
157 179 0
156 178 0
152 174 0
157 179 0
160 182 0
147 170 0
156 179 0
153 175 0
154 176 0
144 166 0
154 176 0
151 173 0
154 176 0
147 169 0
155 177 0
149 172 0
150 172 0
148 170 0
151 173 0
151 173 0
144 166 0
150 171 0
146 169 0
146 168 0
144 167 0
142 164 0
144 166 0
151 173 0
153 174 0
150 172 0
136 159 0
138 160 0
142 163 0
145 168 0
140 162 0
143 164 0
145 167 0
142 163 0
150 172 0
141 162 0
148 169 0
136 157 0
145 167 0
146 168 0
139 161 0
142 163 0
136 157 0
141 163 0
136 157 0
147 169 0
142 163 0
144 165 0
138 159 0
140 162 0
136 157 0
142 163 0
137 157 0
147 168 0
143 164 0
141 163 0
143 163 0
130 148 0
138 160 0
134 155 0
137 156 0
131 151 0
131 152 0
134 154 0
142 163 0
143 162 0
147 168 0
138 159 0
140 161 0
142 162 0
140 160 0
129 149 0
138 158 0
149 170 0
136 157 0
144 165 0
143 164 0
137 155 0
140 161 0
136 155 0
142 162 0
137 156 0
145 166 0
147 168 0
133 152 0
136 155 0
134 154 0
137 157 0
138 159 0
136 154 0
137 158 0
142 162 0
143 162 0
140 160 0
133 153 0
129 149 0
138 156 0
137 157 0
140 162 0
139 158 0
141 162 0
139 159 0
129 148 0
135 154 0
144 163 0
143 163 0
136 155 0
132 150 0
147 165 0
129 147 0
144 162 0
138 157 0
139 158 0
137 155 0
138 155 0
135 154 0
137 157 0
143 160 0
144 163 0
140 161 0
145 163 0
136 154 0
142 162 0
130 147 0
145 163 0
138 157 0
142 162 0
129 146 0
135 153 0
138 155 0
134 151 0
143 161 0
140 157 0
134 152 0
131 146 0
137 154 0
141 159 0
143 159 0
136 154 0
143 162 0
140 155 0
136 153 0
146 161 0
142 159 0
141 159 0
136 151 0
138 153 0
132 146 0
139 155 0
148 167 0
142 159 0
139 156 0
140 156 0
140 156 0
142 157 0
148 164 0
147 164 0
140 153 0
144 159 0
139 155 0
136 150 0
139 154 0
139 152 0
140 155 0
137 151 0
144 157 0
151 166 0
142 156 0
136 148 0
148 162 0
143 156 0
150 164 0
137 151 0
131 142 0
140 154 0
141 154 0
139 152 0
140 152 0
140 154 0
147 161 0
151 164 0
143 154 0
140 151 0
133 141 0
137 147 0
147 157 0
136 146 0
138 148 0
138 146 0
142 153 0
137 144 0
140 151 0
139 148 0
146 154 0
131 139 0
138 144 0
135 146 0
136 145 0
142 152 0
128 134 0
150 161 0
139 147 0
145 155 0
140 147 0
134 141 0
136 143 0
149 159 0
138 145 0
145 155 0
142 148 0
137 143 0
144 151 0
137 141 0
137 140 0
142 147 0
137 140 0
146 152 0
139 144 0
134 138 0
147 153 0
140 145 0
136 142 0
137 143 0
143 147 0
142 149 0
141 147 0
139 142 0
139 143 0
143 145 0
140 147 0
143 150 0
141 143 0
142 150 0
144 148 0
144 151 0
145 151 0
150 156 0
145 153 0
144 149 0
144 148 0
140 147 0
145 150 0
143 148 0
146 153 0
149 156 0
149 154 0
147 152 0
147 152 0
145 151 0
141 147 0
155 164 0
146 154 0
148 155 0
147 152 0
154 163 0
147 156 0
154 162 0
153 161 0
147 155 0
150 160 0
154 160 0
149 157 0
151 161 0
152 162 0
153 163 0
150 158 0
150 158 0
150 160 0
155 168 0
156 169 0
168 191 0
172 194 0
172 193 0
171 193 0
174 195 0
174 197 0
173 194 0
174 195 0
174 195 0
172 193 0
169 191 0
169 191 0
172 194 0
169 191 0
173 194 0
176 197 0
171 193 0
174 195 0
170 192 0
176 197 0
168 189 0
170 191 0
170 191 0
173 196 0
170 191 0
170 192 0
171 192 0
167 189 0
171 192 0
170 192 0
170 191 0
169 191 0
169 190 0
169 190 0
166 188 0
166 188 0
169 189 0
172 194 0
167 188 0
169 189 0
169 191 0
163 184 0
165 186 0
165 187 0
168 190 0
172 193 0
162 183 0
165 185 0
167 188 0
169 190 0
164 186 0
166 187 0
169 190 0
167 188 0
166 187 0
166 187 0
164 186 0
163 184 0
164 185 0
169 190 0
163 184 0
161 182 0
163 184 0
167 188 0
162 183 0
163 184 0
166 187 0
164 185 0
163 185 0
161 182 0
164 185 0
155 177 0
164 185 0
161 182 0
158 180 0
162 183 0
165 187 0
155 177 0
161 183 0
162 185 0
160 182 0
158 180 0
166 187 0
163 184 0
155 177 0
158 180 0
166 187 0
165 187 0
159 181 0
155 175 0
162 183 0
157 178 0
153 176 0
159 181 0
150 172 0
155 177 0
161 183 0
158 180 0
163 185 0
161 184 0
158 180 0
164 186 0
158 181 0
159 181 0
155 177 0
157 180 0
161 184 0
156 178 0
152 173 0
158 181 0
153 176 0
157 179 0
160 182 0
162 184 0
151 173 0
152 174 0
158 180 0
153 175 0
159 181 0
153 176 0
154 177 0
158 181 0
160 182 0
150 172 0
151 174 0
154 176 0
154 176 0
153 174 0
151 173 0
146 169 0
151 173 0
149 171 0
146 168 0
153 175 0
147 169 0
148 170 0
150 171 0
151 174 0
143 165 0
143 164 0
150 172 0
150 172 0
150 172 0
150 173 0
140 162 0
153 174 0
143 165 0
147 169 0
158 179 0
151 172 0
142 163 0
141 164 0
150 172 0
155 177 0
150 172 0
140 162 0
140 162 0
146 167 0
148 171 0
150 172 0
145 167 0
151 172 0
149 171 0
140 161 0
139 160 0
139 160 0
141 162 0
138 159 0
137 160 0
150 172 0
145 167 0
141 161 0
146 167 0
152 173 0
143 163 0
148 170 0
154 174 0
143 165 0
145 166 0
141 162 0
136 159 0
143 164 0
145 165 0
146 168 0
146 168 0
149 171 0
140 161 0
141 162 0
145 167 0
133 153 0
137 156 0
140 161 0
140 161 0
140 160 0
137 159 0
140 161 0
133 153 0
135 156 0
138 159 0
146 168 0
140 161 0
134 154 0
144 166 0
144 164 0
135 155 0
144 164 0
135 155 0
141 160 0
133 153 0
134 154 0
134 155 0
133 151 0
137 159 0
139 159 0
144 165 0
144 163 0
135 155 0
139 158 0
136 155 0
138 158 0
129 147 0
142 162 0
140 161 0
138 158 0
131 151 0
138 157 0
137 156 0
141 160 0
146 164 0
138 156 0
140 162 0
144 164 0
134 154 0
139 160 0
131 149 0
135 154 0
136 156 0
132 151 0
140 158 0
139 157 0
130 147 0
142 161 0
134 153 0
136 155 0
139 158 0
135 152 0
142 162 0
142 161 0
140 159 0
147 165 0
145 164 0
141 160 0
141 158 0
133 150 0
138 155 0
142 159 0
140 159 0
140 158 0
146 164 0
142 161 0
139 157 0
144 161 0
144 163 0
145 163 0
140 158 0
134 150 0
139 159 0
138 154 0
136 153 0
140 157 0
137 153 0
141 157 0
142 160 0
142 160 0
127 144 0
142 159 0
144 162 0
139 157 0
136 151 0
135 150 0
140 155 0
136 152 0
148 162 0
143 160 0
143 159 0
130 145 0
142 157 0
142 156 0
145 163 0
147 164 0
142 159 0
137 149 0
140 157 0
143 159 0
143 157 0
149 165 0
135 148 0
146 164 0
138 151 0
145 160 0
144 158 0
142 153 0
137 147 0
142 154 0
139 151 0
138 150 0
135 147 0
139 150 0
139 151 0
138 150 0
134 147 0
131 142 0
138 149 0
140 152 0
142 153 0
140 151 0
139 151 0
139 151 0
147 160 0
141 153 0
138 147 0
139 148 0
147 159 0
136 147 0
144 153 0
152 162 0
137 147 0
137 147 0
141 149 0
141 150 0
133 143 0
139 148 0
137 145 0
139 148 0
136 144 0
145 155 0
148 158 0
132 139 0
132 138 0
146 156 0
144 151 0
144 151 0
140 146 0
133 137 0
141 146 0
138 145 0
136 143 0
139 146 0
142 150 0
139 146 0
135 140 0
143 149 0
143 149 0
142 151 0
143 148 0
146 153 0
140 145 0
138 143 0
149 159 0
147 154 0
141 148 0
152 159 0
147 155 0
143 148 0
148 157 0
138 144 0
139 144 0
143 150 0
134 136 0
147 153 0
146 152 0
140 147 0
147 154 0
145 148 0
147 153 0
148 154 0
149 154 0
149 156 0
152 160 0
145 154 0
149 159 0
154 162 0
152 156 0
146 153 0
147 156 0
145 152 0
147 155 0
158 168 0
148 157 0
149 157 0
148 157 0
154 163 0
144 151 0
152 160 0
153 164 0
150 161 0
159 168 0
155 165 0
158 169 0
158 168 0
176 198 0
170 192 0
172 195 0
175 196 0
175 196 0
173 195 0
173 194 0
174 197 0
170 192 0
174 195 0
169 191 0
170 192 0
175 196 0
173 194 0
169 191 0
169 191 0
172 194 0
168 190 0
175 196 0
172 193 0
175 196 0
171 193 0
169 191 0
165 187 0
171 193 0
170 191 0
170 191 0
168 189 0
166 188 0
166 187 0
170 190 0
174 196 0
167 188 0
170 191 0
170 192 0
172 193 0
174 195 0
170 191 0
167 188 0
164 184 0
171 193 0
172 194 0
166 187 0
166 188 0
168 189 0
169 190 0
168 189 0
165 187 0
168 189 0
168 189 0
167 188 0
169 190 0
166 187 0
162 183 0
163 185 0
166 188 0
168 190 0
167 189 0
162 183 0
166 186 0
165 186 0
164 186 0
162 183 0
170 192 0
166 187 0
163 185 0
163 185 0
170 192 0
163 185 0
159 181 0
164 186 0
164 187 0
160 182 0
166 188 0
164 186 0
163 185 0
165 187 0
161 183 0
166 188 0
163 186 0
165 186 0
163 185 0
165 187 0
161 183 0
157 180 0
161 183 0
156 178 0
157 179 0
162 184 0
162 183 0
156 178 0
162 184 0
163 185 0
152 173 0
157 178 0
159 180 0
157 180 0
156 178 0
156 179 0
160 182 0
154 175 0
163 186 0
159 182 0
158 180 0
156 178 0
164 187 0
162 184 0
153 175 0
156 178 0
153 176 0
156 177 0
160 182 0
163 185 0
157 179 0
162 184 0
158 181 0
152 174 0
153 175 0
159 182 0
160 184 0
159 181 0
157 180 0
157 180 0
161 183 0
152 173 0
159 182 0
152 175 0
146 168 0
156 180 0
145 167 0
154 176 0
153 175 0
156 178 0
151 173 0
152 174 0
151 173 0
155 177 0
154 175 0
148 171 0
156 179 0
153 174 0
149 170 0
151 173 0
146 168 0
147 169 0
150 172 0
153 175 0
151 173 0
148 170 0
143 164 0
149 171 0
143 166 0
146 168 0
150 172 0
145 167 0
141 164 0
144 166 0
155 176 0
156 178 0
152 174 0
148 171 0
150 171 0
144 165 0
151 172 0
153 175 0
137 159 0
152 175 0
135 154 0
139 160 0
152 174 0
144 165 0
143 165 0
139 161 0
143 165 0
146 166 0
141 163 0
147 168 0
145 167 0
136 156 0
146 166 0
140 159 0
138 160 0
147 168 0
140 161 0
139 160 0
144 166 0
142 164 0
139 160 0
137 158 0
148 170 0
138 158 0
140 159 0
140 161 0
146 166 0
127 147 0
139 160 0
140 160 0
132 152 0
137 157 0
137 159 0
141 163 0
134 154 0
142 162 0
139 160 0
135 153 0
146 167 0
148 168 0
139 160 0
149 170 0
134 153 0
140 161 0
137 157 0
135 155 0
132 152 0
136 156 0
143 164 0
140 160 0
128 146 0
132 153 0
140 162 0
130 150 0
142 163 0
136 154 0
137 157 0
143 163 0
136 155 0
142 163 0
139 160 0
135 153 0
141 159 0
144 165 0
141 160 0
139 158 0
129 149 0
142 161 0
149 169 0
144 162 0
136 155 0
143 162 0
137 156 0
140 159 0
141 159 0
136 155 0
141 160 0
139 158 0
131 150 0
141 160 0
135 155 0
147 167 0
145 164 0
148 166 0
144 161 0
135 154 0
144 163 0
144 163 0
143 161 0
148 167 0
140 157 0
140 158 0
147 165 0
146 164 0
145 162 0
143 162 0
147 165 0
143 161 0
149 168 0
141 159 0
142 160 0
150 170 0
138 157 0
135 150 0
135 151 0
136 153 0
137 153 0
139 155 0
142 157 0
145 162 0
142 160 0
141 158 0
143 163 0
144 162 0
144 161 0
142 157 0
143 161 0
147 163 0
143 158 0
146 162 0
142 159 0
139 154 0
146 161 0
143 160 0
142 158 0
140 155 0
140 158 0
141 157 0
135 151 0
146 161 0
147 162 0
140 153 0
134 149 0
138 154 0
144 158 0
147 161 0
144 158 0
141 155 0
142 155 0
144 154 0
145 159 0
142 156 0
145 158 0
141 154 0
146 160 0
147 160 0
144 156 0
138 150 0
139 149 0
149 162 0
149 161 0
142 152 0
144 153 0
147 157 0
141 154 0
148 158 0
144 154 0
137 150 0
148 159 0
139 149 0
142 152 0
127 136 0
129 138 0
146 156 0
148 160 0
132 141 0
137 143 0
144 154 0
143 150 0
147 157 0
144 151 0
135 144 0
142 152 0
131 137 0
137 144 0
136 142 0
149 157 0
134 142 0
145 152 0
146 153 0
143 152 0
137 141 0
147 155 0
142 150 0
147 155 0
140 146 0
145 152 0
140 146 0
141 150 0
143 150 0
145 153 0
145 149 0
140 146 0
140 145 0
142 146 0
143 151 0
147 155 0
149 155 0
151 159 0
141 147 0
145 150 0
142 149 0
145 151 0
142 149 0
142 148 0
143 152 0
143 150 0
143 148 0
146 152 0
153 160 0
149 157 0
136 141 0
147 155 0
147 154 0
141 149 0
146 153 0
144 151 0
151 160 0
152 159 0
151 159 0
147 155 0
148 156 0
154 163 0
155 165 0
154 163 0
157 164 0
155 164 0
155 164 0
158 168 0
149 158 0
149 154 0
157 166 0
157 165 0
170 191 0
171 193 0
172 194 0
172 194 0
175 197 0
175 196 0
172 194 0
174 195 0
172 193 0
174 194 0
169 191 0
173 194 0
167 189 0
172 193 0
171 193 0
171 193 0
169 190 0
175 196 0
172 193 0
169 191 0
172 194 0
167 189 0
175 196 0
167 189 0
173 195 0
171 192 0
169 191 0
174 195 0
172 193 0
171 194 0
174 195 0
168 189 0
169 191 0
171 192 0
166 187 0
169 190 0
170 191 0
169 190 0
169 190 0
167 189 0
167 189 0
165 187 0
168 190 0
167 187 0
170 191 0
168 189 0
174 195 0
163 184 0
172 194 0
164 185 0
169 191 0
165 187 0
170 190 0
167 189 0
168 190 0
162 185 0
164 185 0
168 189 0
167 187 0
170 191 0
163 184 0
163 185 0
167 189 0
160 181 0
166 188 0
167 189 0
161 183 0
163 184 0
164 186 0
160 181 0
163 184 0
156 177 0
164 186 0
161 182 0
163 185 0
161 182 0
158 179 0
161 183 0
165 187 0
159 181 0
168 190 0
160 182 0
158 180 0
163 184 0
163 185 0
159 181 0
160 182 0
158 179 0
157 178 0
160 182 0
162 185 0
161 183 0
162 184 0
157 179 0
162 185 0
158 180 0
155 177 0
159 180 0
160 182 0
159 180 0
155 177 0
153 175 0
152 175 0
163 186 0
161 184 0
164 186 0
160 183 0
160 182 0
151 173 0
158 180 0
159 182 0
159 181 0
152 173 0
155 178 0
156 179 0
160 182 0
159 182 0
156 178 0
156 177 0
151 173 0
153 175 0
157 179 0
159 182 0
148 170 0
153 175 0
156 179 0
152 174 0
148 170 0
155 177 0
154 177 0
160 182 0
148 171 0
150 172 0
151 174 0
152 174 0
149 173 0
155 176 0
155 176 0
146 167 0
148 170 0
158 180 0
154 176 0
145 165 0
158 180 0
158 180 0
150 170 0
144 164 0
151 173 0
152 174 0
142 165 0
146 169 0
148 170 0
146 168 0
155 177 0
146 169 0
149 171 0
148 170 0
144 167 0
153 174 0
149 171 0
140 162 0
143 165 0
143 166 0
150 172 0
146 166 0
144 166 0
154 175 0
148 171 0
150 172 0
153 174 0
152 173 0
144 164 0
146 167 0
141 163 0
143 166 0
136 157 0
146 167 0
146 167 0
148 168 0
136 156 0
144 165 0
140 161 0
149 172 0
138 159 0
141 163 0
145 165 0
141 163 0
141 162 0
141 162 0
148 169 0
142 164 0
147 168 0
135 156 0
145 167 0
135 156 0
137 157 0
140 161 0
138 158 0
140 163 0
129 149 0
140 161 0
142 161 0
141 161 0
143 163 0
147 167 0
134 154 0
136 156 0
144 164 0
142 163 0
143 164 0
148 167 0
143 163 0
132 153 0
142 161 0
137 157 0
147 167 0
139 160 0
129 148 0
139 159 0
144 167 0
142 161 0
144 164 0
143 164 0
135 156 0
142 163 0
138 159 0
140 161 0
141 161 0
133 151 0
139 158 0
142 162 0
132 151 0
138 157 0
133 153 0
134 153 0
138 158 0
146 166 0
142 162 0
139 157 0
147 166 0
135 154 0
144 164 0
137 156 0
135 156 0
144 164 0
133 154 0
139 159 0
146 164 0
142 160 0
144 164 0
148 166 0
146 165 0
145 163 0
147 165 0
149 171 0
139 159 0
142 161 0
143 160 0
145 161 0
146 164 0
137 156 0
130 145 0
149 169 0
140 159 0
146 166 0
146 163 0
145 161 0
144 161 0
139 155 0
140 157 0
146 164 0
148 165 0
140 157 0
138 154 0
133 149 0
146 162 0
141 158 0
152 170 0
143 160 0
144 162 0
143 159 0
145 162 0
141 159 0
137 154 0
139 155 0
150 168 0
148 164 0
142 156 0
140 156 0
152 169 0
156 173 0
149 164 0
140 155 0
145 161 0
137 150 0
139 154 0
141 156 0
148 165 0
139 155 0
148 164 0
148 162 0
144 158 0
146 162 0
147 161 0
138 154 0
136 151 0
146 159 0
139 153 0
146 160 0
137 149 0
135 148 0
145 158 0
140 151 0
142 154 0
142 155 0
140 151 0
141 154 0
141 154 0
136 146 0
142 153 0
135 148 0
148 159 0
149 160 0
135 147 0
143 154 0
140 150 0
143 154 0
141 149 0
138 147 0
141 151 0
141 151 0
142 152 0
140 148 0
148 156 0
140 148 0
133 138 0
143 150 0
135 145 0
144 155 0
142 150 0
141 149 0
138 145 0
139 148 0
142 150 0
143 153 0
144 151 0
133 139 0
144 153 0
137 143 0
147 155 0
139 146 0
140 147 0
140 145 0
146 151 0
149 156 0
144 149 0
140 150 0
138 140 0
147 154 0
146 154 0
143 150 0
145 151 0
142 150 0
146 152 0
150 159 0
141 147 0
139 144 0
152 160 0
151 159 0
154 163 0
140 148 0
153 160 0
142 146 0
148 154 0
152 160 0
142 148 0
148 155 0
143 150 0
147 155 0
151 159 0
150 157 0
149 157 0
151 155 0
154 163 0
151 159 0
151 160 0
155 165 0
142 148 0
151 159 0
153 164 0
157 166 0
155 164 0
152 163 0
149 154 0
149 156 0
159 170 0
148 158 0
150 161 0
156 170 0
153 163 0
171 193 0
169 191 0
173 195 0
172 194 0
173 195 0
171 193 0
172 194 0
170 192 0
172 193 0
169 191 0
176 197 0
172 194 0
170 192 0
171 193 0
169 191 0
170 192 0
169 191 0
169 190 0
169 191 0
171 194 0
167 189 0
174 195 0
173 194 0
172 193 0
174 196 0
169 189 0
171 191 0
168 188 0
170 192 0
169 190 0
162 183 0
173 193 0
169 189 0
165 186 0
169 191 0
168 190 0
169 190 0
166 187 0
162 184 0
169 191 0
171 193 0
173 195 0
166 187 0
170 190 0
165 187 0
169 190 0
169 190 0
166 187 0
164 186 0
164 186 0
168 189 0
165 185 0
169 189 0
164 185 0
167 188 0
168 190 0
164 185 0
163 185 0
169 190 0
160 182 0
166 188 0
162 183 0
164 186 0
169 190 0
168 190 0
161 182 0
162 184 0
158 180 0
165 187 0
165 187 0
160 182 0
160 182 0
165 187 0
163 184 0
162 184 0
159 180 0
159 182 0
158 181 0
159 181 0
161 183 0
172 193 0
158 179 0
165 187 0
155 178 0
163 186 0
167 190 0
161 183 0
152 173 0
153 176 0
152 174 0
164 186 0
164 186 0
159 182 0
158 179 0
154 177 0
163 184 0
163 185 0
162 184 0
159 182 0
165 187 0
162 183 0
158 181 0
159 180 0
152 174 0
153 176 0
153 176 0
166 188 0
158 181 0
158 181 0
158 179 0
155 176 0
157 179 0
150 173 0
154 178 0
161 184 0
160 183 0
156 179 0
160 182 0
155 177 0
157 179 0
148 171 0
158 181 0
151 173 0
149 171 0
162 184 0
149 172 0
155 177 0
157 180 0
154 176 0
157 180 0
157 180 0
154 178 0
154 177 0
157 181 0
147 170 0
157 180 0
152 174 0
155 178 0
143 165 0
150 172 0
145 168 0
149 172 0
154 176 0
151 172 0
144 166 0
155 177 0
147 169 0
147 168 0
147 169 0
152 175 0
153 175 0
149 171 0
144 165 0
154 177 0
157 180 0
149 171 0
147 170 0
152 173 0
141 163 0
144 167 0
137 159 0
146 168 0
145 167 0
150 172 0
144 167 0
145 166 0
149 170 0
150 170 0
147 170 0
150 171 0
155 177 0
144 166 0
141 163 0
144 165 0
133 154 0
145 167 0
145 166 0
144 166 0
143 165 0
143 164 0
150 172 0
144 165 0
151 174 0
142 164 0
138 158 0
138 159 0
141 162 0
143 163 0
141 162 0
139 161 0
143 162 0
149 170 0
135 157 0
152 174 0
142 163 0
134 156 0
140 160 0
145 166 0
147 168 0
143 164 0
145 165 0
141 161 0
142 163 0
137 157 0
147 166 0
140 159 0
133 153 0
145 164 0
143 163 0
139 160 0
144 163 0
138 158 0
138 159 0
145 165 0
143 163 0
143 163 0
144 165 0
129 151 0
143 164 0
138 157 0
134 153 0
146 167 0
147 167 0
134 153 0
132 151 0
140 161 0
147 169 0
141 160 0
147 167 0
144 164 0
143 164 0
145 164 0
135 155 0
136 155 0
134 153 0
134 154 0
130 150 0
132 152 0
150 170 0
148 168 0
136 157 0
143 162 0
139 158 0
146 166 0
138 157 0
143 162 0
132 148 0
145 166 0
129 148 0
142 161 0
143 163 0
138 159 0
139 159 0
143 162 0
143 162 0
138 156 0
141 161 0
141 162 0
139 157 0
146 163 0
151 170 0
152 171 0
145 163 0
139 158 0
142 160 0
140 157 0
144 162 0
143 159 0
133 151 0
150 168 0
141 159 0
146 165 0
142 159 0
138 156 0
145 162 0
141 158 0
142 160 0
143 162 0
138 155 0
142 157 0
145 164 0
141 159 0
147 165 0
151 170 0
140 158 0
140 156 0
143 160 0
141 157 0
141 158 0
144 159 0
139 156 0
144 161 0
139 156 0
149 165 0
140 154 0
146 161 0
145 159 0
145 163 0
139 153 0
147 161 0
144 160 0
144 158 0
141 153 0
139 153 0
138 154 0
145 159 0
140 155 0
146 163 0
144 157 0
141 156 0
138 151 0
144 159 0
138 152 0
143 154 0
145 158 0
144 156 0
149 162 0
139 151 0
145 156 0
144 156 0
140 152 0
150 161 0
139 149 0
134 143 0
144 153 0
142 153 0
140 149 0
145 156 0
145 156 0
147 160 0
140 150 0
152 164 0
148 159 0
149 160 0
141 153 0
138 148 0
143 152 0
140 147 0
149 157 0
146 155 0
147 156 0
139 148 0
143 153 0
142 152 0
146 154 0
140 147 0
147 158 0
142 150 0
140 147 0
139 148 0
137 144 0
141 151 0
148 159 0
140 149 0
139 148 0
141 146 0
147 156 0
148 157 0
148 155 0
144 151 0
151 160 0
149 156 0
144 153 0
145 151 0
144 151 0
145 153 0
141 148 0
142 150 0
151 157 0
148 157 0
144 152 0
152 160 0
152 160 0
147 154 0
147 154 0
147 154 0
148 156 0
149 157 0
149 157 0
148 154 0
143 154 0
152 163 0
151 160 0
147 154 0
148 156 0
145 153 0
155 166 0
150 156 0
156 166 0
153 162 0
151 160 0
151 161 0
153 163 0
153 162 0
152 160 0
158 168 0
148 158 0
153 162 0
148 159 0
150 159 0
171 194 0
172 193 0
170 191 0
176 198 0
167 189 0
171 191 0
170 192 0
169 191 0
175 196 0
171 192 0
173 195 0
170 193 0
176 197 0
173 194 0
170 191 0
174 196 0
173 194 0
171 192 0
171 192 0
173 194 0
174 194 0
169 191 0
171 193 0
169 190 0
169 190 0
167 188 0
170 191 0
169 189 0
172 194 0
170 191 0
165 186 0
165 186 0
172 192 0
170 192 0
167 188 0
166 189 0
165 187 0
172 193 0
166 188 0
160 181 0
163 185 0
163 184 0
166 188 0
168 189 0
167 188 0
167 189 0
164 186 0
165 186 0
165 187 0
170 191 0
166 188 0
164 186 0
166 188 0
168 190 0
165 187 0
166 188 0
164 186 0
159 181 0
166 188 0
164 185 0
160 181 0
161 183 0
168 189 0
166 188 0
163 185 0
165 187 0
161 182 0
165 188 0
165 187 0
163 185 0
162 183 0
163 185 0
168 190 0
156 177 0
158 180 0
160 181 0
161 183 0
158 179 0
160 183 0
165 188 0
163 184 0
160 182 0
161 183 0
161 182 0
168 190 0
163 185 0
156 177 0
160 182 0
157 180 0
163 185 0
164 187 0
161 183 0
159 181 0
162 183 0
159 182 0
151 173 0
158 180 0
152 175 0
162 185 0
159 182 0
165 188 0
161 183 0
162 185 0
159 181 0
160 182 0
160 183 0
160 183 0
158 179 0
158 181 0
158 180 0
159 181 0
154 177 0
153 176 0
158 181 0
153 175 0
153 176 0
143 165 0
157 180 0
160 182 0
152 175 0
150 172 0
158 180 0
154 177 0
144 166 0
152 174 0
154 175 0
150 172 0
151 173 0
156 178 0
158 180 0
158 179 0
154 176 0
150 173 0
155 177 0
151 173 0
154 177 0
149 170 0
155 176 0
153 175 0
159 182 0
157 179 0
146 169 0
148 169 0
150 172 0
149 170 0
142 164 0
153 176 0
156 177 0
146 168 0
153 175 0
149 171 0
156 178 0
142 164 0
142 164 0
155 177 0
151 173 0
141 162 0
153 175 0
144 166 0
145 167 0
148 170 0
145 167 0
138 160 0
146 167 0
155 176 0
151 173 0
145 167 0
141 162 0
151 173 0
151 174 0
145 166 0
144 166 0
145 167 0
139 161 0
138 160 0
147 169 0
144 165 0
146 168 0
137 158 0
145 167 0
139 160 0
146 167 0
140 162 0
144 166 0
144 166 0
141 164 0
146 166 0
135 155 0
148 169 0
140 160 0
147 168 0
139 159 0
138 158 0
141 163 0
131 153 0
143 164 0
147 169 0
143 164 0
143 165 0
143 165 0
152 172 0
134 155 0
142 163 0
144 164 0
135 156 0
135 155 0
141 163 0
122 143 0
141 162 0
140 161 0
140 161 0
135 155 0
143 163 0
144 163 0
140 161 0
150 171 0
125 145 0
146 166 0
140 162 0
139 158 0
143 163 0
147 167 0
133 153 0
139 160 0
136 155 0
141 160 0
143 162 0
132 152 0
145 165 0
140 160 0
145 165 0
148 168 0
143 162 0
140 159 0
141 162 0
142 160 0
144 164 0
137 158 0
134 153 0
137 155 0
138 157 0
149 168 0
147 166 0
140 159 0
144 165 0
133 151 0
126 146 0
147 167 0
144 164 0
144 163 0
151 171 0
143 161 0
142 161 0
146 164 0
143 160 0
145 164 0
147 166 0
143 161 0
148 166 0
144 164 0
137 157 0
145 165 0
143 160 0
137 154 0
150 168 0
144 161 0
146 165 0
142 161 0
146 162 0
138 157 0
148 165 0
142 160 0
139 156 0
137 155 0
147 165 0
144 163 0
142 159 0
144 164 0
148 166 0
137 153 0
145 162 0
140 156 0
146 165 0
145 162 0
145 163 0
144 160 0
136 153 0
136 152 0
153 170 0
150 166 0
150 166 0
133 147 0
142 159 0
141 157 0
141 158 0
138 152 0
145 162 0
138 153 0
142 159 0
139 154 0
150 166 0
145 160 0
139 153 0
151 167 0
147 163 0
151 167 0
143 156 0
129 143 0
141 154 0
150 164 0
147 161 0
146 161 0
141 154 0
141 155 0
148 161 0
136 150 0
142 153 0
143 154 0
145 161 0
140 151 0
144 156 0
143 157 0
143 156 0
140 153 0
146 156 0
148 159 0
149 159 0
131 144 0
140 151 0
146 157 0
140 152 0
148 158 0
143 153 0
144 154 0
154 166 0
144 154 0
147 157 0
139 150 0
149 160 0
147 160 0
148 155 0
143 152 0
143 151 0
135 144 0
144 153 0
144 153 0
145 154 0
145 154 0
141 151 0
151 161 0
138 148 0
157 169 0
144 151 0
154 163 0
151 161 0
151 159 0
150 157 0
139 147 0
142 151 0
146 154 0
146 155 0
141 148 0
155 163 0
144 151 0
146 155 0
141 146 0
147 155 0
146 156 0
147 157 0
146 153 0
154 163 0
143 149 0
143 147 0
146 156 0
152 160 0
150 158 0
147 154 0
142 150 0
147 156 0
147 154 0
148 156 0
152 161 0
150 158 0
152 160 0
146 153 0
153 162 0
155 165 0
154 165 0
149 157 0
151 162 0
139 146 0
150 160 0
151 163 0
153 166 0
152 162 0
158 168 0
154 165 0
156 169 0
162 175 0
161 172 0
174 196 0
174 197 0
171 192 0
172 193 0
169 191 0
173 194 0
171 194 0
169 191 0
169 191 0
173 195 0
173 195 0
174 195 0
169 191 0
173 195 0
168 189 0
175 197 0
170 191 0
171 193 0
173 194 0
170 191 0
168 191 0
170 192 0
170 191 0
172 193 0
165 187 0
175 197 0
169 191 0
170 191 0
169 191 0
169 190 0
175 196 0
167 189 0
173 194 0
165 186 0
172 193 0
169 190 0
166 188 0
168 190 0
170 192 0
170 191 0
169 190 0
167 189 0
167 189 0
167 188 0
169 191 0
166 187 0
169 191 0
170 192 0
168 190 0
167 189 0
165 187 0
166 187 0
167 188 0
168 190 0
162 182 0
165 187 0
161 183 0
165 187 0
166 189 0
162 184 0
165 186 0
166 187 0
167 189 0
167 188 0
161 182 0
166 188 0
166 188 0
164 186 0
165 187 0
165 187 0
162 184 0
166 188 0
166 188 0
160 181 0
162 185 0
161 183 0
167 188 0
166 188 0
164 186 0
158 181 0
165 187 0
166 188 0
162 185 0
160 183 0
162 183 0
164 185 0
162 184 0
158 180 0
158 181 0
156 178 0
153 176 0
162 184 0
159 181 0
158 180 0
162 184 0
161 183 0
155 177 0
162 185 0
158 181 0
155 177 0
152 175 0
162 183 0
155 178 0
160 181 0
158 181 0
159 181 0
156 178 0
161 183 0
153 175 0
160 182 0
163 186 0
160 184 0
160 183 0
151 174 0
159 180 0
163 186 0
152 175 0
155 177 0
145 167 0
156 179 0
156 178 0
151 173 0
153 176 0
151 173 0
156 178 0
157 180 0
155 177 0
159 181 0
155 177 0
148 170 0
150 172 0
157 181 0
161 184 0
156 177 0
161 183 0
151 175 0
153 176 0
156 178 0
154 176 0
156 178 0
151 173 0
141 164 0
148 171 0
155 178 0
155 177 0
150 171 0
149 171 0
147 169 0
148 171 0
140 162 0
148 170 0
150 173 0
155 176 0
151 173 0
150 173 0
147 169 0
150 171 0
147 168 0
144 166 0
143 165 0
149 171 0
151 173 0
142 164 0
142 163 0
141 163 0
154 176 0
140 161 0
155 176 0
151 172 0
153 175 0
149 171 0
144 165 0
140 161 0
146 168 0
152 174 0
151 172 0
147 168 0
137 158 0
148 169 0
147 169 0
140 161 0
149 171 0
140 161 0
140 162 0
143 163 0
136 158 0
144 166 0
150 173 0
150 172 0
138 158 0
144 166 0
147 169 0
135 157 0
140 161 0
145 165 0
144 165 0
138 158 0
145 167 0
149 170 0
142 163 0
146 166 0
142 164 0
137 157 0
146 167 0
139 160 0
142 164 0
147 168 0
139 160 0
142 163 0
140 158 0
141 163 0
136 156 0
146 167 0
141 160 0
143 164 0
145 165 0
156 174 0
139 158 0
145 166 0
135 155 0
144 164 0
142 162 0
144 164 0
143 163 0
143 162 0
147 167 0
137 156 0
149 169 0
149 170 0
145 167 0
140 161 0
144 164 0
148 168 0
142 162 0
146 165 0
138 156 0
142 161 0
146 166 0
145 168 0
147 166 0
137 157 0
140 160 0
143 162 0
146 166 0
147 166 0
131 152 0
144 165 0
145 166 0
143 161 0
149 171 0
145 163 0
141 159 0
137 156 0
150 171 0
138 159 0
138 157 0
149 168 0
139 157 0
141 161 0
145 164 0
144 164 0
135 152 0
144 163 0
141 160 0
150 170 0
150 168 0
146 164 0
146 164 0
134 152 0
148 168 0
152 171 0
146 164 0
134 152 0
146 166 0
157 175 0
146 165 0
153 173 0
150 169 0
142 160 0
149 168 0
143 160 0
147 163 0
147 165 0
144 162 0
140 160 0
148 165 0
151 169 0
142 159 0
142 158 0
146 163 0
143 162 0
142 159 0
140 154 0
139 157 0
145 161 0
139 156 0
154 170 0
138 153 0
141 155 0
145 163 0
144 157 0
140 157 0
138 154 0
145 161 0
143 158 0
137 152 0
145 158 0
149 164 0
145 159 0
142 156 0
137 151 0
146 159 0
146 159 0
143 157 0
141 155 0
139 151 0
148 164 0
130 141 0
133 146 0
138 148 0
142 154 0
149 162 0
147 157 0
150 164 0
145 155 0
142 154 0
146 158 0
141 149 0
144 154 0
145 159 0
144 155 0
147 158 0
145 157 0
139 151 0
152 162 0
148 159 0
147 157 0
150 160 0
147 159 0
144 156 0
153 164 0
144 155 0
145 155 0
144 156 0
147 156 0
133 141 0
143 150 0
149 161 0
151 163 0
143 154 0
148 158 0
151 162 0
148 158 0
142 151 0
139 147 0
150 157 0
151 160 0
144 152 0
148 157 0
151 160 0
153 164 0
150 159 0
153 161 0
145 152 0
147 152 0
153 162 0
152 161 0
148 156 0
142 149 0
136 142 0
139 146 0
150 159 0
145 154 0
149 158 0
148 157 0
148 156 0
154 163 0
148 156 0
155 165 0
148 157 0
153 163 0
148 155 0
148 156 0
145 155 0
156 163 0
153 163 0
149 156 0
153 162 0
154 163 0
156 167 0
147 154 0
151 161 0
154 162 0
158 168 0
150 160 0
155 165 0
155 165 0
160 171 0
157 168 0
150 158 0
168 190 0
172 194 0
174 196 0
169 191 0
171 194 0
171 192 0
172 194 0
170 192 0
173 194 0
174 196 0
172 193 0
172 194 0
170 192 0
172 193 0
168 189 0
173 194 0
173 192 0
170 192 0
175 196 0
170 192 0
171 192 0
170 190 0
168 190 0
172 193 0
172 193 0
173 194 0
168 190 0
168 189 0
170 192 0
167 189 0
171 192 0
168 190 0
166 188 0
169 191 0
168 190 0
167 189 0
169 191 0
167 188 0
164 186 0
159 182 0
167 188 0
167 189 0
165 187 0
168 191 0
164 186 0
165 186 0
163 185 0
165 188 0
167 189 0
158 179 0
163 184 0
163 185 0
164 185 0
160 182 0
164 185 0
168 189 0
166 188 0
161 184 0
164 186 0
161 183 0
159 181 0
166 188 0
168 191 0
161 182 0
163 185 0
163 185 0
157 178 0
162 185 0
165 189 0
162 184 0
160 182 0
166 188 0
159 183 0
159 181 0
166 188 0
159 181 0
158 180 0
160 184 0
162 184 0
162 185 0
163 186 0
162 184 0
164 186 0
161 183 0
159 181 0
161 184 0
162 184 0
157 179 0
157 179 0
159 181 0
164 187 0
158 179 0
162 185 0
162 184 0
161 184 0
163 185 0
160 183 0
166 187 0
158 180 0
159 182 0
154 176 0
164 186 0
158 181 0
157 179 0
159 181 0
159 182 0
159 181 0
155 178 0
157 178 0
158 180 0
156 178 0
161 183 0
150 172 0
156 179 0
158 181 0
161 183 0
156 178 0
160 183 0
159 182 0
161 184 0
158 180 0
152 174 0
154 177 0
155 177 0
160 183 0
155 177 0
161 183 0
164 186 0
159 182 0
152 174 0
158 181 0
157 179 0
153 175 0
151 174 0
158 180 0
152 174 0
155 178 0
148 171 0
152 174 0
156 179 0
150 173 0
152 174 0
153 176 0
152 173 0
146 169 0
148 171 0
153 175 0
149 170 0
145 168 0
151 173 0
146 168 0
156 179 0
150 173 0
157 179 0
147 168 0
149 172 0
157 178 0
149 171 0
154 177 0
143 165 0
141 163 0
148 170 0
157 179 0
149 171 0
153 174 0
144 165 0
150 172 0
160 183 0
145 167 0
149 171 0
151 173 0
140 161 0
149 172 0
146 168 0
139 161 0
145 167 0
152 172 0
150 172 0
148 169 0
132 153 0
141 162 0
135 156 0
149 171 0
143 164 0
137 158 0
153 175 0
142 163 0
144 165 0
148 171 0
137 158 0
147 167 0
149 170 0
147 167 0
140 161 0
144 166 0
139 160 0
140 161 0
146 168 0
147 168 0
146 168 0
134 156 0
145 167 0
135 155 0
147 168 0
143 163 0
144 165 0
139 159 0
149 168 0
137 159 0
147 169 0
141 162 0
143 163 0
143 164 0
143 163 0
142 163 0
147 168 0
148 169 0
147 166 0
146 166 0
135 154 0
143 163 0
139 160 0
140 159 0
142 162 0
151 171 0
142 162 0
138 159 0
141 162 0
142 162 0
146 166 0
147 166 0
148 170 0
134 154 0
142 160 0
140 161 0
139 159 0
144 165 0
144 165 0
143 162 0
146 166 0
140 159 0
144 164 0
135 156 0
148 167 0
147 168 0
140 159 0
138 155 0
148 169 0
146 166 0
136 156 0
145 163 0
145 164 0
144 164 0
150 168 0
149 168 0
147 164 0
142 161 0
142 162 0
151 170 0
146 165 0
154 174 0
138 157 0
147 167 0
144 162 0
153 172 0
139 157 0
146 165 0
146 165 0
138 155 0
139 157 0
145 164 0
150 168 0
140 158 0
142 161 0
143 160 0
146 161 0
148 167 0
144 163 0
146 163 0
154 172 0
145 165 0
141 160 0
148 164 0
144 161 0
138 153 0
144 160 0
148 164 0
145 162 0
146 165 0
143 160 0
145 162 0
143 160 0
150 168 0
144 161 0
139 151 0
147 164 0
152 169 0
151 165 0
149 166 0
150 166 0
151 165 0
148 166 0
143 157 0
145 162 0
140 155 0
149 164 0
144 160 0
142 155 0
149 164 0
145 160 0
143 158 0
147 158 0
145 157 0
145 158 0
147 162 0
153 169 0
143 157 0
139 154 0
137 150 0
141 157 0
148 163 0
138 152 0
146 161 0
146 157 0
147 160 0
139 150 0
149 161 0
150 161 0
145 157 0
146 159 0
150 164 0
149 162 0
146 157 0
147 159 0
142 153 0
147 158 0
151 163 0
150 162 0
146 155 0
144 152 0
150 160 0
136 147 0
150 159 0
149 160 0
144 154 0
143 153 0
146 156 0
143 154 0
152 163 0
150 161 0
151 161 0
141 151 0
138 146 0
144 153 0
144 154 0
150 159 0
149 160 0
142 147 0
143 150 0
150 159 0
143 152 0
149 160 0
148 159 0
155 164 0
144 152 0
149 159 0
155 164 0
145 152 0
153 163 0
158 167 0
142 150 0
145 151 0
148 156 0
146 154 0
147 153 0
152 161 0
145 155 0
147 155 0
152 162 0
154 165 0
148 157 0
152 161 0
147 155 0
153 163 0
144 153 0
155 164 0
154 162 0
151 160 0
152 162 0
139 149 0
153 162 0
152 161 0
152 162 0
154 163 0
158 169 0
156 164 0
156 165 0
159 169 0
155 165 0
157 170 0
171 193 0
173 195 0
174 195 0
172 194 0
169 192 0
170 192 0
174 196 0
169 191 0
170 191 0
172 192 0
172 194 0
168 190 0
173 194 0
168 190 0
171 194 0
173 195 0
173 195 0
169 190 0
168 190 0
167 188 0
164 185 0
171 192 0
168 188 0
168 189 0
168 190 0
167 189 0
163 185 0
169 190 0
169 189 0
170 192 0
167 188 0
166 187 0
164 186 0
166 187 0
161 183 0
164 187 0
167 188 0
167 189 0
169 191 0
164 186 0
168 189 0
170 191 0
169 191 0
170 192 0
166 187 0
165 186 0
162 184 0
168 189 0
167 188 0
164 185 0
162 183 0
160 182 0
168 190 0
161 184 0
163 185 0
166 189 0
169 191 0
169 190 0
164 185 0
165 186 0
163 185 0
163 185 0
162 184 0
167 189 0
169 190 0
163 185 0
162 184 0
164 185 0
156 177 0
164 185 0
166 189 0
157 180 0
161 183 0
161 183 0
164 186 0
156 178 0
154 177 0
154 176 0
159 182 0
161 184 0
164 186 0
163 186 0
162 184 0
162 184 0
163 185 0
162 184 0
160 183 0
163 186 0
155 178 0
154 176 0
163 186 0
158 180 0
164 187 0
157 179 0
160 183 0
164 187 0
163 185 0
154 176 0
157 179 0
154 176 0
161 183 0
158 181 0
161 182 0
154 176 0
157 179 0
160 183 0
160 183 0
154 176 0
158 181 0
152 175 0
149 172 0
154 177 0
150 173 0
164 187 0
152 174 0
160 183 0
152 174 0
152 176 0
161 183 0
157 181 0
157 180 0
155 177 0
154 177 0
161 183 0
149 172 0
153 175 0
150 173 0
149 171 0
153 175 0
154 176 0
150 173 0
156 178 0
149 172 0
150 173 0
156 178 0
151 172 0
157 179 0
152 175 0
155 178 0
146 168 0
148 171 0
155 177 0
147 170 0
147 169 0
154 176 0
152 174 0
151 174 0
150 174 0
148 170 0
150 172 0
147 168 0
155 177 0
152 174 0
149 171 0
145 166 0
151 173 0
152 174 0
158 182 0
138 161 0
147 169 0
147 170 0
149 171 0
149 172 0
145 167 0
149 170 0
147 167 0
146 168 0
147 167 0
150 173 0
150 172 0
149 171 0
146 168 0
149 171 0
152 174 0
152 174 0
151 173 0
145 167 0
148 170 0
145 166 0
152 173 0
148 170 0
146 167 0
147 169 0
145 167 0
142 165 0
144 166 0
147 168 0
145 168 0
135 155 0
136 157 0
145 167 0
148 170 0
152 174 0
143 163 0
150 172 0
145 166 0
141 162 0
144 165 0
140 162 0
144 165 0
147 169 0
142 162 0
147 168 0
138 159 0
149 171 0
144 165 0
137 158 0
145 166 0
146 168 0
136 156 0
142 164 0
140 160 0
143 163 0
139 160 0
145 166 0
145 165 0
139 161 0
142 162 0
140 161 0
144 165 0
139 158 0
140 160 0
156 177 0
141 160 0
148 170 0
148 168 0
138 158 0
142 163 0
135 156 0
145 167 0
139 158 0
144 162 0
148 169 0
140 157 0
140 159 0
143 163 0
136 156 0
144 165 0
140 159 0
136 156 0
142 160 0
142 162 0
146 166 0
138 156 0
148 168 0
135 156 0
143 161 0
143 164 0
146 165 0
146 167 0
149 169 0
141 160 0
153 173 0
139 156 0
139 156 0
140 160 0
150 168 0
142 161 0
144 162 0
147 164 0
147 164 0
144 160 0
148 167 0
141 159 0
143 161 0
144 161 0
143 161 0
148 167 0
143 160 0
138 155 0
136 153 0
142 160 0
150 169 0
138 156 0
144 163 0
148 166 0
145 164 0
141 159 0
150 168 0
141 160 0
143 161 0
139 157 0
143 161 0
151 169 0
150 169 0
143 161 0
148 165 0
149 165 0
149 166 0
136 155 0
152 170 0
152 168 0
148 165 0
138 154 0
150 166 0
146 162 0
139 156 0
143 159 0
145 161 0
142 159 0
147 164 0
148 164 0
140 156 0
139 157 0
144 158 0
146 162 0
136 152 0
137 151 0
142 156 0
144 160 0
149 165 0
144 159 0
151 166 0
134 145 0
141 155 0
146 160 0
148 162 0
146 159 0
148 164 0
156 172 0
143 156 0
146 159 0
147 161 0
143 158 0
149 163 0
143 155 0
142 155 0
145 158 0
148 162 0
146 160 0
153 167 0
140 152 0
151 164 0
141 153 0
150 162 0
142 154 0
141 154 0
145 156 0
141 153 0
138 148 0
153 164 0
148 160 0
140 150 0
145 156 0
149 159 0
137 146 0
146 156 0
153 166 0
147 160 0
151 164 0
140 150 0
142 151 0
150 163 0
144 153 0
143 151 0
143 153 0
147 155 0
148 157 0
147 156 0
147 158 0
149 161 0
146 154 0
144 150 0
143 151 0
147 153 0
146 153 0
150 157 0
143 151 0
150 163 0
150 159 0
153 161 0
150 160 0
142 152 0
148 156 0
147 156 0
148 158 0
156 166 0
152 162 0
148 154 0
145 150 0
154 163 0
151 161 0
145 155 0
155 164 0
148 155 0
150 158 0
148 157 0
152 161 0
141 149 0
154 164 0
155 166 0
148 156 0
154 161 0
149 158 0
152 162 0
155 166 0
157 166 0
153 162 0
152 161 0
155 164 0
172 194 0
169 191 0
172 193 0
166 189 0
170 192 0
168 190 0
170 192 0
171 194 0
170 192 0
172 194 0
168 191 0
168 190 0
168 190 0
172 193 0
169 191 0
171 192 0
167 189 0
170 192 0
167 189 0
168 190 0
169 191 0
165 188 0
166 188 0
171 193 0
168 191 0
169 191 0
172 194 0
173 195 0
171 193 0
170 191 0
170 192 0
161 183 0
169 190 0
166 189 0
170 191 0
169 190 0
169 190 0
169 190 0
168 190 0
168 190 0
168 190 0
167 188 0
165 187 0
162 184 0
166 188 0
164 186 0
168 190 0
166 187 0
167 189 0
164 185 0
164 186 0
166 188 0
165 188 0
164 186 0
162 184 0
164 187 0
171 193 0
173 194 0
162 184 0
161 183 0
170 192 0
165 187 0
156 178 0
161 183 0
155 177 0
164 186 0
162 184 0
164 186 0
167 190 0
162 184 0
159 182 0
164 186 0
166 188 0
154 175 0
162 185 0
157 179 0
164 186 0
164 186 0
159 181 0
156 179 0
165 188 0
160 181 0
167 189 0
163 185 0
163 186 0
155 177 0
158 181 0
155 178 0
155 178 0
160 183 0
159 182 0
163 187 0
161 184 0
162 185 0
156 178 0
162 185 0
159 182 0
159 182 0
156 179 0
161 183 0
160 183 0
156 179 0
157 179 0
160 184 0
157 180 0
161 184 0
157 179 0
157 179 0
162 184 0
156 178 0
161 183 0
160 183 0
149 171 0
162 185 0
155 178 0
161 184 0
152 175 0
158 181 0
151 173 0
151 174 0
150 173 0
153 175 0
159 181 0
158 180 0
157 179 0
146 168 0
153 176 0
151 174 0
150 173 0
154 175 0
150 172 0
148 170 0
145 168 0
148 170 0
160 182 0
153 174 0
154 176 0
160 182 0
153 176 0
154 177 0
156 178 0
146 167 0
157 179 0
149 170 0
147 170 0
148 169 0
155 177 0
152 175 0
154 176 0
153 174 0
156 178 0
145 168 0
145 167 0
158 180 0
155 177 0
154 175 0
149 172 0
154 177 0
151 172 0
150 173 0
149 172 0
155 177 0
146 168 0
148 170 0
152 174 0
143 165 0
144 167 0
146 167 0
149 171 0
143 164 0
142 164 0
148 170 0
145 168 0
149 170 0
146 167 0
154 176 0
149 172 0
147 170 0
141 163 0
146 168 0
141 163 0
144 164 0
146 168 0
144 166 0
148 170 0
145 166 0
150 171 0
145 166 0
151 173 0
140 162 0
141 163 0
139 159 0
140 160 0
151 173 0
131 153 0
148 169 0
143 163 0
145 166 0
139 160 0
146 168 0
136 156 0
145 166 0
147 167 0
137 158 0
148 170 0
151 173 0
146 167 0
147 169 0
143 162 0
139 158 0
137 158 0
139 160 0
143 162 0
151 172 0
143 163 0
145 166 0
149 170 0
143 164 0
149 170 0
138 158 0
142 162 0
149 170 0
151 171 0
139 159 0
137 155 0
145 167 0
142 162 0
144 165 0
147 167 0
142 164 0
153 173 0
142 162 0
138 160 0
145 166 0
139 158 0
151 170 0
149 170 0
141 161 0
153 175 0
142 161 0
150 171 0
143 164 0
149 168 0
144 163 0
144 165 0
140 160 0
144 162 0
141 162 0
144 163 0
147 166 0
143 162 0
139 158 0
140 159 0
144 163 0
141 160 0
147 165 0
137 156 0
145 165 0
143 164 0
140 160 0
148 167 0
140 159 0
144 163 0
141 160 0
144 163 0
145 166 0
151 173 0
133 151 0
143 161 0
152 171 0
145 166 0
130 148 0
143 161 0
135 152 0
149 168 0
132 151 0
152 171 0
151 170 0
147 165 0
145 162 0
149 166 0
138 155 0
147 167 0
143 160 0
151 169 0
140 158 0
148 166 0
150 167 0
147 164 0
144 161 0
142 160 0
144 162 0
148 167 0
146 163 0
150 166 0
145 160 0
149 165 0
147 163 0
150 163 0
151 169 0
141 157 0
139 155 0
146 162 0
147 163 0
143 160 0
141 157 0
145 161 0
154 172 0
149 165 0
143 159 0
146 162 0
144 159 0
144 162 0
141 154 0
143 157 0
145 158 0
147 163 0
140 154 0
151 168 0
141 153 0
146 161 0
142 158 0
138 152 0
151 166 0
145 157 0
145 157 0
142 153 0
152 166 0
144 157 0
146 158 0
146 156 0
141 154 0
147 159 0
143 154 0
149 161 0
137 149 0
153 165 0
150 164 0
148 159 0
142 153 0
144 153 0
152 166 0
145 156 0
152 161 0
142 150 0
149 161 0
152 163 0
148 159 0
152 165 0
147 159 0
144 154 0
145 156 0
147 156 0
147 157 0
145 157 0
156 166 0
145 155 0
145 153 0
147 161 0
142 149 0
150 160 0
148 157 0
154 164 0
155 166 0
145 154 0
146 156 0
147 156 0
145 157 0
147 156 0
140 151 0
142 148 0
151 162 0
144 154 0
140 148 0
150 157 0
156 167 0
148 156 0
149 157 0
149 156 0
157 165 0
154 166 0
148 158 0
156 166 0
152 159 0
152 163 0
152 162 0
147 155 0
149 158 0
149 158 0
146 156 0
150 160 0
146 157 0
149 157 0
154 165 0
149 160 0
152 162 0
148 157 0
158 169 0
150 160 0
150 158 0
171 192 0
173 195 0
171 192 0
173 195 0
167 189 0
171 193 0
169 191 0
170 192 0
176 198 0
173 195 0
171 193 0
171 193 0
175 197 0
168 189 0
175 196 0
168 190 0
167 188 0
169 191 0
173 194 0
167 189 0
169 191 0
169 191 0
167 190 0
167 189 0
164 185 0
167 189 0
169 191 0
168 190 0
168 190 0
167 189 0
168 189 0
169 191 0
170 192 0
164 186 0
168 190 0
168 190 0
167 188 0
168 190 0
171 192 0
164 185 0
166 188 0
167 188 0
166 188 0
168 191 0
168 190 0
171 193 0
161 184 0
164 186 0
167 189 0
164 186 0
153 175 0
160 182 0
160 182 0
164 186 0
166 189 0
164 186 0
165 187 0
168 190 0
169 191 0
163 186 0
163 185 0
167 188 0
167 189 0
165 188 0
157 179 0
165 187 0
160 182 0
165 186 0
167 188 0
160 183 0
168 190 0
153 176 0
164 186 0
162 185 0
160 183 0
165 187 0
159 181 0
162 185 0
162 185 0
163 186 0
157 181 0
157 179 0
163 185 0
152 175 0
167 189 0
163 185 0
161 183 0
162 185 0
158 180 0
164 187 0
156 178 0
159 182 0
156 179 0
157 179 0
158 180 0
157 180 0
163 185 0
161 184 0
160 182 0
159 181 0
148 170 0
156 179 0
156 177 0
160 183 0
158 179 0
157 179 0
150 173 0
161 184 0
154 177 0
161 184 0
161 183 0
158 179 0
148 171 0
160 182 0
161 183 0
158 181 0
155 178 0
158 179 0
154 176 0
159 181 0
149 172 0
152 175 0
156 178 0
153 176 0
157 179 0
154 177 0
156 179 0
153 175 0
152 175 0
159 183 0
151 173 0
158 180 0
158 180 0
161 184 0
154 177 0
160 182 0
145 169 0
149 171 0
155 178 0
155 177 0
156 178 0
148 170 0
149 172 0
154 176 0
158 181 0
143 164 0
154 176 0
148 170 0
154 177 0
148 170 0
155 179 0
155 178 0
152 173 0
150 171 0
156 177 0
151 173 0
152 174 0
151 173 0
151 172 0
151 173 0
152 173 0
146 166 0
154 177 0
151 171 0
156 177 0
140 162 0
148 168 0
150 172 0
152 173 0
151 173 0
144 166 0
149 172 0
150 172 0
142 162 0
144 166 0
149 171 0
146 168 0
150 171 0
140 162 0
150 170 0
153 176 0
155 177 0
144 166 0
151 172 0
139 160 0
150 172 0
151 173 0
146 169 0
144 165 0
153 175 0
139 161 0
150 171 0
145 167 0
147 168 0
137 159 0
142 164 0
146 167 0
150 170 0
145 165 0
152 173 0
148 170 0
143 164 0
141 163 0
139 160 0
135 155 0
140 161 0
145 165 0
147 168 0
156 178 0
149 168 0
147 169 0
144 166 0
144 164 0
137 158 0
151 173 0
148 169 0
143 164 0
135 155 0
147 166 0
136 155 0
140 161 0
145 165 0
142 163 0
147 166 0
147 168 0
140 160 0
144 165 0
148 169 0
147 168 0
145 167 0
144 165 0
151 171 0
141 162 0
143 162 0
145 164 0
142 161 0
141 162 0
139 162 0
152 172 0
153 173 0
140 161 0
145 163 0
146 166 0
137 157 0
143 162 0
140 160 0
139 158 0
147 169 0
140 161 0
149 169 0
146 165 0
143 163 0
146 164 0
136 156 0
145 164 0
146 164 0
140 159 0
147 165 0
145 163 0
152 172 0
144 164 0
145 165 0
151 172 0
145 164 0
144 162 0
144 163 0
148 167 0
140 158 0
145 166 0
142 162 0
143 161 0
156 176 0
143 162 0
143 162 0
147 167 0
144 163 0
148 167 0
150 168 0
143 160 0
151 169 0
149 167 0
156 174 0
148 166 0
151 169 0
152 171 0
150 165 0
146 162 0
153 170 0
155 172 0
140 157 0
152 171 0
141 158 0
145 161 0
154 173 0
147 164 0
147 165 0
145 161 0
143 160 0
149 165 0
153 168 0
142 158 0
150 166 0
146 163 0
141 157 0
148 165 0
144 162 0
136 149 0
143 157 0
149 163 0
133 148 0
140 154 0
147 164 0
141 156 0
150 165 0
143 155 0
149 163 0
140 153 0
145 159 0
145 159 0
136 151 0
148 161 0
142 157 0
145 160 0
147 160 0
149 163 0
144 159 0
144 158 0
147 161 0
148 162 0
150 163 0
149 163 0
144 156 0
148 161 0
147 161 0
149 164 0
145 158 0
151 164 0
145 160 0
146 159 0
144 154 0
145 157 0
145 157 0
154 166 0
150 162 0
144 158 0
148 161 0
153 166 0
147 157 0
146 155 0
149 158 0
147 160 0
150 163 0
145 156 0
139 147 0
143 155 0
151 163 0
152 164 0
145 155 0
145 157 0
152 163 0
149 158 0
150 163 0
145 155 0
147 159 0
146 153 0
154 165 0
154 164 0
149 159 0
143 154 0
146 157 0
145 154 0
146 160 0
150 162 0
152 164 0
145 154 0
159 171 0
146 156 0
152 162 0
152 162 0
152 161 0
147 157 0
144 154 0
145 154 0
148 158 0
150 160 0
150 162 0
153 164 0
153 161 0
150 160 0
157 168 0
152 161 0
155 165 0
159 172 0
158 171 0
154 165 0
153 163 0
152 162 0
153 164 0
159 168 0
148 157 0
167 190 0
170 191 0
169 191 0
169 191 0
168 191 0
171 193 0
172 194 0
167 190 0
167 189 0
172 194 0
166 187 0
172 194 0
170 192 0
169 190 0
171 192 0
169 191 0
167 188 0
171 193 0
168 189 0
168 190 0
168 189 0
168 189 0
171 192 0
167 188 0
173 194 0
163 185 0
166 187 0
171 193 0
167 189 0
171 193 0
165 186 0
168 190 0
164 185 0
166 188 0
170 192 0
166 188 0
163 185 0
163 185 0
163 185 0
164 186 0
168 190 0
165 186 0
165 187 0
169 191 0
169 190 0
167 189 0
165 187 0
168 190 0
165 188 0
159 182 0
167 188 0
167 189 0
166 188 0
168 191 0
164 187 0
167 190 0
161 183 0
165 187 0
163 184 0
170 191 0
169 191 0
166 187 0
164 186 0
170 192 0
165 187 0
165 187 0
162 184 0
165 188 0
162 184 0
159 181 0
168 191 0
164 188 0
160 183 0
161 184 0
157 180 0
158 180 0
165 186 0
157 179 0
163 186 0
160 182 0
165 187 0
163 186 0
164 187 0
164 187 0
160 183 0
158 180 0
157 180 0
154 177 0
164 185 0
156 178 0
162 184 0
158 180 0
166 189 0
159 182 0
163 186 0
163 186 0
164 187 0
161 184 0
156 178 0
155 177 0
162 184 0
154 176 0
159 182 0
163 186 0
161 182 0
161 184 0
159 182 0
155 178 0
160 183 0
156 179 0
162 185 0
157 180 0
153 175 0
159 180 0
154 176 0
159 181 0
159 182 0
157 179 0
153 175 0
160 183 0
157 179 0
153 176 0
150 171 0
162 185 0
156 178 0
158 181 0
159 182 0
159 182 0
151 174 0
161 183 0
160 183 0
150 172 0
155 177 0
154 178 0
156 179 0
158 181 0
147 170 0
154 176 0
161 183 0
146 169 0
153 176 0
145 168 0
151 174 0
151 172 0
152 175 0
150 172 0
151 174 0
155 178 0
146 168 0
151 173 0
150 171 0
151 172 0
152 174 0
151 173 0
149 171 0
151 173 0
152 174 0
148 170 0
158 181 0
154 176 0
154 175 0
153 175 0
144 166 0
154 176 0
151 173 0
152 175 0
153 175 0
154 176 0
151 174 0
150 172 0
143 163 0
148 170 0
152 174 0
154 177 0
144 165 0
157 179 0
152 173 0
149 171 0
146 167 0
144 166 0
150 173 0
148 170 0
143 165 0
150 173 0
147 168 0
150 171 0
148 171 0
148 170 0
151 173 0
152 173 0
154 176 0
140 162 0
145 166 0
141 162 0
140 163 0
148 170 0
149 170 0
140 162 0
142 163 0
149 168 0
142 163 0
149 169 0
152 173 0
149 170 0
149 170 0
148 170 0
146 167 0
148 169 0
149 171 0
145 165 0
136 157 0
136 157 0
150 171 0
151 173 0
145 165 0
146 165 0
141 163 0
136 156 0
137 159 0
139 160 0
140 160 0
142 163 0
145 165 0
140 161 0
148 169 0
146 166 0
157 177 0
144 165 0
146 166 0
147 167 0
146 166 0
148 168 0
136 155 0
137 158 0
147 168 0
148 168 0
146 166 0
149 171 0
145 167 0
144 163 0
141 160 0
137 156 0
143 163 0
142 162 0
146 166 0
151 171 0
151 171 0
144 164 0
143 161 0
146 166 0
133 153 0
145 164 0
145 164 0
146 165 0
146 168 0
137 156 0
139 158 0
147 165 0
144 165 0
141 161 0
142 161 0
145 165 0
144 164 0
144 163 0
148 168 0
147 167 0
149 167 0
144 164 0
142 161 0
152 173 0
145 163 0
145 163 0
150 169 0
146 165 0
156 175 0
143 164 0
144 162 0
143 161 0
139 156 0
147 166 0
148 167 0
146 164 0
148 166 0
138 153 0
149 167 0
147 164 0
146 164 0
143 162 0
149 166 0
152 168 0
151 167 0
152 169 0
152 168 0
139 153 0
148 166 0
145 162 0
154 171 0
142 158 0
147 167 0
153 168 0
144 162 0
150 168 0
146 160 0
140 155 0
150 167 0
148 164 0
133 148 0
139 155 0
146 160 0
148 164 0
147 164 0
149 167 0
144 157 0
149 163 0
147 163 0
154 166 0
150 166 0
149 166 0
153 169 0
149 165 0
144 157 0
148 162 0
145 157 0
152 165 0
147 159 0
147 160 0
150 163 0
148 162 0
137 152 0
143 157 0
146 160 0
149 162 0
146 160 0
148 160 0
145 159 0
146 157 0
154 168 0
147 156 0
145 157 0
145 159 0
153 167 0
149 163 0
144 154 0
152 166 0
143 154 0
146 158 0
152 164 0
142 152 0
148 158 0
155 169 0
145 154 0
151 164 0
145 157 0
149 159 0
152 163 0
146 158 0
146 154 0
146 158 0
138 147 0
152 165 0
144 154 0
146 156 0
149 158 0
140 148 0
138 146 0
149 155 0
157 167 0
151 163 0
142 151 0
147 158 0
149 158 0
156 168 0
154 165 0
144 152 0
151 161 0
145 153 0
152 163 0
158 169 0
151 161 0
154 163 0
148 156 0
152 164 0
145 154 0
150 160 0
147 157 0
149 159 0
149 162 0
153 163 0
148 158 0
155 164 0
154 166 0
156 169 0
151 158 0
149 160 0
148 157 0
155 167 0
149 160 0
159 171 0
156 167 0
150 159 0
174 194 0
162 184 0
172 194 0
167 189 0
169 191 0
172 194 0
171 193 0
171 193 0
171 193 0
173 195 0
170 192 0
166 188 0
169 191 0
170 192 0
172 194 0
172 193 0
165 187 0
173 194 0
167 190 0
171 193 0
166 188 0
170 191 0
167 190 0
166 188 0
166 188 0
166 188 0
165 187 0
165 187 0
170 193 0
169 192 0
167 189 0
170 191 0
164 187 0
170 191 0
168 189 0
161 183 0
170 192 0
162 184 0
163 184 0
163 185 0
161 183 0
169 192 0
160 182 0
168 190 0
166 189 0
160 182 0
163 184 0
167 189 0
160 182 0
170 192 0
164 186 0
165 187 0
165 186 0
166 187 0
165 187 0
163 185 0
163 186 0
166 188 0
163 185 0
166 188 0
165 188 0
163 186 0
163 184 0
161 184 0
164 187 0
165 187 0
165 187 0
165 187 0
162 184 0
158 181 0
166 188 0
162 185 0
161 183 0
160 182 0
162 185 0
163 185 0
162 185 0
157 179 0
165 187 0
163 185 0
166 188 0
165 189 0
158 181 0
162 185 0
163 185 0
159 182 0
160 182 0
161 184 0
153 175 0
160 181 0
162 184 0
160 182 0
160 181 0
163 185 0
161 183 0
157 180 0
154 178 0
156 178 0
165 187 0
160 183 0
151 173 0
151 173 0
155 178 0
155 178 0
150 173 0
157 180 0
160 183 0
161 183 0
155 177 0
161 183 0
154 177 0
160 183 0
153 176 0
158 180 0
155 177 0
156 179 0
159 181 0
165 187 0
161 184 0
157 179 0
158 181 0
154 177 0
153 176 0
154 177 0
151 173 0
155 178 0
158 181 0
160 182 0
158 181 0
153 175 0
157 179 0
156 179 0
156 178 0
154 175 0
154 176 0
152 174 0
149 171 0
158 181 0
153 176 0
155 178 0
154 177 0
150 173 0
148 171 0
143 166 0
158 181 0
159 182 0
157 180 0
146 168 0
155 177 0
155 177 0
157 178 0
155 176 0
147 170 0
153 174 0
153 175 0
151 172 0
156 179 0
149 171 0
151 173 0
144 166 0
142 164 0
152 174 0
164 187 0
140 161 0
146 168 0
154 177 0
144 166 0
143 165 0
145 168 0
145 165 0
145 167 0
145 167 0
148 170 0
142 164 0
145 166 0
154 175 0
144 166 0
153 174 0
152 173 0
149 172 0
136 158 0
148 170 0
141 161 0
146 168 0
155 175 0
142 162 0
156 177 0
149 170 0
149 171 0
154 174 0
145 165 0
151 172 0
151 172 0
140 161 0
152 174 0
147 169 0
156 176 0
143 162 0
135 156 0
148 170 0
143 165 0
137 158 0
146 167 0
149 171 0
150 170 0
145 167 0
148 169 0
146 168 0
142 163 0
154 174 0
145 167 0
142 162 0
145 166 0
153 174 0
140 162 0
150 172 0
147 169 0
151 171 0
141 161 0
140 160 0
147 168 0
149 171 0
147 168 0
146 167 0
144 164 0
148 168 0
146 166 0
157 178 0
145 167 0
145 166 0
143 164 0
141 160 0
149 169 0
146 167 0
142 163 0
141 160 0
153 172 0
143 163 0
153 174 0
148 168 0
145 164 0
140 161 0
142 162 0
151 173 0
144 164 0
150 169 0
147 167 0
152 171 0
142 161 0
144 164 0
150 170 0
135 153 0
145 164 0
148 167 0
147 167 0
141 160 0
145 165 0
150 169 0
144 166 0
150 170 0
153 173 0
140 158 0
154 173 0
137 158 0
153 173 0
152 173 0
151 171 0
146 165 0
149 168 0
144 163 0
149 168 0
149 167 0
147 166 0
145 162 0
142 160 0
151 168 0
146 165 0
146 165 0
151 170 0
147 164 0
144 161 0
149 168 0
151 170 0
146 164 0
145 165 0
151 169 0
154 172 0
144 161 0
147 165 0
149 167 0
146 163 0
145 164 0
149 169 0
140 158 0
145 162 0
148 166 0
145 162 0
149 168 0
140 156 0
152 170 0
148 167 0
144 162 0
144 159 0
139 156 0
146 161 0
145 159 0
155 173 0
138 153 0
139 156 0
151 167 0
144 161 0
146 164 0
153 169 0
150 168 0
148 161 0
149 164 0
143 158 0
150 165 0
145 160 0
148 164 0
152 168 0
145 160 0
144 158 0
144 160 0
153 168 0
154 168 0
140 155 0
147 160 0
147 160 0
152 164 0
144 160 0
146 161 0
144 154 0
145 155 0
139 151 0
144 156 0
146 158 0
147 161 0
137 151 0
151 163 0
149 164 0
147 160 0
149 164 0
146 158 0
144 157 0
156 170 0
150 165 0
140 151 0
151 163 0
148 161 0
147 160 0
148 162 0
155 165 0
147 159 0
148 159 0
144 155 0
152 163 0
136 146 0
144 153 0
147 157 0
150 161 0
146 155 0
143 151 0
144 152 0
144 156 0
143 152 0
143 152 0
150 160 0
145 155 0
144 156 0
151 161 0
146 158 0
153 163 0
153 164 0
149 158 0
144 152 0
153 164 0
151 162 0
149 158 0
151 162 0
154 165 0
151 162 0
152 163 0
152 160 0
152 161 0
149 162 0
147 155 0
150 159 0
146 154 0
158 169 0
148 159 0
157 166 0
151 161 0
152 162 0
152 164 0
153 162 0
154 165 0
148 159 0
148 158 0
157 169 0
171 193 0
171 193 0
172 193 0
168 190 0
165 186 0
171 193 0
166 187 0
169 192 0
169 191 0
168 189 0
168 189 0
166 187 0
167 189 0
166 188 0
172 192 0
168 190 0
165 187 0
171 194 0
173 195 0
169 191 0
163 184 0
168 190 0
167 189 0
168 191 0
170 191 0
162 183 0
157 179 0
167 189 0
162 184 0
168 191 0
168 189 0
163 186 0
166 188 0
172 194 0
171 192 0
164 186 0
168 190 0
158 180 0
163 185 0
166 188 0
163 185 0
158 181 0
170 192 0
165 187 0
158 180 0
168 189 0
166 188 0
168 190 0
165 187 0
163 185 0
162 185 0
169 191 0
166 189 0
161 183 0
164 186 0
165 187 0
164 187 0
161 184 0
160 182 0
169 191 0
162 185 0
160 182 0
160 182 0
163 185 0
155 177 0
162 184 0
165 187 0
158 180 0
158 182 0
166 189 0
163 184 0
163 185 0
163 186 0
163 186 0
159 181 0
159 182 0
165 188 0
162 184 0
155 178 0
160 183 0
164 186 0
156 179 0
163 185 0
160 183 0
161 183 0
159 182 0
164 186 0
163 185 0
160 183 0
165 188 0
159 182 0
159 181 0
165 188 0
159 182 0
161 184 0
160 183 0
158 180 0
160 182 0
156 179 0
156 178 0
156 177 0
152 174 0
155 177 0
159 182 0
157 180 0
160 183 0
160 183 0
156 179 0
160 183 0
158 180 0
158 181 0
153 175 0
157 180 0
165 187 0
160 183 0
152 175 0
156 177 0
151 173 0
153 175 0
160 181 0
160 183 0
151 173 0
156 179 0
154 177 0
150 173 0
153 176 0
162 185 0
154 177 0
155 178 0
156 178 0
157 179 0
157 180 0
156 179 0
155 179 0
154 177 0
156 177 0
153 174 0
154 177 0
152 175 0
155 177 0
152 175 0
152 175 0
154 176 0
150 173 0
152 174 0
147 169 0
149 171 0
156 179 0
147 169 0
155 177 0
151 172 0
149 171 0
152 175 0
144 167 0
153 176 0
145 166 0
153 175 0
155 177 0
148 170 0
148 169 0
149 172 0
148 171 0
158 180 0
140 162 0
147 169 0
153 177 0
149 172 0
154 175 0
152 175 0
153 174 0
153 175 0
150 172 0
151 173 0
144 166 0
150 172 0
143 165 0
143 165 0
146 167 0
149 171 0
149 169 0
149 171 0
144 167 0
145 166 0
140 160 0
154 177 0
150 172 0
145 166 0
148 171 0
147 168 0
154 176 0
144 165 0
138 160 0
140 162 0
146 167 0
148 169 0
141 163 0
141 163 0
151 172 0
149 171 0
150 171 0
150 172 0
147 168 0
141 162 0
145 167 0
147 168 0
147 168 0
155 175 0
153 174 0
147 168 0
151 172 0
150 170 0
141 162 0
153 174 0
140 161 0
144 165 0
143 164 0
144 167 0
143 163 0
135 156 0
145 166 0
153 174 0
148 169 0
144 165 0
140 160 0
144 162 0
145 166 0
152 173 0
153 174 0
150 171 0
140 160 0
147 168 0
152 171 0
137 158 0
142 162 0
149 171 0
142 162 0
152 172 0
147 169 0
147 166 0
138 157 0
148 168 0
138 158 0
153 173 0
145 167 0
140 159 0
143 164 0
146 167 0
149 170 0
147 168 0
147 167 0
150 170 0
152 172 0
148 167 0
150 171 0
144 163 0
139 160 0
146 166 0
153 171 0
145 163 0
142 163 0
146 165 0
149 169 0
150 169 0
141 160 0
152 172 0
148 167 0
147 165 0
143 162 0
147 167 0
141 159 0
152 173 0
154 174 0
149 167 0
141 158 0
142 160 0
145 165 0
145 165 0
153 170 0
146 166 0
147 165 0
147 166 0
150 170 0
149 167 0
153 173 0
139 155 0
152 170 0
140 158 0
152 170 0
147 165 0
154 172 0
153 172 0
151 168 0
148 167 0
145 163 0
147 165 0
157 174 0
149 166 0
150 168 0
140 157 0
145 163 0
148 165 0
147 164 0
148 164 0
145 162 0
147 165 0
142 159 0
148 164 0
146 162 0
142 158 0
147 162 0
144 160 0
154 172 0
152 167 0
148 164 0
153 171 0
154 169 0
153 168 0
147 160 0
144 161 0
149 167 0
151 168 0
145 159 0
153 171 0
153 169 0
145 158 0
145 160 0
152 167 0
146 161 0
152 166 0
150 166 0
150 165 0
142 152 0
153 168 0
147 162 0
141 153 0
151 164 0
149 159 0
140 154 0
149 162 0
152 162 0
148 161 0
145 158 0
148 162 0
145 158 0
154 167 0
147 160 0
147 159 0
146 157 0
148 162 0
144 154 0
147 159 0
145 155 0
146 158 0
146 159 0
143 153 0
150 163 0
150 164 0
139 148 0
145 155 0
152 166 0
150 160 0
153 165 0
145 154 0
144 157 0
146 157 0
151 162 0
142 153 0
149 158 0
147 158 0
151 160 0
150 160 0
154 164 0
151 162 0
151 164 0
149 158 0
147 159 0
154 164 0
153 165 0
153 164 0
152 164 0
149 159 0
148 160 0
155 166 0
145 152 0
152 166 0
154 163 0
155 164 0
155 166 0
151 160 0
152 164 0
154 163 0
153 165 0
154 164 0
148 155 0
151 162 0
153 166 0
155 167 0
153 162 0
154 166 0
149 158 0
170 192 0
172 194 0
171 192 0
171 193 0
169 192 0
171 194 0
168 190 0
170 192 0
166 187 0
169 191 0
169 192 0
167 190 0
168 190 0
169 191 0
170 192 0
169 192 0
173 195 0
168 190 0
173 195 0
168 189 0
166 187 0
166 188 0
164 185 0
171 193 0
166 188 0
163 186 0
165 187 0
162 184 0
168 190 0
163 186 0
168 190 0
171 192 0
165 189 0
169 191 0
168 190 0
168 189 0
166 188 0
165 187 0
164 185 0
166 189 0
168 190 0
162 185 0
162 184 0
164 185 0
166 188 0
164 186 0
164 186 0
159 181 0
171 193 0
172 194 0
160 182 0
166 188 0
162 185 0
163 184 0
167 190 0
167 189 0
163 185 0
165 186 0
167 189 0
159 181 0
160 182 0
161 184 0
167 188 0
165 187 0
162 184 0
158 179 0
161 184 0
167 189 0
161 184 0
160 183 0
157 180 0
160 182 0
166 188 0
165 187 0
163 185 0
162 184 0
164 185 0
165 188 0
161 184 0
155 178 0
167 189 0
154 176 0
159 181 0
157 181 0
166 188 0
160 183 0
160 182 0
156 178 0
165 187 0
159 182 0
158 181 0
165 188 0
161 183 0
162 185 0
158 181 0
161 183 0
161 184 0
160 184 0
161 183 0
160 182 0
158 181 0
155 177 0
160 182 0
164 187 0
160 183 0
159 182 0
159 182 0
153 176 0
154 177 0
152 176 0
163 186 0
158 180 0
157 179 0
159 182 0
161 184 0
158 179 0
153 176 0
159 181 0
158 181 0
149 171 0
163 185 0
160 182 0
152 175 0
155 177 0
156 179 0
157 179 0
163 184 0
156 179 0
161 184 0
151 173 0
152 175 0
156 179 0
150 172 0
161 183 0
157 180 0
150 172 0
160 182 0
152 175 0
153 175 0
156 179 0
156 179 0
153 175 0
147 169 0
153 175 0
160 181 0
157 180 0
154 177 0
154 176 0
154 176 0
157 180 0
145 166 0
151 173 0
152 175 0
156 178 0
153 174 0
150 173 0
155 177 0
145 167 0
152 175 0
159 181 0
153 176 0
148 170 0
148 170 0
153 174 0
148 171 0
152 175 0
156 179 0
150 172 0
148 171 0
154 176 0
153 174 0
148 171 0
145 168 0
150 171 0
146 168 0
150 170 0
144 165 0
152 172 0
146 168 0
148 170 0
142 164 0
145 166 0
148 168 0
152 175 0
146 167 0
156 177 0
149 170 0
155 178 0
146 168 0
153 174 0
153 175 0
156 178 0
138 159 0
152 173 0
148 168 0
147 169 0
152 174 0
156 178 0
149 171 0
143 165 0
148 169 0
146 167 0
152 173 0
147 169 0
138 159 0
148 170 0
147 169 0
142 163 0
142 163 0
141 163 0
145 166 0
140 160 0
145 167 0
144 166 0
139 160 0
154 175 0
152 171 0
149 169 0
141 162 0
145 166 0
144 165 0
145 166 0
143 163 0
147 170 0
145 166 0
145 165 0
149 169 0
138 157 0
139 159 0
142 164 0
146 167 0
139 159 0
144 164 0
154 176 0
149 169 0
150 171 0
137 157 0
148 169 0
147 167 0
145 167 0
148 169 0
146 166 0
143 164 0
152 174 0
153 173 0
146 166 0
153 174 0
150 171 0
148 168 0
144 164 0
146 165 0
137 156 0
146 165 0
143 162 0
149 172 0
154 176 0
153 173 0
154 174 0
143 163 0
149 167 0
144 164 0
152 174 0
144 164 0
148 168 0
146 166 0
152 173 0
153 172 0
148 169 0
150 169 0
150 171 0
151 171 0
149 168 0
150 169 0
145 164 0
143 162 0
143 164 0
142 162 0
148 166 0
147 167 0
141 160 0
147 166 0
145 164 0
147 165 0
144 161 0
142 162 0
145 164 0
146 164 0
158 177 0
147 164 0
144 163 0
146 166 0
152 171 0
142 157 0
147 166 0
146 165 0
147 166 0
142 162 0
153 171 0
150 168 0
148 165 0
148 166 0
152 167 0
147 164 0
147 166 0
153 171 0
148 163 0
154 171 0
150 168 0
151 166 0
148 163 0
144 162 0
150 167 0
146 163 0
148 162 0
145 160 0
153 169 0
150 167 0
154 172 0
144 158 0
144 158 0
150 166 0
150 167 0
146 164 0
147 161 0
141 154 0
152 166 0
151 164 0
153 168 0
150 165 0
145 161 0
159 174 0
155 169 0
145 159 0
147 163 0
148 159 0
141 155 0
143 159 0
146 159 0
148 162 0
153 166 0
152 167 0
146 158 0
152 166 0
144 155 0
144 159 0
153 166 0
150 163 0
144 151 0
145 152 0
153 164 0
151 163 0
144 158 0
144 155 0
151 162 0
150 162 0
148 161 0
145 156 0
154 168 0
150 159 0
149 161 0
147 159 0
155 168 0
143 154 0
152 164 0
155 170 0
152 163 0
156 168 0
152 163 0
149 163 0
151 162 0
146 156 0
146 157 0
148 161 0
161 173 0
150 161 0
151 165 0
145 156 0
157 172 0
154 164 0
149 160 0
142 152 0
151 162 0
152 161 0
144 156 0
155 167 0
149 159 0
153 162 0
154 164 0
150 163 0
148 158 0
158 170 0
158 169 0
155 165 0
153 163 0
152 162 0
145 156 0
157 168 0
153 162 0
153 164 0
151 161 0
171 194 0
167 190 0
168 191 0
168 190 0
173 196 0
170 191 0
174 197 0
166 189 0
168 190 0
171 192 0
166 187 0
170 194 0
167 188 0
172 193 0
169 191 0
164 186 0
162 184 0
166 189 0
170 191 0
167 189 0
175 197 0
170 192 0
163 185 0
167 189 0
172 194 0
165 187 0
168 190 0
169 192 0
170 191 0
164 187 0
165 187 0
163 185 0
169 191 0
167 189 0
168 190 0
164 185 0
163 185 0
164 186 0
168 190 0
163 185 0
163 185 0
166 188 0
165 186 0
165 187 0
170 191 0
168 190 0
165 186 0
162 184 0
164 186 0
167 189 0
163 186 0
165 187 0
161 182 0
167 189 0
164 187 0
166 188 0
164 188 0
163 186 0
161 184 0
164 187 0
162 185 0
164 186 0
164 185 0
158 180 0
163 185 0
159 181 0
162 184 0
167 190 0
163 185 0
162 185 0
160 183 0
165 188 0
171 194 0
162 183 0
162 184 0
163 186 0
164 187 0
159 181 0
161 183 0
166 189 0
163 185 0
166 189 0
160 183 0
156 179 0
163 186 0
159 181 0
161 183 0
157 180 0
157 179 0
160 182 0
157 180 0
159 182 0
159 182 0
161 183 0
155 178 0
159 182 0
152 174 0
156 179 0
157 180 0
156 179 0
161 184 0
159 181 0
158 181 0
163 184 0
151 174 0
160 183 0
167 189 0
161 185 0
160 183 0
159 183 0
161 185 0
163 185 0
155 178 0
147 170 0
155 177 0
160 182 0
157 180 0
161 184 0
149 172 0
155 177 0
154 176 0
161 182 0
160 183 0
161 185 0
142 164 0
151 174 0
154 176 0
157 179 0
153 176 0
158 180 0
156 179 0
155 178 0
159 182 0
158 180 0
159 182 0
153 176 0
158 181 0
152 175 0
159 181 0
150 172 0
151 173 0
154 177 0
158 181 0
147 169 0
153 175 0
147 170 0
156 178 0
155 177 0
150 172 0
150 172 0
149 172 0
156 177 0
149 172 0
159 181 0
151 173 0
153 176 0
156 179 0
155 178 0
154 176 0
155 178 0
157 179 0
150 172 0
152 174 0
153 175 0
156 179 0
150 172 0
154 177 0
157 180 0
154 177 0
144 167 0
152 173 0
141 163 0
149 171 0
153 175 0
155 176 0
150 172 0
145 168 0
148 169 0
152 174 0
145 167 0
151 174 0
147 169 0
142 164 0
147 169 0
147 170 0
149 171 0
155 177 0
152 174 0
147 168 0
147 168 0
149 170 0
158 180 0
149 171 0
146 167 0
151 172 0
146 168 0
147 168 0
154 174 0
150 172 0
140 160 0
156 178 0
153 174 0
146 166 0
152 174 0
153 174 0
144 167 0
150 172 0
142 163 0
146 167 0
151 171 0
138 159 0
147 169 0
145 165 0
148 169 0
150 171 0
146 167 0
147 167 0
144 165 0
146 167 0
152 172 0
154 174 0
146 167 0
145 168 0
144 164 0
152 174 0
148 168 0
139 160 0
138 159 0
147 168 0
145 166 0
150 170 0
149 170 0
145 165 0
149 169 0
153 174 0
144 163 0
143 162 0
144 164 0
146 167 0
144 163 0
146 168 0
139 159 0
146 166 0
147 167 0
152 172 0
148 168 0
153 172 0
149 169 0
152 173 0
147 165 0
151 171 0
150 171 0
151 170 0
141 161 0
152 171 0
151 171 0
137 158 0
151 170 0
141 159 0
142 161 0
148 168 0
146 167 0
147 167 0
150 171 0
152 172 0
151 169 0
148 168 0
148 166 0
149 170 0
146 165 0
149 168 0
146 165 0
136 154 0
158 181 0
155 175 0
150 169 0
153 173 0
150 169 0
149 169 0
143 162 0
145 163 0
148 165 0
146 163 0
143 162 0
145 161 0
149 167 0
149 167 0
147 165 0
152 169 0
164 183 0
147 164 0
154 173 0
146 164 0
140 158 0
146 162 0
150 167 0
148 166 0
145 161 0
154 172 0
152 171 0
150 167 0
148 166 0
155 174 0
147 165 0
147 162 0
150 169 0
149 167 0
148 166 0
141 159 0
152 169 0
151 170 0
153 171 0
148 164 0
147 164 0
137 153 0
148 165 0
143 159 0
150 166 0
146 160 0
149 166 0
145 161 0
144 160 0
146 163 0
153 168 0
143 155 0
136 148 0
148 159 0
147 162 0
152 167 0
155 169 0
149 161 0
151 165 0
144 160 0
155 171 0
146 159 0
155 174 0
150 165 0
153 166 0
144 156 0
143 159 0
147 163 0
149 165 0
152 167 0
146 157 0
152 166 0
147 162 0
151 160 0
152 164 0
153 166 0
155 168 0
146 160 0
153 166 0
153 165 0
143 154 0
143 157 0
153 166 0
150 163 0
147 158 0
148 161 0
144 157 0
151 163 0
155 169 0
138 149 0
150 163 0
146 157 0
150 163 0
156 169 0
148 160 0
150 162 0
146 156 0
145 157 0
149 159 0
145 154 0
147 158 0
148 158 0
150 161 0
151 162 0
154 165 0
151 161 0
153 164 0
151 161 0
153 167 0
153 165 0
155 166 0
150 156 0
153 167 0
153 164 0
154 166 0
152 162 0
152 159 0
158 172 0
149 161 0
156 168 0
150 159 0
152 161 0
149 159 0
156 169 0
160 172 0
157 167 0
154 167 0
170 192 0
171 193 0
168 190 0
169 191 0
172 195 0
169 191 0
169 190 0
167 189 0
166 188 0
171 193 0
170 193 0
170 192 0
168 190 0
165 186 0
168 190 0
169 192 0
170 193 0
163 185 0
169 191 0
170 192 0
167 189 0
167 190 0
165 187 0
164 187 0
168 189 0
168 190 0
170 192 0
166 187 0
165 188 0
168 190 0
164 185 0
159 181 0
167 189 0
162 184 0
168 190 0
165 187 0
165 188 0
167 189 0
160 182 0
156 179 0
166 188 0
163 185 0
163 186 0
166 189 0
161 184 0
164 186 0
165 187 0
163 186 0
165 187 0
167 189 0
163 186 0
164 186 0
164 187 0
160 182 0
160 183 0
165 187 0
165 187 0
163 186 0
162 185 0
164 186 0
162 184 0
163 185 0
164 186 0
165 187 0
164 188 0
162 185 0
166 188 0
157 179 0
168 191 0
163 185 0
163 186 0
158 180 0
162 185 0
165 187 0
159 181 0
158 180 0
164 186 0
168 191 0
158 181 0
156 179 0
160 182 0
164 186 0
159 181 0
157 180 0
162 185 0
161 183 0
154 178 0
160 182 0
163 185 0
157 181 0
156 179 0
159 180 0
165 188 0
158 182 0
159 181 0
162 184 0
162 185 0
156 179 0
162 184 0
163 185 0
156 179 0
161 184 0
160 182 0
164 186 0
164 186 0
151 173 0
160 182 0
160 183 0
159 181 0
160 182 0
156 179 0
160 183 0
157 180 0
160 182 0
158 181 0
154 178 0
156 179 0
152 173 0
155 178 0
147 168 0
160 183 0
156 178 0
153 176 0
156 181 0
159 180 0
162 184 0
161 183 0
158 181 0
156 178 0
156 179 0
156 179 0
152 174 0
154 176 0
161 183 0
156 177 0
151 174 0
157 179 0
154 177 0
148 171 0
150 173 0
150 173 0
152 175 0
158 181 0
155 178 0
159 180 0
154 176 0
153 176 0
150 173 0
155 176 0
155 178 0
153 175 0
158 181 0
145 166 0
147 169 0
155 178 0
158 180 0
151 173 0
148 170 0
152 175 0
148 170 0
152 174 0
156 180 0
142 163 0
152 175 0
151 174 0
154 176 0
148 171 0
153 175 0
151 173 0
151 174 0
149 171 0
150 172 0
150 171 0
155 176 0
146 168 0
150 171 0
148 171 0
143 166 0
143 164 0
147 170 0
146 167 0
151 174 0
150 172 0
148 170 0
147 169 0
147 169 0
149 170 0
154 176 0
145 166 0
148 169 0
151 173 0
150 170 0
145 167 0
149 170 0
139 160 0
152 174 0
156 178 0
140 163 0
149 170 0
146 167 0
138 158 0
145 167 0
147 168 0
153 175 0
139 160 0
154 175 0
148 168 0
157 178 0
145 165 0
140 161 0
145 165 0
149 169 0
149 169 0
151 173 0
151 173 0
145 167 0
148 168 0
156 177 0
138 160 0
138 158 0
150 172 0
157 178 0
149 170 0
150 172 0
145 167 0
146 167 0
149 171 0
151 173 0
149 171 0
137 158 0
156 177 0
143 162 0
144 164 0
139 161 0
147 166 0
144 163 0
148 170 0
133 153 0
141 163 0
151 170 0
147 167 0
150 171 0
143 162 0
145 165 0
144 163 0
148 169 0
154 174 0
152 171 0
151 173 0
156 177 0
149 171 0
148 169 0
146 165 0
142 164 0
145 165 0
151 171 0
145 165 0
146 166 0
144 166 0
151 169 0
145 165 0
153 173 0
149 168 0
150 170 0
144 162 0
147 164 0
150 169 0
152 172 0
146 165 0
152 173 0
150 169 0
140 158 0
148 169 0
150 170 0
150 171 0
155 175 0
147 166 0
149 169 0
147 165 0
152 171 0
155 174 0
145 163 0
153 171 0
140 160 0
149 167 0
146 164 0
147 166 0
148 168 0
143 161 0
147 166 0
147 165 0
149 166 0
151 171 0
143 160 0
152 172 0
161 180 0
146 166 0
151 169 0
154 172 0
153 173 0
152 171 0
149 165 0
143 161 0
159 176 0
153 169 0
151 169 0
145 163 0
150 168 0
152 170 0
151 170 0
147 162 0
153 171 0
154 171 0
151 167 0
154 172 0
147 165 0
146 164 0
149 167 0
159 177 0
149 165 0
152 168 0
138 153 0
147 160 0
144 158 0
149 162 0
148 163 0
143 159 0
148 163 0
151 166 0
144 159 0
150 164 0
149 163 0
154 171 0
145 159 0
149 162 0
147 160 0
149 165 0
148 163 0
155 171 0
159 175 0
149 162 0
153 170 0
155 169 0
149 163 0
150 164 0
144 159 0
141 154 0
150 161 0
143 158 0
150 165 0
148 161 0
148 163 0
154 168 0
148 160 0
149 161 0
149 160 0
154 169 0
144 156 0
153 167 0
150 163 0
147 158 0
151 161 0
149 162 0
151 162 0
146 161 0
156 171 0
146 156 0
155 169 0
153 163 0
153 166 0
158 172 0
146 159 0
153 166 0
148 162 0
148 159 0
151 163 0
150 163 0
155 167 0
151 165 0
156 168 0
156 169 0
155 165 0
151 163 0
150 159 0
152 166 0
161 172 0
151 162 0
150 162 0
151 162 0
154 166 0
153 164 0
153 165 0
155 166 0
154 166 0
151 161 0
149 161 0
153 165 0
152 160 0
157 169 0
158 169 0
166 188 0
169 191 0
171 193 0
172 194 0
170 192 0
173 195 0
169 192 0
167 190 0
169 192 0
168 191 0
169 190 0
171 194 0
169 190 0
170 192 0
165 188 0
169 191 0
172 194 0
169 191 0
171 193 0
168 190 0
168 190 0
170 192 0
167 189 0
173 194 0
167 189 0
165 187 0
167 189 0
170 192 0
168 189 0
162 185 0
166 189 0
165 187 0
163 186 0
164 186 0
162 185 0
167 190 0
162 184 0
166 189 0
164 187 0
166 189 0
166 188 0
164 187 0
160 182 0
163 185 0
165 188 0
166 189 0
162 184 0
164 186 0
164 187 0
167 189 0
163 185 0
166 188 0
165 187 0
163 185 0
160 183 0
167 189 0
158 180 0
168 190 0
169 192 0
163 186 0
164 187 0
169 191 0
166 190 0
162 184 0
158 182 0
166 188 0
161 184 0
161 184 0
164 186 0
160 184 0
167 189 0
162 183 0
160 182 0
160 182 0
162 185 0
157 181 0
161 184 0
163 184 0
158 181 0
157 180 0
160 184 0
164 188 0
163 185 0
157 179 0
158 181 0
164 187 0
160 183 0
157 178 0
163 186 0
162 185 0
158 180 0
159 182 0
159 182 0
159 182 0
160 183 0
159 182 0
154 177 0
154 178 0
161 185 0
161 184 0
161 183 0
161 185 0
161 183 0
156 179 0
163 186 0
162 185 0
162 185 0
157 179 0
156 180 0
157 179 0
159 181 0
159 181 0
157 179 0
158 181 0
156 178 0
161 183 0
154 176 0
156 178 0
157 180 0
162 185 0
156 179 0
154 177 0
150 173 0
155 177 0
159 181 0
159 182 0
157 180 0
158 181 0
154 177 0
151 174 0
155 178 0
154 176 0
159 182 0
154 176 0
157 179 0
156 179 0
152 175 0
150 173 0
155 178 0
152 174 0
152 174 0
152 173 0
157 179 0
146 168 0
151 173 0
153 176 0
151 172 0
157 179 0
149 173 0
148 170 0
150 173 0
148 171 0
147 168 0
150 172 0
144 165 0
153 175 0
152 173 0
143 165 0
157 181 0
143 163 0
153 175 0
149 171 0
157 180 0
151 174 0
155 176 0
146 168 0
148 170 0
151 174 0
151 173 0
152 173 0
142 163 0
148 171 0
153 175 0
145 167 0
146 167 0
153 176 0
143 165 0
150 173 0
144 166 0
150 173 0
148 171 0
148 171 0
145 167 0
149 172 0
152 174 0
150 172 0
149 171 0
152 174 0
142 165 0
144 163 0
151 172 0
149 171 0
144 167 0
150 173 0
152 173 0
150 170 0
153 174 0
148 170 0
137 158 0
140 163 0
151 173 0
143 164 0
147 168 0
153 174 0
148 171 0
143 163 0
154 176 0
151 173 0
151 172 0
144 164 0
139 159 0
156 177 0
144 165 0
140 159 0
146 167 0
143 164 0
143 163 0
148 168 0
144 164 0
149 170 0
147 167 0
151 172 0
154 175 0
150 171 0
148 169 0
158 179 0
148 169 0
147 168 0
155 176 0
151 172 0
150 171 0
149 171 0
142 162 0
150 171 0
148 171 0
152 174 0
145 167 0
146 167 0
149 171 0
142 161 0
144 165 0
152 172 0
152 173 0
149 170 0
148 169 0
154 175 0
156 177 0
138 159 0
149 169 0
151 170 0
147 166 0
149 171 0
151 172 0
139 158 0
147 167 0
150 171 0
149 167 0
151 171 0
141 160 0
153 173 0
149 167 0
153 173 0
143 163 0
150 170 0
150 170 0
146 166 0
135 155 0
148 166 0
145 166 0
147 164 0
146 165 0
151 173 0
144 163 0
149 167 0
146 167 0
142 160 0
144 161 0
148 169 0
146 166 0
151 171 0
147 165 0
142 160 0
148 166 0
152 171 0
153 172 0
145 162 0
146 164 0
146 164 0
147 165 0
147 164 0
156 173 0
151 169 0
147 164 0
149 169 0
150 167 0
153 173 0
154 173 0
154 170 0
150 167 0
148 166 0
155 175 0
146 162 0
153 170 0
143 160 0
152 170 0
152 169 0
144 164 0
155 172 0
146 161 0
138 154 0
146 161 0
154 173 0
149 168 0
148 168 0
154 173 0
157 175 0
144 157 0
149 165 0
152 166 0
149 165 0
152 168 0
153 170 0
155 170 0
155 172 0
144 160 0
150 166 0
148 162 0
155 172 0
150 163 0
153 167 0
156 170 0
148 166 0
153 171 0
147 161 0
146 161 0
147 163 0
148 162 0
155 170 0
146 160 0
154 168 0
149 165 0
146 161 0
151 165 0
151 167 0
147 161 0
153 167 0
147 162 0
148 160 0
145 158 0
146 160 0
156 169 0
145 157 0
149 165 0
153 167 0
155 168 0
153 167 0
137 149 0
149 163 0
150 161 0
150 162 0
148 163 0
153 164 0
151 162 0
158 172 0
151 164 0
152 163 0
147 159 0
152 165 0
155 167 0
149 164 0
156 169 0
157 170 0
146 155 0
153 168 0
156 170 0
152 165 0
150 162 0
151 165 0
147 159 0
155 166 0
148 161 0
144 157 0
150 161 0
157 169 0
153 166 0
151 163 0
156 166 0
150 160 0
141 149 0
151 161 0
151 164 0
149 162 0
151 165 0
148 157 0
144 154 0
153 165 0
149 160 0
152 163 0
155 167 0
153 164 0
170 193 0
170 193 0
167 190 0
171 192 0
170 192 0
169 190 0
164 185 0
170 192 0
169 191 0
167 189 0
170 192 0
169 191 0
167 189 0
164 186 0
165 186 0
165 187 0
167 190 0
171 193 0
171 193 0
170 192 0
163 186 0
166 189 0
169 191 0
164 187 0
161 184 0
169 192 0
166 188 0
162 185 0
167 189 0
166 189 0
163 185 0
170 192 0
167 189 0
169 191 0
167 189 0
164 187 0
169 191 0
166 187 0
163 185 0
165 187 0
165 188 0
163 185 0
163 186 0
159 182 0
161 183 0
164 186 0
162 184 0
162 185 0
166 188 0
164 187 0
164 186 0
163 185 0
164 186 0
165 188 0
166 188 0
165 186 0
163 185 0
168 190 0
167 189 0
162 184 0
157 179 0
163 185 0
163 186 0
164 187 0
163 186 0
162 185 0
156 178 0
162 184 0
158 181 0
157 180 0
162 185 0
165 187 0
162 185 0
162 184 0
165 187 0
157 179 0
161 184 0
159 182 0
164 186 0
167 188 0
163 185 0
166 189 0
158 180 0
155 177 0
157 181 0
163 185 0
158 181 0
165 187 0
154 177 0
166 188 0
158 181 0
158 181 0
160 183 0
160 183 0
169 192 0
152 175 0
163 186 0
156 179 0
161 185 0
170 192 0
158 182 0
160 183 0
166 188 0
152 174 0
155 177 0
158 181 0
162 186 0
160 183 0
159 181 0
158 181 0
163 185 0
156 178 0
160 182 0
155 178 0
158 180 0
153 176 0
160 182 0
161 184 0
150 173 0
156 179 0
156 177 0
153 176 0
156 179 0
165 187 0
157 179 0
158 181 0
152 174 0
157 179 0
152 174 0
154 175 0
157 181 0
151 173 0
149 172 0
159 183 0
152 174 0
156 179 0
155 176 0
158 179 0
159 182 0
150 174 0
154 177 0
158 181 0
155 178 0
154 176 0
156 178 0
152 175 0
161 184 0
157 180 0
160 182 0
159 181 0
149 171 0
148 171 0
148 171 0
147 169 0
155 177 0
156 178 0
147 170 0
155 178 0
157 180 0
150 172 0
157 179 0
158 181 0
150 173 0
152 174 0
158 181 0
152 175 0
145 165 0
154 176 0
152 174 0
153 174 0
150 171 0
156 178 0
151 174 0
151 174 0
153 176 0
154 176 0
151 173 0
151 172 0
153 175 0
151 173 0
154 176 0
146 168 0
148 169 0
150 172 0
153 174 0
154 176 0
150 172 0
145 167 0
153 175 0
148 171 0
156 178 0
158 179 0
148 170 0
156 177 0
149 172 0
150 172 0
152 173 0
150 173 0
152 174 0
145 165 0
144 165 0
142 163 0
147 168 0
153 175 0
146 168 0
158 179 0
147 168 0
146 167 0
151 172 0
144 166 0
145 167 0
153 174 0
149 172 0
153 175 0
151 174 0
145 165 0
152 174 0
152 174 0
152 173 0
150 171 0
141 162 0
145 165 0
153 172 0
147 169 0
144 165 0
149 170 0
151 173 0
141 163 0
143 163 0
144 164 0
143 163 0
153 175 0
138 158 0
149 170 0
144 166 0
147 166 0
145 165 0
148 169 0
147 168 0
149 170 0
153 172 0
157 177 0
158 179 0
136 156 0
149 170 0
147 166 0
150 170 0
147 168 0
148 170 0
159 180 0
151 172 0
148 167 0
146 166 0
152 173 0
144 163 0
144 165 0
159 177 0
147 167 0
147 167 0
148 169 0
152 172 0
149 170 0
148 168 0
155 176 0
151 171 0
145 163 0
149 167 0
149 168 0
154 172 0
148 167 0
149 169 0
140 159 0
151 170 0
149 168 0
144 165 0
146 166 0
149 168 0
149 167 0
147 166 0
149 167 0
154 170 0
149 168 0
155 174 0
153 171 0
146 164 0
156 178 0
148 166 0
148 168 0
158 178 0
145 163 0
149 166 0
147 165 0
149 169 0
144 164 0
151 169 0
142 157 0
153 172 0
145 163 0
155 172 0
149 167 0
155 173 0
156 176 0
149 170 0
153 171 0
149 167 0
153 171 0
150 168 0
150 167 0
149 165 0
149 166 0
158 175 0
149 165 0
143 157 0
150 167 0
156 173 0
148 164 0
151 169 0
151 165 0
149 164 0
139 154 0
144 160 0
153 172 0
150 168 0
148 164 0
153 167 0
147 162 0
151 168 0
154 170 0
148 162 0
146 162 0
157 173 0
154 169 0
143 160 0
152 167 0
154 173 0
156 173 0
152 167 0
147 163 0
155 171 0
148 165 0
153 171 0
155 172 0
145 161 0
148 164 0
149 165 0
149 163 0
149 162 0
146 160 0
141 154 0
152 167 0
151 167 0
152 167 0
148 161 0
155 170 0
153 167 0
158 171 0
152 163 0
146 160 0
154 167 0
149 161 0
151 164 0
149 164 0
151 165 0
150 163 0
149 161 0
147 160 0
150 163 0
153 166 0
155 169 0
153 166 0
153 166 0
151 161 0
148 162 0
148 159 0
155 166 0
159 175 0
156 168 0
152 166 0
147 158 0
155 168 0
154 165 0
150 163 0
151 162 0
153 166 0
153 164 0
155 168 0
149 163 0
149 161 0
150 161 0
152 164 0
153 164 0
152 163 0
153 165 0
151 162 0
150 161 0
157 170 0
153 165 0
160 172 0
150 160 0
158 170 0
164 187 0
167 189 0
169 192 0
165 188 0
169 192 0
167 189 0
169 191 0
168 190 0
170 191 0
169 191 0
171 193 0
169 191 0
171 193 0
167 190 0
165 187 0
167 189 0
164 187 0
163 186 0
167 190 0
160 183 0
165 187 0
163 186 0
166 188 0
164 186 0
167 190 0
163 186 0
164 186 0
168 189 0
169 191 0
168 190 0
164 187 0
166 188 0
165 187 0
163 184 0
163 186 0
165 187 0
164 187 0
165 187 0
168 190 0
162 184 0
167 190 0
168 190 0
164 186 0
168 190 0
167 190 0
171 194 0
168 191 0
164 187 0
164 187 0
161 182 0
161 184 0
164 186 0
163 186 0
161 183 0
165 187 0
163 186 0
167 189 0
161 183 0
163 186 0
165 188 0
164 186 0
163 185 0
165 188 0
163 187 0
168 191 0
166 188 0
163 186 0
157 180 0
161 183 0
164 186 0
158 180 0
163 186 0
159 182 0
165 187 0
163 186 0
167 190 0
156 179 0
165 187 0
164 186 0
168 191 0
161 184 0
162 184 0
164 186 0
158 180 0
163 185 0
154 177 0
164 187 0
156 179 0
160 183 0
160 182 0
158 180 0
164 187 0
155 178 0
166 188 0
162 185 0
160 183 0
155 178 0
157 180 0
159 182 0
157 180 0
159 182 0
160 183 0
155 178 0
159 181 0
161 183 0
155 177 0
155 178 0
164 188 0
161 183 0
164 187 0
159 181 0
155 177 0
161 182 0
161 184 0
155 178 0
155 176 0
155 177 0
162 185 0
155 178 0
157 179 0
159 182 0
159 181 0
149 170 0
156 179 0
161 184 0
156 179 0
153 175 0
153 176 0
156 179 0
160 182 0
157 180 0
162 184 0
158 180 0
161 183 0
156 178 0
158 181 0
154 177 0
156 178 0
151 174 0
162 185 0
156 179 0
153 175 0
158 180 0
151 173 0
163 186 0
151 174 0
156 179 0
155 176 0
163 185 0
153 175 0
158 180 0
150 173 0
160 183 0
157 180 0
158 181 0
156 179 0
156 179 0
152 175 0
157 179 0
153 175 0
152 175 0
152 174 0
151 173 0
148 171 0
149 172 0
148 170 0
158 180 0
151 173 0
155 177 0
152 175 0
151 173 0
153 175 0
154 177 0
155 178 0
146 167 0
161 184 0
147 170 0
157 180 0
155 177 0
156 178 0
148 169 0
151 173 0
150 172 0
151 173 0
159 181 0
151 172 0
149 170 0
144 165 0
146 167 0
155 176 0
155 176 0
144 165 0
151 174 0
147 168 0
148 170 0
151 172 0
150 170 0
146 166 0
141 163 0
150 171 0
155 176 0
148 171 0
141 162 0
147 169 0
148 169 0
139 159 0
145 166 0
143 163 0
154 177 0
143 164 0
150 172 0
152 172 0
147 168 0
151 172 0
147 168 0
149 170 0
149 172 0
146 166 0
145 168 0
151 173 0
150 172 0
146 168 0
151 172 0
144 165 0
151 171 0
151 171 0
147 167 0
153 175 0
146 166 0
146 167 0
153 173 0
150 171 0
148 168 0
149 171 0
149 169 0
154 175 0
143 164 0
142 164 0
148 169 0
151 171 0
148 169 0
144 165 0
139 160 0
152 172 0
151 172 0
147 166 0
148 169 0
154 175 0
147 167 0
152 171 0
147 166 0
152 172 0
144 163 0
150 170 0
142 163 0
146 167 0
151 171 0
153 172 0
145 165 0
143 164 0
154 174 0
153 174 0
150 168 0
147 169 0
147 168 0
152 172 0
154 174 0
150 169 0
148 167 0
147 168 0
146 165 0
142 160 0
153 172 0
149 169 0
150 171 0
147 166 0
150 171 0
147 167 0
150 170 0
147 166 0
147 166 0
153 170 0
149 169 0
152 172 0
151 170 0
158 175 0
152 171 0
151 169 0
157 177 0
151 169 0
155 175 0
152 171 0
150 170 0
146 167 0
153 173 0
143 160 0
141 161 0
148 169 0
151 171 0
144 161 0
148 164 0
158 177 0
148 164 0
144 162 0
150 169 0
154 171 0
152 170 0
148 165 0
141 157 0
154 172 0
152 169 0
148 165 0
149 167 0
146 165 0
143 161 0
152 167 0
151 167 0
152 170 0
153 172 0
158 175 0
152 169 0
146 161 0
151 167 0
150 168 0
148 166 0
149 164 0
155 171 0
155 173 0
150 167 0
151 168 0
148 164 0
145 160 0
151 167 0
151 166 0
156 171 0
153 166 0
151 166 0
154 170 0
151 168 0
148 162 0
142 155 0
153 167 0
152 165 0
142 157 0
150 163 0
144 157 0
155 171 0
154 170 0
148 161 0
152 168 0
142 156 0
155 169 0
154 166 0
150 163 0
148 162 0
148 162 0
147 162 0
153 165 0
158 172 0
150 163 0
153 165 0
152 165 0
154 168 0
155 170 0
148 161 0
154 167 0
146 159 0
151 167 0
155 166 0
157 170 0
157 171 0
151 163 0
151 167 0
153 165 0
147 159 0
159 174 0
152 165 0
153 164 0
155 169 0
155 169 0
156 168 0
157 170 0
151 164 0
147 157 0
152 164 0
156 168 0
156 169 0
151 164 0
152 164 0
158 171 0
151 159 0
152 165 0
156 168 0
152 163 0
154 167 0
155 167 0
160 170 0
157 171 0
152 163 0
157 169 0
174 196 0
171 192 0
164 187 0
173 195 0
167 190 0
163 185 0
168 190 0
169 191 0
162 185 0
166 188 0
164 186 0
163 185 0
165 188 0
163 184 0
165 187 0
167 189 0
161 183 0
170 192 0
169 192 0
164 186 0
164 186 0
168 191 0
164 186 0
167 190 0
163 185 0
167 189 0
168 189 0
169 191 0
165 187 0
164 187 0
162 185 0
168 189 0
167 189 0
168 191 0
159 182 0
168 191 0
162 184 0
166 187 0
163 185 0
165 188 0
167 189 0
166 188 0
167 189 0
167 189 0
167 190 0
163 185 0
163 185 0
163 186 0
168 190 0
166 189 0
167 189 0
163 185 0
163 186 0
164 186 0
162 184 0
161 184 0
166 188 0
167 189 0
163 186 0
160 183 0
162 184 0
163 186 0
164 187 0
165 188 0
162 184 0
159 181 0
160 183 0
157 180 0
155 178 0
162 185 0
160 183 0
159 182 0
162 185 0
160 183 0
160 183 0
159 181 0
166 189 0
162 185 0
161 185 0
169 192 0
164 187 0
162 184 0
162 184 0
163 186 0
158 181 0
164 187 0
156 180 0
158 180 0
156 178 0
163 185 0
160 182 0
159 182 0
159 182 0
161 183 0
161 185 0
165 187 0
163 185 0
160 182 0
163 186 0
162 185 0
159 183 0
159 182 0
156 180 0
158 181 0
154 177 0
163 185 0
162 186 0
156 179 0
161 184 0
160 183 0
161 185 0
162 185 0
156 179 0
162 185 0
160 183 0
160 183 0
158 181 0
150 173 0
156 179 0
161 183 0
157 181 0
155 178 0
160 184 0
161 186 0
161 183 0
156 178 0
163 185 0
156 179 0
155 177 0
148 170 0
149 172 0
155 177 0
158 181 0
157 179 0
152 174 0
155 178 0
153 176 0
154 176 0
152 174 0
155 178 0
147 170 0
150 173 0
154 177 0
153 176 0
156 179 0
153 174 0
144 167 0
160 183 0
155 178 0
155 178 0
158 181 0
155 176 0
153 175 0
154 177 0
154 175 0
147 170 0
154 177 0
153 175 0
146 168 0
159 181 0
155 177 0
153 175 0
154 176 0
148 171 0
150 173 0
152 175 0
151 173 0
150 172 0
147 170 0
148 169 0
148 169 0
152 174 0
147 171 0
154 176 0
149 171 0
146 167 0
149 171 0
150 172 0
150 173 0
151 172 0
158 180 0
144 166 0
149 170 0
153 175 0
154 174 0
159 181 0
151 172 0
145 166 0
152 172 0
144 166 0
146 166 0
147 167 0
144 166 0
155 177 0
146 167 0
155 176 0
147 168 0
144 166 0
153 176 0
155 177 0
152 174 0
149 171 0
147 169 0
146 166 0
149 172 0
152 173 0
151 172 0
155 176 0
149 172 0
148 170 0
145 167 0
146 167 0
154 174 0
147 167 0
148 169 0
145 167 0
144 166 0
151 172 0
144 165 0
155 176 0
149 170 0
153 175 0
151 171 0
142 161 0
157 179 0
149 171 0
153 173 0
146 167 0
144 166 0
140 161 0
151 173 0
151 171 0
149 170 0
143 163 0
158 179 0
147 169 0
154 175 0
150 172 0
148 169 0
141 163 0
153 173 0
157 178 0
153 174 0
152 172 0
151 172 0
145 167 0
152 173 0
151 171 0
149 171 0
149 170 0
151 173 0
145 165 0
151 171 0
154 174 0
152 171 0
147 167 0
149 170 0
146 166 0
153 173 0
141 160 0
159 180 0
155 176 0
144 165 0
144 165 0
154 174 0
154 174 0
147 167 0
145 165 0
142 163 0
143 162 0
153 175 0
148 168 0
155 174 0
153 172 0
146 164 0
137 156 0
147 167 0
148 167 0
148 168 0
151 171 0
153 174 0
148 168 0
149 168 0
155 175 0
155 175 0
152 170 0
146 164 0
149 169 0
148 168 0
132 151 0
150 168 0
155 172 0
153 173 0
146 166 0
154 172 0
146 164 0
148 165 0
153 169 0
146 163 0
151 169 0
142 158 0
151 171 0
154 173 0
141 158 0
155 174 0
156 175 0
150 168 0
145 162 0
153 171 0
155 174 0
153 170 0
159 176 0
151 169 0
155 174 0
152 169 0
149 167 0
151 168 0
152 170 0
149 166 0
151 170 0
152 171 0
145 161 0
152 167 0
153 170 0
158 176 0
152 169 0
154 173 0
148 164 0
142 157 0
147 163 0
146 162 0
146 164 0
154 171 0
149 164 0
148 165 0
154 171 0
150 163 0
156 175 0
141 155 0
147 163 0
149 163 0
151 167 0
148 162 0
154 168 0
149 165 0
146 161 0
155 168 0
153 167 0
156 170 0
156 171 0
155 169 0
150 166 0
145 157 0
148 162 0
157 171 0
151 163 0
152 168 0
157 171 0
156 171 0
150 161 0
155 166 0
151 165 0
152 164 0
145 156 0
154 168 0
151 164 0
143 154 0
158 172 0
150 162 0
152 166 0
149 164 0
151 164 0
154 167 0
154 169 0
157 172 0
158 171 0
153 165 0
154 169 0
149 159 0
145 156 0
149 159 0
155 168 0
155 168 0
155 168 0
150 163 0
153 166 0
159 173 0
149 164 0
153 165 0
152 165 0
156 169 0
157 170 0
159 173 0
154 166 0
151 164 0
158 172 0
155 164 0
156 166 0
156 166 0
148 161 0
171 193 0
167 190 0
167 190 0
172 194 0
167 188 0
170 192 0
164 185 0
165 188 0
174 195 0
169 191 0
168 190 0
162 185 0
172 194 0
167 189 0
169 191 0
167 189 0
165 187 0
162 185 0
163 185 0
170 192 0
161 183 0
171 193 0
166 188 0
162 184 0
165 188 0
166 188 0
167 190 0
157 180 0
163 185 0
171 193 0
164 187 0
167 189 0
167 190 0
169 191 0
168 190 0
163 185 0
162 184 0
166 188 0
164 186 0
167 191 0
171 193 0
166 188 0
165 188 0
161 185 0
166 189 0
163 185 0
160 182 0
164 187 0
165 188 0
166 188 0
165 187 0
165 188 0
165 187 0
165 189 0
167 190 0
170 193 0
163 185 0
159 182 0
164 187 0
165 187 0
162 184 0
166 189 0
161 184 0
161 184 0
165 187 0
161 184 0
163 185 0
164 187 0
161 185 0
164 187 0
163 185 0
162 183 0
163 185 0
161 184 0
162 185 0
160 183 0
165 188 0
162 185 0
160 183 0
156 178 0
162 184 0
160 183 0
164 187 0
157 181 0
155 178 0
162 185 0
159 182 0
159 182 0
165 189 0
162 185 0
161 184 0
160 183 0
161 184 0
160 183 0
161 184 0
162 185 0
162 185 0
161 184 0
159 182 0
159 183 0
158 180 0
156 179 0
163 185 0
165 189 0
154 176 0
158 180 0
157 180 0
160 183 0
157 179 0
154 177 0
161 184 0
155 179 0
160 183 0
151 173 0
151 174 0
162 185 0
155 177 0
161 184 0
162 183 0
154 178 0
156 178 0
161 185 0
160 183 0
158 180 0
162 184 0
159 181 0
154 175 0
152 175 0
155 179 0
149 170 0
152 174 0
155 177 0
156 178 0
163 185 0
153 176 0
157 181 0
151 174 0
156 179 0
156 178 0
148 170 0
152 175 0
153 177 0
152 174 0
154 176 0
155 178 0
154 176 0
156 177 0
161 184 0
158 181 0
156 178 0
149 171 0
149 171 0
147 169 0
152 175 0
160 183 0
157 179 0
153 175 0
157 179 0
145 167 0
159 182 0
149 171 0
152 174 0
152 174 0
149 171 0
150 174 0
153 175 0
156 178 0
150 172 0
149 171 0
156 178 0
156 179 0
158 180 0
144 167 0
153 175 0
146 168 0
151 174 0
150 173 0
151 173 0
150 173 0
156 179 0
143 165 0
151 173 0
150 172 0
145 168 0
152 173 0
150 172 0
146 169 0
153 174 0
150 172 0
139 161 0
152 173 0
148 168 0
153 175 0
146 168 0
147 168 0
143 165 0
150 171 0
147 168 0
153 174 0
152 174 0
155 176 0
156 177 0
156 179 0
146 166 0
152 173 0
144 165 0
149 171 0
153 174 0
136 158 0
143 165 0
154 174 0
147 169 0
146 166 0
158 179 0
151 172 0
147 168 0
150 172 0
149 171 0
148 169 0
151 173 0
141 161 0
153 175 0
155 176 0
150 171 0
141 161 0
150 172 0
149 171 0
147 168 0
155 177 0
149 170 0
142 163 0
151 170 0
143 163 0
151 172 0
151 172 0
150 170 0
154 175 0
149 170 0
148 169 0
153 173 0
144 164 0
148 170 0
148 170 0
142 162 0
143 162 0
146 166 0
149 167 0
146 168 0
150 170 0
155 176 0
152 173 0
147 166 0
142 163 0
146 166 0
147 167 0
148 169 0
152 173 0
143 163 0
156 175 0
149 171 0
150 170 0
150 170 0
154 175 0
152 174 0
158 178 0
150 170 0
151 171 0
150 170 0
155 174 0
150 170 0
148 168 0
151 173 0
151 171 0
147 167 0
151 170 0
148 167 0
147 168 0
153 173 0
152 172 0
147 168 0
151 170 0
153 174 0
151 172 0
148 166 0
143 162 0
153 172 0
154 174 0
146 164 0
154 174 0
146 166 0
151 168 0
152 172 0
155 174 0
152 171 0
146 164 0
144 161 0
154 174 0
149 169 0
151 169 0
156 174 0
143 161 0
152 171 0
151 170 0
145 163 0
158 177 0
156 173 0
152 171 0
151 167 0
145 161 0
150 167 0
149 168 0
147 163 0
153 172 0
151 169 0
146 164 0
145 163 0
152 171 0
149 165 0
146 163 0
146 163 0
153 170 0
148 165 0
149 165 0
150 166 0
147 163 0
153 170 0
144 159 0
158 176 0
151 166 0
149 165 0
153 167 0
146 163 0
146 162 0
156 172 0
145 163 0
148 162 0
154 170 0
147 162 0
150 165 0
150 165 0
152 169 0
149 165 0
157 173 0
152 167 0
150 163 0
151 165 0
142 153 0
150 167 0
150 165 0
153 166 0
153 167 0
150 165 0
153 165 0
153 167 0
147 161 0
140 153 0
149 164 0
147 163 0
156 171 0
153 167 0
150 164 0
158 171 0
158 174 0
155 168 0
154 168 0
150 162 0
146 160 0
155 168 0
150 165 0
150 161 0
152 166 0
154 168 0
156 170 0
153 166 0
153 167 0
146 160 0
156 170 0
157 172 0
153 165 0
158 172 0
151 164 0
160 174 0
152 167 0
153 165 0
156 169 0
144 156 0
155 169 0
156 169 0
153 167 0
154 165 0
152 165 0
156 168 0
153 166 0
152 165 0
145 157 0
153 163 0
149 162 0
158 171 0
163 178 0
154 168 0
172 194 0
167 189 0
166 188 0
173 195 0
169 190 0
170 193 0
165 187 0
170 192 0
158 180 0
169 192 0
168 190 0
169 190 0
169 191 0
168 191 0
166 188 0
168 190 0
168 189 0
163 185 0
169 191 0
167 190 0
166 188 0
165 188 0
162 184 0
166 189 0
161 184 0
169 192 0
164 186 0
173 195 0
166 188 0
162 185 0
164 186 0
171 192 0
167 189 0
164 186 0
166 189 0
163 186 0
164 186 0
165 187 0
167 189 0
169 191 0
172 195 0
164 186 0
163 184 0
168 191 0
163 187 0
168 189 0
166 189 0
168 191 0
158 180 0
169 191 0
171 193 0
163 185 0
165 186 0
169 192 0
160 182 0
161 184 0
158 180 0
162 186 0
161 184 0
164 186 0
168 191 0
167 189 0
166 188 0
166 188 0
166 188 0
160 183 0
164 186 0
164 186 0
162 185 0
163 185 0
161 184 0
158 182 0
166 189 0
164 187 0
157 179 0
161 185 0
153 176 0
165 187 0
158 181 0
159 182 0
162 185 0
166 188 0
167 190 0
159 182 0
163 186 0
154 176 0
160 183 0
163 186 0
156 179 0
162 185 0
153 174 0
160 183 0
164 188 0
163 185 0
162 186 0
164 186 0
157 180 0
158 181 0
161 184 0
159 181 0
159 181 0
158 181 0
161 185 0
157 179 0
155 178 0
154 177 0
156 180 0
162 185 0
164 187 0
160 183 0
164 188 0
158 181 0
160 183 0
159 182 0
157 180 0
155 178 0
161 183 0
154 177 0
157 181 0
154 178 0
156 179 0
153 175 0
157 180 0
158 180 0
156 176 0
158 180 0
151 173 0
151 173 0
158 181 0
162 185 0
152 174 0
157 180 0
158 180 0
143 164 0
155 177 0
154 176 0
153 175 0
159 182 0
152 175 0
161 184 0
154 176 0
156 178 0
159 181 0
159 181 0
153 175 0
155 178 0
157 180 0
147 169 0
153 175 0
147 170 0
156 177 0
155 178 0
154 175 0
154 176 0
158 181 0
151 174 0
155 178 0
151 174 0
150 173 0
151 173 0
157 180 0
152 174 0
148 170 0
156 178 0
150 172 0
160 183 0
149 171 0
152 174 0
152 174 0
153 176 0
151 173 0
153 174 0
154 174 0
150 173 0
156 178 0
145 167 0
156 177 0
157 178 0
151 175 0
150 174 0
153 176 0
152 174 0
150 171 0
153 176 0
148 169 0
147 169 0
149 171 0
154 176 0
145 166 0
154 176 0
140 162 0
151 172 0
149 171 0
148 170 0
152 175 0
147 170 0
146 169 0
150 173 0
145 166 0
151 172 0
152 174 0
147 170 0
153 174 0
150 172 0
150 172 0
153 175 0
152 173 0
149 170 0
147 168 0
151 172 0
147 169 0
145 166 0
146 167 0
153 173 0
148 169 0
145 167 0
153 173 0
150 171 0
149 169 0
149 171 0
151 172 0
143 164 0
150 170 0
147 169 0
153 174 0
148 170 0
151 174 0
146 166 0
144 163 0
140 160 0
152 173 0
155 177 0
158 179 0
152 174 0
147 167 0
143 164 0
145 165 0
154 174 0
154 175 0
149 170 0
150 171 0
146 166 0
149 171 0
155 176 0
147 168 0
157 177 0
143 164 0
151 171 0
149 172 0
152 171 0
140 160 0
152 173 0
150 171 0
153 174 0
150 170 0
146 167 0
141 160 0
150 171 0
148 168 0
148 166 0
148 168 0
145 166 0
151 170 0
152 171 0
150 170 0
145 166 0
150 170 0
146 166 0
152 171 0
157 178 0
150 168 0
152 170 0
151 171 0
154 176 0
144 165 0
150 171 0
150 170 0
156 177 0
152 173 0
151 171 0
159 179 0
146 162 0
149 167 0
153 175 0
155 175 0
159 180 0
150 171 0
156 175 0
152 172 0
155 174 0
153 173 0
146 165 0
150 170 0
151 169 0
155 173 0
156 176 0
148 166 0
149 167 0
154 174 0
149 168 0
157 175 0
150 168 0
139 156 0
153 173 0
152 171 0
150 167 0
151 171 0
147 166 0
147 164 0
146 164 0
148 164 0
150 168 0
144 160 0
153 170 0
150 168 0
142 156 0
150 167 0
151 170 0
148 165 0
149 167 0
152 171 0
151 168 0
148 165 0
147 165 0
157 176 0
146 163 0
147 163 0
157 175 0
153 169 0
158 176 0
153 171 0
153 170 0
145 160 0
149 164 0
151 166 0
158 176 0
146 163 0
153 168 0
147 160 0
153 166 0
149 164 0
147 162 0
153 170 0
151 166 0
147 162 0
156 172 0
142 155 0
148 165 0
155 169 0
148 164 0
152 167 0
152 167 0
150 160 0
156 172 0
145 160 0
154 167 0
156 171 0
148 162 0
144 159 0
155 171 0
156 172 0
156 172 0
158 172 0
158 173 0
150 161 0
156 170 0
154 169 0
153 165 0
157 171 0
160 173 0
156 170 0
153 167 0
159 174 0
151 165 0
148 162 0
152 164 0
155 170 0
150 164 0
148 161 0
156 167 0
155 168 0
158 172 0
154 168 0
151 164 0
157 170 0
152 165 0
147 161 0
155 167 0
155 166 0
156 169 0
153 165 0
154 165 0
152 167 0
153 169 0
147 157 0
156 170 0
151 164 0
150 163 0
152 162 0
160 174 0
167 190 0
168 190 0
168 189 0
169 190 0
167 190 0
167 189 0
166 188 0
168 190 0
167 190 0
165 187 0
169 191 0
167 189 0
168 191 0
163 185 0
166 188 0
164 186 0
166 188 0
166 187 0
169 190 0
170 192 0
164 187 0
163 185 0
159 182 0
166 188 0
168 190 0
163 187 0
164 186 0
164 187 0
164 187 0
164 186 0
166 188 0
163 186 0
166 189 0
163 186 0
164 187 0
164 186 0
165 188 0
164 186 0
164 186 0
166 189 0
166 189 0
162 186 0
168 189 0
160 182 0
166 189 0
160 182 0
166 188 0
170 191 0
162 185 0
162 186 0
168 189 0
163 186 0
167 190 0
161 183 0
162 185 0
166 187 0
164 186 0
165 188 0
164 186 0
164 186 0
159 182 0
164 186 0
158 181 0
163 186 0
164 186 0
164 187 0
161 185 0
165 188 0
164 187 0
164 186 0
163 186 0
161 183 0
163 186 0
156 179 0
163 186 0
161 184 0
161 185 0
163 185 0
156 178 0
157 181 0
162 185 0
163 186 0
158 181 0
162 185 0
163 185 0
165 187 0
160 183 0
163 185 0
162 185 0
162 185 0
161 183 0
156 177 0
160 182 0
158 180 0
158 181 0
158 181 0
157 179 0
162 185 0
164 187 0
157 181 0
154 177 0
159 181 0
158 181 0
155 179 0
160 183 0
161 183 0
159 181 0
160 182 0
163 186 0
163 185 0
158 181 0
160 182 0
159 182 0
157 180 0
159 182 0
151 173 0
160 183 0
163 184 0
157 180 0
159 182 0
154 177 0
160 181 0
160 184 0
157 179 0
163 185 0
155 178 0
161 184 0
162 184 0
157 179 0
159 182 0
156 178 0
154 177 0
160 181 0
155 178 0
156 179 0
153 177 0
163 185 0
154 177 0
154 177 0
155 178 0
155 178 0
154 178 0
160 182 0
152 175 0
158 179 0
159 181 0
158 181 0
153 175 0
152 176 0
150 173 0
154 176 0
146 168 0
156 178 0
162 185 0
154 176 0
156 179 0
150 173 0
152 175 0
148 170 0
153 175 0
154 176 0
157 179 0
157 180 0
153 176 0
145 168 0
156 179 0
155 176 0
153 175 0
153 174 0
157 179 0
149 170 0
151 173 0
154 177 0
154 176 0
148 170 0
154 176 0
156 178 0
154 177 0
153 176 0
156 179 0
152 175 0
154 176 0
152 174 0
146 168 0
150 172 0
151 173 0
149 170 0
145 167 0
151 173 0
149 172 0
154 175 0
154 175 0
160 182 0
148 170 0
140 162 0
156 179 0
147 169 0
149 171 0
147 169 0
149 170 0
144 166 0
151 171 0
142 165 0
150 170 0
155 177 0
156 178 0
144 165 0
152 174 0
143 166 0
142 162 0
150 172 0
153 175 0
153 175 0
155 178 0
152 173 0
146 168 0
156 177 0
148 171 0
145 166 0
154 175 0
145 166 0
144 167 0
147 167 0
142 164 0
145 168 0
150 172 0
153 175 0
147 168 0
155 176 0
144 166 0
147 169 0
140 160 0
152 173 0
152 172 0
154 175 0
151 172 0
154 174 0
160 182 0
156 176 0
147 168 0
154 174 0
152 174 0
148 169 0
149 170 0
152 171 0
145 164 0
147 169 0
148 169 0
159 181 0
148 168 0
150 170 0
147 168 0
148 167 0
148 168 0
149 168 0
150 170 0
155 175 0
140 159 0
155 175 0
156 176 0
148 168 0
150 169 0
151 174 0
155 175 0
154 174 0
154 174 0
152 174 0
155 176 0
146 164 0
144 164 0
155 174 0
146 166 0
152 173 0
149 169 0
152 172 0
150 169 0
155 176 0
146 166 0
147 166 0
148 168 0
151 171 0
149 169 0
147 165 0
147 166 0
156 177 0
150 170 0
154 174 0
150 168 0
154 174 0
149 166 0
152 171 0
147 166 0
150 168 0
151 171 0
154 174 0
151 169 0
145 163 0
156 174 0
149 168 0
157 177 0
147 166 0
156 176 0
145 162 0
151 170 0
151 169 0
156 177 0
151 170 0
156 175 0
150 166 0
149 168 0
153 172 0
151 168 0
153 172 0
155 171 0
152 172 0
155 172 0
147 163 0
153 170 0
143 159 0
152 168 0
150 165 0
146 163 0
145 160 0
149 165 0
147 163 0
153 171 0
154 173 0
150 168 0
146 162 0
147 164 0
153 170 0
157 176 0
156 174 0
150 166 0
160 178 0
152 170 0
152 166 0
155 169 0
151 167 0
154 169 0
147 162 0
152 166 0
147 164 0
148 163 0
149 166 0
143 158 0
152 167 0
151 170 0
145 161 0
151 165 0
157 174 0
149 164 0
151 166 0
152 168 0
144 159 0
154 169 0
153 170 0
152 167 0
154 168 0
151 164 0
148 164 0
147 160 0
146 158 0
150 164 0
156 169 0
152 165 0
155 169 0
151 167 0
152 167 0
157 172 0
153 165 0
152 167 0
148 162 0
152 167 0
148 161 0
152 167 0
157 172 0
153 168 0
146 158 0
152 166 0
154 167 0
153 168 0
160 173 0
156 170 0
158 169 0
154 168 0
148 158 0
155 168 0
147 160 0
161 174 0
155 169 0
153 167 0
161 175 0
153 168 0
152 162 0
163 179 0
157 170 0
155 167 0
158 173 0
156 168 0
165 187 0
170 192 0
168 191 0
171 193 0
167 189 0
163 186 0
170 192 0
168 192 0
167 189 0
167 189 0
168 190 0
170 193 0
169 191 0
162 184 0
164 187 0
166 189 0
166 188 0
172 194 0
166 188 0
164 187 0
163 186 0
167 188 0
167 189 0
167 190 0
169 193 0
170 192 0
167 189 0
166 189 0
164 186 0
169 190 0
167 189 0
168 190 0
166 188 0
161 184 0
162 184 0
163 186 0
162 185 0
173 196 0
163 186 0
167 189 0
165 187 0
162 185 0
162 184 0
174 196 0
168 192 0
167 191 0
166 188 0
159 182 0
166 188 0
167 188 0
163 184 0
161 183 0
163 184 0
159 181 0
164 187 0
163 185 0
161 184 0
160 183 0
166 189 0
163 185 0
162 184 0
161 184 0
158 181 0
161 184 0
164 186 0
160 183 0
168 191 0
167 190 0
160 183 0
156 179 0
159 183 0
161 185 0
166 188 0
154 178 0
159 182 0
158 180 0
161 184 0
163 186 0
157 180 0
162 184 0
155 178 0
158 181 0
160 183 0
162 185 0
166 188 0
162 184 0
160 183 0
158 181 0
165 188 0
161 184 0
160 183 0
159 182 0
165 188 0
156 179 0
163 186 0
163 186 0
162 184 0
158 181 0
162 185 0
157 180 0
164 188 0
157 180 0
157 181 0
158 180 0
160 181 0
158 181 0
155 178 0
162 185 0
160 183 0
157 180 0
161 184 0
158 182 0
160 182 0
156 179 0
159 182 0
156 180 0
156 179 0
161 183 0
161 184 0
158 181 0
163 186 0
157 179 0
159 182 0
161 183 0
160 184 0
152 175 0
156 178 0
157 181 0
156 179 0
151 172 0
158 180 0
152 175 0
150 172 0
155 177 0
158 183 0
152 175 0
158 181 0
153 174 0
151 174 0
151 173 0
153 175 0
153 175 0
157 180 0
155 178 0
151 175 0
154 177 0
151 174 0
148 171 0
149 170 0
157 178 0
152 175 0
150 172 0
153 176 0
146 168 0
156 178 0
153 175 0
158 180 0
154 176 0
152 175 0
157 180 0
151 174 0
152 175 0
152 173 0
146 169 0
153 176 0
149 171 0
149 171 0
156 178 0
152 174 0
153 174 0
157 179 0
152 173 0
148 169 0
148 169 0
151 173 0
160 183 0
154 176 0
153 175 0
154 177 0
155 178 0
152 174 0
148 170 0
146 167 0
148 170 0
154 174 0
151 174 0
146 168 0
150 172 0
149 170 0
155 175 0
145 167 0
152 174 0
149 171 0
149 170 0
154 176 0
155 178 0
158 180 0
147 169 0
145 167 0
154 176 0
152 173 0
153 175 0
148 171 0
149 172 0
146 167 0
146 168 0
144 165 0
144 166 0
142 164 0
153 174 0
151 173 0
150 172 0
148 170 0
149 169 0
153 175 0
149 170 0
150 170 0
151 172 0
144 165 0
154 175 0
144 164 0
144 165 0
147 169 0
153 174 0
152 173 0
154 176 0
154 175 0
154 174 0
159 181 0
148 169 0
152 173 0
153 175 0
145 166 0
146 167 0
146 167 0
155 176 0
150 171 0
156 177 0
146 166 0
152 172 0
153 173 0
152 173 0
146 166 0
151 172 0
150 170 0
133 153 0
155 175 0
149 170 0
149 169 0
151 172 0
147 168 0
158 177 0
151 172 0
155 175 0
148 169 0
154 174 0
151 171 0
148 168 0
150 170 0
149 170 0
152 172 0
147 167 0
153 173 0
152 172 0
151 170 0
152 171 0
155 177 0
150 168 0
155 175 0
153 173 0
154 175 0
150 171 0
150 170 0
153 173 0
149 169 0
151 172 0
149 167 0
149 168 0
155 175 0
150 170 0
146 165 0
148 166 0
154 173 0
152 173 0
149 167 0
150 170 0
151 171 0
152 172 0
147 165 0
153 171 0
147 166 0
151 169 0
157 176 0
146 162 0
149 168 0
149 168 0
150 170 0
156 175 0
150 168 0
154 173 0
146 164 0
145 162 0
153 172 0
148 166 0
156 175 0
147 166 0
156 174 0
153 172 0
155 173 0
151 168 0
150 167 0
146 164 0
159 176 0
153 172 0
154 172 0
149 165 0
154 172 0
154 173 0
145 162 0
152 170 0
144 161 0
151 169 0
150 168 0
157 176 0
151 170 0
146 164 0
150 165 0
156 172 0
150 167 0
159 177 0
154 171 0
158 174 0
152 168 0
147 165 0
155 173 0
150 168 0
154 171 0
152 169 0
150 167 0
152 169 0
154 170 0
151 165 0
150 168 0
150 167 0
145 163 0
155 172 0
153 167 0
147 162 0
154 169 0
157 173 0
156 170 0
151 168 0
153 167 0
159 177 0
143 158 0
151 167 0
153 168 0
147 161 0
151 167 0
149 163 0
160 175 0
154 170 0
154 168 0
150 163 0
145 159 0
154 169 0
149 164 0
152 164 0
152 166 0
153 169 0
151 164 0
149 163 0
159 174 0
154 167 0
154 171 0
160 175 0
145 159 0
157 172 0
152 167 0
152 167 0
156 171 0
151 166 0
151 165 0
161 178 0
146 159 0
153 166 0
148 164 0
158 172 0
150 164 0
147 158 0
150 164 0
157 172 0
153 167 0
154 167 0
151 167 0
153 165 0
155 169 0
151 163 0
155 170 0
155 168 0
169 191 0
165 187 0
171 194 0
167 190 0
169 191 0
168 190 0
172 193 0
165 188 0
167 189 0
166 188 0
162 184 0
170 193 0
168 190 0
172 195 0
167 190 0
170 192 0
167 189 0
168 191 0
166 188 0
166 190 0
165 188 0
169 191 0
161 184 0
170 192 0
168 190 0
162 185 0
166 189 0
165 187 0
168 191 0
168 191 0
162 184 0
161 184 0
161 183 0
169 192 0
169 191 0
167 191 0
164 186 0
164 187 0
165 187 0
168 190 0
167 190 0
168 190 0
165 188 0
165 189 0
164 187 0
164 187 0
164 186 0
163 186 0
166 188 0
165 188 0
163 185 0
165 188 0
162 185 0
156 180 0
162 185 0
163 186 0
163 185 0
167 190 0
160 183 0
167 189 0
161 183 0
162 184 0
165 188 0
164 187 0
157 181 0
164 188 0
163 185 0
156 178 0
167 189 0
166 190 0
159 180 0
162 185 0
165 188 0
160 183 0
161 184 0
164 188 0
160 183 0
162 186 0
165 188 0
160 183 0
163 185 0
158 181 0
160 183 0
162 185 0
160 182 0
163 186 0
162 186 0
162 184 0
163 185 0
156 178 0
162 186 0
161 184 0
164 188 0
158 180 0
157 179 0
161 184 0
161 184 0
160 183 0
162 185 0
157 179 0
158 181 0
155 177 0
154 177 0
158 181 0
158 181 0
159 181 0
164 187 0
163 186 0
156 179 0
162 184 0
156 178 0
151 174 0
152 175 0
162 185 0
161 183 0
160 184 0
163 186 0
162 185 0
159 182 0
160 181 0
162 184 0
157 181 0
162 186 0
155 178 0
157 179 0
149 171 0
155 179 0
162 185 0
162 185 0
159 181 0
145 168 0
150 173 0
160 182 0
148 170 0
153 175 0
163 187 0
155 177 0
157 180 0
153 175 0
156 178 0
157 180 0
152 175 0
156 179 0
157 179 0
153 175 0
163 184 0
148 171 0
153 176 0
152 175 0
149 172 0
151 174 0
151 174 0
149 170 0
157 180 0
153 176 0
151 173 0
155 177 0
162 185 0
153 175 0
154 177 0
149 171 0
157 179 0
160 182 0
159 182 0
154 176 0
157 178 0
147 169 0
149 170 0
155 177 0
152 175 0
153 176 0
155 178 0
154 177 0
153 174 0
154 176 0
149 172 0
157 180 0
151 173 0
152 174 0
149 171 0
157 179 0
151 174 0
156 178 0
158 182 0
152 173 0
157 179 0
152 174 0
148 169 0
154 175 0
157 179 0
150 171 0
154 176 0
154 176 0
154 176 0
149 170 0
154 176 0
154 176 0
156 178 0
152 172 0
153 175 0
143 163 0
152 175 0
153 174 0
153 174 0
147 170 0
150 172 0
148 169 0
154 176 0
154 175 0
150 172 0
147 169 0
151 173 0
147 169 0
157 177 0
151 174 0
155 177 0
144 165 0
151 171 0
150 172 0
156 178 0
156 179 0
149 171 0
149 170 0
151 174 0
152 172 0
149 170 0
148 170 0
152 171 0
155 175 0
150 171 0
151 172 0
152 175 0
154 175 0
144 167 0
152 173 0
142 162 0
158 181 0
152 174 0
147 169 0
150 172 0
151 171 0
150 170 0
156 176 0
154 175 0
156 177 0
147 168 0
149 170 0
151 172 0
153 173 0
155 175 0
150 170 0
152 171 0
154 174 0
155 175 0
152 173 0
153 174 0
154 176 0
155 176 0
149 169 0
147 168 0
156 177 0
149 169 0
152 172 0
156 177 0
152 172 0
146 167 0
143 164 0
151 172 0
148 166 0
152 172 0
153 173 0
149 169 0
153 174 0
148 168 0
150 171 0
148 168 0
149 168 0
156 174 0
151 172 0
150 169 0
148 168 0
154 176 0
155 175 0
144 162 0
146 166 0
147 167 0
148 167 0
153 174 0
149 169 0
144 165 0
156 175 0
152 173 0
144 163 0
153 172 0
156 174 0
147 166 0
154 173 0
151 171 0
155 175 0
145 166 0
155 173 0
152 171 0
146 163 0
150 168 0
153 172 0
152 171 0
148 166 0
154 175 0
151 171 0
153 170 0
153 170 0
152 170 0
146 164 0
149 167 0
149 167 0
145 162 0
152 171 0
144 160 0
148 167 0
152 169 0
155 174 0
148 162 0
161 179 0
151 168 0
156 177 0
148 166 0
153 169 0
156 172 0
150 166 0
150 166 0
146 162 0
150 167 0
148 163 0
148 166 0
154 172 0
160 177 0
153 171 0
156 174 0
146 163 0
157 175 0
156 174 0
143 158 0
155 172 0
152 169 0
149 165 0
151 165 0
156 174 0
150 165 0
146 162 0
156 173 0
155 171 0
155 173 0
144 160 0
156 171 0
154 169 0
154 168 0
156 172 0
157 170 0
138 153 0
151 166 0
154 168 0
151 167 0
149 163 0
153 167 0
152 166 0
150 164 0
149 163 0
153 169 0
156 172 0
151 165 0
145 161 0
151 167 0
161 174 0
159 174 0
146 160 0
149 163 0
148 163 0
148 162 0
156 170 0
154 168 0
153 168 0
153 166 0
143 157 0
152 168 0
150 164 0
156 171 0
152 165 0
153 166 0
157 172 0
157 172 0
157 169 0
158 172 0
154 166 0
150 163 0
159 172 0
158 173 0
153 169 0
156 169 0
159 175 0
149 163 0
167 189 0
165 187 0
166 189 0
170 192 0
171 194 0
159 181 0
165 187 0
170 193 0
169 191 0
163 187 0
168 190 0
167 188 0
167 189 0
168 190 0
165 188 0
159 182 0
161 184 0
166 189 0
158 181 0
164 187 0
161 184 0
165 187 0
166 187 0
167 191 0
163 186 0
160 184 0
166 188 0
166 189 0
169 191 0
166 188 0
169 191 0
166 189 0
166 188 0
165 188 0
170 193 0
162 185 0
162 184 0
170 192 0
163 186 0
169 192 0
166 189 0
163 185 0
163 186 0
161 183 0
160 183 0
159 182 0
169 192 0
165 187 0
166 189 0
161 184 0
162 186 0
163 185 0
162 185 0
167 190 0
167 190 0
156 178 0
161 184 0
167 189 0
166 189 0
168 191 0
162 184 0
162 185 0
160 182 0
164 188 0
166 188 0
159 182 0
157 179 0
161 183 0
163 185 0
162 185 0
161 183 0
162 184 0
160 182 0
160 184 0
168 191 0
159 182 0
163 187 0
158 180 0
161 183 0
162 184 0
160 183 0
160 183 0
158 181 0
162 186 0
163 184 0
166 189 0
161 185 0
160 182 0
158 181 0
160 183 0
167 190 0
160 184 0
159 182 0
150 172 0
160 183 0
164 187 0
160 184 0
161 184 0
166 189 0
162 184 0
160 182 0
159 182 0
157 180 0
161 183 0
161 183 0
158 181 0
161 185 0
159 182 0
158 181 0
155 179 0
159 181 0
163 185 0
165 188 0
156 179 0
158 180 0
160 182 0
159 182 0
156 179 0
156 177 0
160 183 0
162 186 0
158 180 0
157 180 0
154 176 0
159 182 0
156 178 0
162 185 0
154 177 0
156 179 0
156 178 0
157 180 0
156 178 0
151 174 0
161 183 0
157 181 0
162 184 0
147 169 0
153 176 0
150 173 0
149 171 0
152 174 0
160 181 0
155 178 0
154 176 0
156 178 0
152 175 0
162 184 0
157 179 0
156 178 0
154 177 0
153 175 0
157 179 0
156 178 0
155 178 0
153 177 0
154 178 0
156 178 0
151 172 0
146 169 0
149 172 0
150 171 0
156 178 0
155 178 0
155 178 0
151 174 0
154 177 0
161 184 0
156 178 0
152 173 0
154 176 0
156 177 0
156 179 0
158 180 0
147 169 0
157 179 0
158 180 0
152 175 0
154 177 0
154 174 0
144 166 0
149 171 0
155 177 0
151 173 0
161 183 0
150 173 0
159 180 0
155 176 0
147 168 0
150 173 0
152 175 0
148 170 0
154 177 0
152 173 0
157 180 0
148 169 0
158 180 0
143 165 0
153 174 0
144 167 0
151 174 0
151 173 0
159 180 0
147 168 0
152 172 0
146 168 0
154 176 0
156 177 0
151 174 0
147 167 0
149 171 0
160 181 0
153 175 0
151 172 0
148 170 0
155 178 0
145 166 0
153 173 0
155 177 0
152 174 0
151 173 0
151 173 0
152 171 0
152 172 0
151 173 0
146 167 0
152 174 0
158 179 0
149 170 0
147 168 0
151 172 0
141 163 0
149 171 0
153 174 0
155 174 0
147 169 0
148 169 0
153 174 0
146 167 0
149 170 0
161 181 0
146 169 0
153 174 0
148 170 0
153 174 0
150 172 0
153 175 0
148 169 0
155 175 0
156 177 0
152 173 0
147 168 0
149 170 0
151 171 0
149 170 0
160 180 0
150 170 0
145 165 0
153 174 0
156 176 0
153 174 0
142 161 0
156 177 0
155 174 0
151 172 0
155 175 0
152 171 0
152 172 0
151 170 0
154 175 0
153 173 0
145 167 0
153 174 0
151 171 0
156 174 0
149 169 0
153 173 0
154 176 0
142 161 0
156 178 0
152 173 0
150 169 0
157 177 0
154 173 0
151 171 0
152 171 0
153 173 0
146 164 0
151 171 0
147 166 0
151 168 0
150 169 0
147 167 0
151 171 0
150 169 0
157 178 0
154 172 0
147 165 0
156 175 0
156 175 0
154 173 0
153 173 0
153 173 0
155 173 0
148 167 0
145 164 0
159 178 0
153 174 0
156 174 0
154 173 0
146 165 0
152 169 0
154 174 0
152 170 0
153 170 0
153 170 0
155 173 0
156 173 0
153 172 0
153 171 0
153 171 0
145 164 0
151 167 0
151 169 0
159 179 0
147 164 0
154 174 0
147 163 0
155 172 0
154 173 0
158 177 0
147 165 0
157 175 0
150 167 0
149 168 0
157 173 0
154 171 0
157 175 0
149 165 0
152 170 0
156 173 0
148 164 0
145 161 0
154 169 0
152 168 0
158 177 0
150 166 0
149 165 0
154 171 0
154 169 0
146 162 0
151 169 0
154 168 0
151 167 0
155 169 0
152 169 0
148 163 0
152 166 0
150 166 0
152 169 0
155 171 0
154 169 0
149 161 0
153 169 0
148 162 0
153 169 0
143 157 0
154 169 0
155 171 0
155 170 0
151 164 0
153 167 0
154 169 0
154 167 0
161 176 0
154 172 0
156 172 0
155 167 0
153 169 0
157 173 0
160 175 0
154 169 0
159 172 0
150 163 0
150 163 0
159 172 0
152 169 0
156 169 0
150 162 0
155 168 0
153 167 0
155 169 0
162 175 0
154 168 0
164 182 0
158 172 0
152 165 0
157 170 0
153 166 0
152 166 0
157 169 0
168 190 0
173 195 0
168 190 0
166 188 0
169 192 0
166 189 0
168 191 0
164 186 0
168 190 0
167 189 0
167 190 0
172 195 0
165 187 0
165 187 0
169 191 0
165 187 0
170 193 0
161 183 0
165 186 0
164 186 0
162 185 0
168 190 0
167 191 0
166 189 0
164 187 0
164 187 0
166 188 0
168 191 0
166 188 0
165 188 0
160 184 0
164 187 0
168 191 0
163 185 0
169 192 0
165 187 0
164 187 0
164 187 0
166 189 0
164 187 0
165 188 0
164 187 0
161 184 0
163 186 0
169 193 0
159 181 0
169 192 0
159 181 0
170 192 0
167 190 0
161 184 0
165 188 0
159 182 0
161 183 0
157 180 0
166 188 0
166 188 0
166 189 0
163 186 0
166 188 0
166 189 0
164 187 0
161 183 0
162 185 0
165 188 0
165 188 0
162 184 0
162 185 0
167 189 0
161 184 0
158 182 0
165 187 0
160 183 0
164 187 0
159 180 0
162 185 0
167 190 0
159 182 0
158 181 0
161 184 0
163 186 0
162 185 0
157 180 0
164 188 0
158 181 0
152 175 0
161 184 0
157 180 0
162 184 0
166 189 0
158 181 0
158 182 0
162 184 0
160 182 0
161 183 0
162 186 0
155 178 0
159 182 0
162 186 0
159 182 0
161 184 0
155 177 0
159 181 0
164 186 0
164 188 0
158 182 0
160 183 0
163 186 0
162 184 0
162 185 0
164 186 0
158 181 0
161 183 0
161 184 0
158 182 0
161 184 0
159 181 0
154 177 0
160 183 0
158 181 0
160 183 0
155 178 0
148 170 0
158 182 0
160 182 0
162 184 0
162 185 0
160 182 0
157 179 0
156 178 0
151 174 0
161 183 0
160 182 0
158 180 0
158 180 0
155 179 0
153 175 0
153 176 0
156 177 0
161 184 0
159 182 0
160 183 0
161 184 0
163 186 0
160 183 0
165 189 0
153 174 0
161 183 0
147 170 0
158 181 0
158 181 0
156 178 0
156 179 0
156 179 0
158 179 0
148 170 0
154 175 0
153 176 0
156 178 0
152 175 0
155 178 0
142 164 0
152 174 0
155 177 0
150 173 0
156 178 0
155 178 0
155 178 0
156 179 0
158 181 0
148 171 0
156 178 0
149 171 0
146 167 0
158 180 0
155 176 0
156 179 0
150 172 0
151 172 0
151 173 0
148 169 0
148 169 0
150 172 0
154 176 0
154 177 0
154 176 0
157 179 0
154 176 0
149 171 0
154 176 0
157 178 0
152 175 0
153 175 0
147 169 0
152 174 0
150 172 0
151 171 0
156 178 0
151 174 0
153 174 0
150 172 0
154 177 0
157 180 0
149 171 0
148 168 0
156 178 0
156 177 0
145 168 0
152 173 0
150 172 0
155 177 0
148 171 0
153 176 0
148 171 0
148 170 0
156 179 0
154 176 0
148 169 0
152 174 0
152 174 0
158 180 0
158 179 0
154 176 0
147 169 0
153 176 0
160 183 0
149 170 0
149 170 0
157 178 0
151 173 0
149 168 0
152 173 0
143 163 0
153 174 0
152 174 0
153 174 0
149 169 0
146 168 0
151 173 0
151 172 0
157 179 0
148 171 0
153 174 0
153 173 0
155 175 0
146 167 0
158 179 0
152 173 0
151 172 0
149 170 0
149 170 0
144 164 0
144 165 0
150 170 0
147 168 0
154 175 0
157 177 0
158 178 0
153 174 0
151 172 0
150 169 0
150 171 0
150 170 0
158 179 0
149 170 0
153 174 0
148 168 0
157 178 0
152 171 0
159 179 0
159 178 0
156 176 0
149 168 0
151 170 0
151 174 0
149 170 0
147 166 0
154 174 0
152 172 0
148 168 0
152 173 0
153 173 0
152 173 0
156 174 0
152 172 0
153 173 0
148 166 0
149 168 0
150 169 0
154 174 0
157 175 0
150 168 0
156 175 0
158 177 0
147 166 0
149 168 0
152 171 0
151 172 0
151 169 0
159 179 0
152 171 0
147 165 0
147 166 0
157 178 0
155 175 0
145 163 0
145 163 0
146 167 0
152 169 0
158 177 0
151 169 0
151 170 0
149 167 0
156 171 0
152 171 0
152 169 0
150 168 0
154 172 0
154 172 0
151 169 0
149 167 0
162 182 0
157 175 0
152 171 0
148 164 0
150 168 0
156 172 0
150 168 0
148 165 0
146 164 0
149 166 0
150 166 0
157 175 0
149 167 0
152 168 0
158 177 0
150 165 0
161 180 0
153 171 0
147 165 0
151 168 0
153 170 0
150 167 0
156 172 0
150 167 0
151 168 0
151 167 0
150 167 0
149 165 0
144 160 0
153 168 0
152 169 0
155 171 0
150 164 0
151 167 0
149 166 0
147 162 0
150 164 0
157 174 0
149 165 0
156 174 0
152 169 0
145 160 0
154 169 0
156 175 0
151 166 0
147 166 0
153 169 0
152 166 0
155 171 0
159 175 0
148 162 0
155 172 0
155 167 0
150 162 0
147 161 0
154 168 0
154 168 0
157 173 0
160 175 0
145 158 0
153 168 0
153 166 0
152 168 0
154 168 0
153 168 0
152 167 0
155 170 0
155 171 0
152 166 0
154 167 0
154 166 0
154 166 0
157 170 0
155 168 0
149 162 0
155 168 0
157 170 0
161 175 0
154 170 0
169 192 0
166 188 0
165 187 0
172 194 0
167 190 0
169 192 0
166 189 0
168 191 0
168 190 0
167 189 0
170 193 0
169 192 0
166 188 0
166 189 0
163 186 0
165 187 0
169 192 0
167 189 0
165 188 0
169 191 0
162 184 0
165 188 0
166 189 0
168 191 0
165 188 0
167 190 0
165 187 0
165 187 0
164 185 0
164 187 0
163 185 0
164 186 0
163 186 0
164 188 0
169 192 0
161 185 0
163 186 0
167 189 0
160 182 0
162 186 0
164 187 0
166 189 0
166 189 0
168 190 0
165 189 0
167 189 0
163 186 0
162 184 0
162 185 0
164 188 0
161 183 0
159 182 0
165 187 0
168 191 0
163 187 0
164 188 0
162 184 0
162 184 0
163 186 0
157 180 0
164 186 0
156 180 0
159 180 0
160 184 0
162 184 0
164 188 0
160 183 0
158 180 0
163 185 0
166 189 0
161 185 0
164 187 0
157 181 0
167 190 0
156 179 0
167 189 0
159 181 0
162 184 0
168 190 0
161 183 0
168 191 0
160 183 0
159 183 0
162 185 0
159 183 0
161 184 0
156 178 0
158 181 0
162 186 0
166 190 0
160 183 0
162 185 0
165 188 0
158 181 0
157 180 0
160 183 0
159 180 0
159 182 0
160 182 0
160 183 0
159 182 0
157 179 0
160 183 0
162 185 0
156 179 0
149 172 0
159 183 0
153 175 0
159 182 0
161 184 0
159 182 0
157 180 0
153 175 0
162 185 0
157 178 0
156 179 0
155 178 0
161 184 0
149 172 0
153 177 0
155 178 0
159 181 0
154 176 0
158 181 0
156 179 0
161 184 0
156 179 0
160 182 0
159 181 0
159 182 0
159 182 0
162 185 0
157 179 0
161 184 0
155 177 0
156 179 0
149 171 0
155 178 0
155 176 0
151 174 0
149 170 0
158 182 0
154 176 0
151 173 0
158 181 0
156 178 0
154 177 0
152 174 0
157 179 0
159 181 0
156 178 0
156 178 0
156 178 0
157 179 0
153 174 0
158 182 0
156 178 0
153 176 0
155 179 0
158 181 0
155 177 0
150 173 0
153 174 0
149 172 0
151 174 0
151 174 0
159 182 0
151 174 0
157 179 0
156 179 0
150 174 0
152 174 0
149 170 0
153 175 0
147 169 0
147 169 0
160 182 0
150 172 0
147 168 0
148 171 0
158 179 0
155 177 0
152 173 0
155 178 0
144 166 0
151 174 0
160 184 0
149 172 0
155 177 0
154 176 0
152 174 0
149 171 0
154 176 0
159 181 0
152 173 0
152 174 0
149 170 0
153 176 0
155 178 0
153 176 0
150 171 0
147 169 0
152 173 0
153 175 0
150 171 0
150 172 0
154 176 0
154 176 0
153 175 0
144 165 0
157 180 0
155 176 0
152 173 0
156 179 0
153 176 0
155 178 0
146 168 0
152 174 0
153 174 0
156 177 0
155 177 0
149 170 0
152 173 0
142 164 0
157 179 0
148 168 0
150 172 0
148 168 0
150 172 0
146 166 0
148 169 0
152 174 0
144 166 0
156 177 0
147 167 0
154 174 0
146 167 0
152 172 0
153 171 0
151 173 0
157 180 0
153 174 0
159 180 0
149 169 0
152 174 0
152 173 0
151 171 0
149 171 0
149 170 0
148 170 0
149 169 0
155 175 0
149 168 0
152 173 0
147 167 0
149 171 0
156 176 0
148 167 0
155 175 0
152 172 0
153 173 0
159 181 0
149 169 0
145 165 0
152 172 0
157 177 0
154 176 0
159 180 0
155 176 0
154 175 0
150 171 0
152 173 0
157 178 0
147 168 0
150 171 0
152 173 0
151 168 0
145 164 0
153 174 0
153 173 0
153 174 0
149 169 0
152 172 0
140 159 0
155 175 0
152 172 0
153 173 0
157 177 0
153 172 0
151 172 0
153 172 0
152 171 0
153 172 0
155 174 0
152 171 0
154 172 0
151 171 0
148 167 0
152 171 0
154 174 0
143 161 0
154 174 0
150 170 0
155 173 0
155 173 0
152 170 0
152 172 0
149 168 0
153 172 0
154 172 0
152 170 0
154 175 0
145 162 0
155 173 0
149 168 0
145 162 0
158 177 0
155 174 0
158 177 0
158 176 0
153 170 0
158 177 0
157 174 0
151 167 0
156 176 0
151 170 0
157 176 0
153 169 0
149 165 0
151 168 0
151 169 0
157 172 0
155 173 0
155 174 0
158 177 0
156 175 0
153 169 0
159 177 0
153 170 0
150 168 0
151 167 0
155 175 0
152 168 0
147 163 0
153 171 0
156 174 0
148 164 0
149 165 0
152 168 0
154 170 0
152 169 0
153 169 0
152 167 0
157 173 0
155 172 0
147 162 0
161 180 0
147 161 0
157 173 0
152 168 0
152 170 0
153 172 0
154 169 0
148 164 0
155 173 0
158 173 0
154 170 0
158 175 0
150 165 0
146 159 0
152 166 0
155 171 0
156 171 0
151 167 0
150 164 0
153 169 0
156 171 0
158 171 0
154 170 0
155 171 0
150 164 0
146 162 0
158 174 0
159 173 0
156 171 0
152 167 0
165 182 0
161 178 0
151 163 0
151 165 0
156 172 0
155 169 0
147 161 0
156 170 0
156 171 0
150 165 0
155 170 0
158 172 0
159 171 0
159 173 0
170 193 0
165 187 0
168 190 0
168 191 0
168 189 0
166 188 0
170 193 0
166 189 0
166 189 0
163 185 0
164 187 0
164 186 0
165 188 0
169 191 0
167 190 0
167 190 0
171 193 0
165 188 0
164 187 0
168 191 0
167 188 0
167 190 0
166 188 0
169 192 0
167 190 0
166 188 0
164 186 0
168 190 0
164 187 0
165 187 0
163 185 0
163 186 0
165 187 0
166 187 0
162 185 0
162 186 0
165 188 0
162 185 0
158 180 0
163 186 0
163 186 0
166 188 0
165 188 0
162 185 0
164 187 0
163 186 0
164 187 0
158 181 0
160 183 0
161 184 0
161 183 0
166 189 0
160 183 0
162 184 0
165 188 0
163 186 0
161 185 0
157 181 0
163 187 0
164 187 0
164 187 0
164 187 0
155 178 0
168 191 0
159 182 0
160 182 0
159 182 0
166 189 0
160 181 0
162 185 0
164 187 0
167 189 0
165 188 0
165 188 0
158 182 0
163 186 0
166 190 0
163 186 0
158 182 0
162 184 0
155 177 0
163 186 0
168 190 0
156 179 0
163 186 0
161 184 0
160 183 0
163 186 0
165 188 0
164 187 0
158 180 0
163 186 0
164 185 0
162 184 0
161 184 0
156 180 0
158 182 0
154 176 0
161 183 0
159 182 0
158 182 0
158 181 0
158 180 0
160 182 0
161 184 0
160 183 0
158 180 0
158 181 0
160 183 0
153 176 0
154 177 0
162 185 0
157 179 0
156 179 0
160 184 0
165 188 0
162 186 0
157 180 0
158 182 0
159 182 0
159 182 0
155 179 0
155 178 0
162 184 0
157 179 0
166 188 0
159 182 0
158 181 0
159 181 0
157 179 0
152 175 0
158 182 0
160 183 0
155 177 0
151 174 0
147 170 0
150 172 0
161 184 0
157 178 0
160 183 0
154 177 0
153 174 0
153 175 0
158 181 0
156 179 0
154 177 0
160 183 0
156 178 0
153 177 0
155 176 0
158 180 0
162 184 0
151 174 0
154 177 0
155 178 0
153 175 0
153 175 0
153 174 0
156 178 0
150 171 0
161 185 0
156 177 0
153 176 0
151 172 0
154 176 0
152 174 0
155 178 0
152 175 0
160 183 0
153 173 0
156 179 0
155 178 0
157 179 0
156 178 0
152 175 0
154 177 0
146 170 0
147 170 0
160 181 0
156 177 0
146 168 0
153 174 0
150 173 0
151 172 0
151 173 0
145 166 0
153 175 0
152 175 0
156 179 0
151 172 0
147 168 0
153 177 0
155 177 0
147 170 0
147 169 0
152 174 0
154 176 0
153 175 0
152 173 0
150 173 0
151 173 0
155 178 0
152 175 0
154 175 0
150 171 0
151 173 0
155 177 0
152 173 0
160 181 0
156 176 0
155 176 0
154 176 0
147 169 0
149 170 0
150 171 0
145 167 0
147 169 0
157 179 0
149 168 0
152 174 0
151 172 0
153 175 0
155 177 0
153 175 0
145 165 0
159 179 0
148 169 0
149 170 0
147 169 0
153 173 0
152 173 0
153 173 0
154 174 0
149 170 0
150 172 0
149 168 0
152 173 0
154 174 0
156 177 0
152 173 0
152 173 0
150 171 0
149 170 0
156 176 0
149 170 0
152 173 0
152 171 0
142 163 0
153 173 0
154 176 0
150 170 0
152 173 0
154 175 0
152 172 0
150 170 0
155 176 0
144 163 0
146 167 0
145 168 0
143 163 0
157 177 0
152 174 0
146 165 0
159 181 0
153 174 0
154 175 0
147 167 0
155 176 0
154 174 0
147 165 0
161 182 0
154 173 0
152 172 0
140 161 0
150 171 0
157 176 0
163 184 0
158 179 0
153 172 0
153 175 0
158 178 0
151 172 0
149 168 0
154 173 0
160 181 0
154 173 0
153 171 0
152 171 0
154 174 0
150 170 0
156 176 0
146 165 0
155 173 0
154 172 0
154 176 0
156 175 0
150 168 0
151 171 0
153 174 0
150 170 0
151 169 0
147 165 0
153 172 0
155 176 0
147 164 0
154 175 0
154 175 0
150 169 0
156 175 0
155 173 0
157 174 0
153 174 0
154 173 0
154 172 0
157 176 0
153 171 0
153 172 0
156 177 0
155 173 0
154 172 0
152 172 0
152 169 0
150 168 0
146 166 0
152 170 0
151 171 0
149 168 0
151 169 0
154 173 0
156 171 0
148 167 0
156 175 0
146 161 0
156 174 0
151 169 0
155 174 0
155 172 0
144 159 0
157 174 0
154 169 0
155 174 0
154 171 0
156 174 0
152 169 0
155 171 0
153 171 0
152 167 0
151 171 0
150 166 0
156 174 0
149 163 0
156 172 0
152 169 0
151 168 0
150 168 0
153 169 0
157 176 0
153 169 0
152 166 0
148 164 0
154 172 0
151 165 0
146 162 0
153 168 0
156 170 0
159 174 0
150 163 0
158 174 0
151 164 0
151 168 0
155 172 0
153 169 0
157 173 0
156 170 0
155 170 0
155 171 0
156 173 0
159 174 0
151 166 0
149 162 0
149 165 0
157 171 0
154 167 0
153 168 0
161 177 0
153 170 0
154 168 0
158 174 0
152 166 0
155 167 0
148 161 0
158 174 0
151 165 0
152 166 0
154 168 0
157 171 0
155 168 0
156 170 0
155 171 0
155 169 0
169 192 0
164 187 0
168 190 0
169 190 0
165 187 0
166 188 0
164 186 0
166 189 0
171 192 0
171 193 0
167 189 0
163 185 0
168 191 0
165 188 0
165 188 0
164 186 0
164 187 0
169 192 0
167 190 0
168 190 0
168 190 0
167 190 0
169 192 0
166 189 0
162 185 0
161 182 0
166 188 0
164 187 0
168 190 0
163 186 0
167 189 0
164 188 0
166 188 0
162 185 0
168 191 0
164 186 0
171 193 0
166 188 0
160 181 0
164 187 0
165 188 0
165 187 0
159 183 0
167 190 0
164 187 0
167 189 0
164 187 0
165 190 0
165 187 0
165 188 0
162 183 0
166 189 0
165 187 0
162 185 0
166 189 0
163 186 0
165 189 0
157 180 0
165 188 0
165 188 0
159 181 0
162 185 0
166 189 0
164 188 0
168 190 0
166 189 0
162 185 0
160 184 0
158 181 0
161 183 0
166 189 0
157 179 0
157 180 0
158 181 0
163 186 0
163 185 0
158 181 0
164 188 0
162 186 0
163 186 0
161 184 0
167 190 0
161 184 0
161 185 0
157 180 0
161 183 0
159 181 0
159 181 0
159 182 0
160 182 0
161 183 0
159 183 0
158 182 0
163 186 0
160 183 0
163 186 0
160 183 0
155 179 0
159 182 0
159 183 0
163 185 0
158 180 0
158 180 0
164 187 0
166 189 0
154 178 0
166 188 0
160 182 0
158 181 0
161 183 0
162 185 0
157 180 0
159 182 0
159 182 0
158 181 0
158 181 0
161 184 0
152 175 0
152 175 0
153 175 0
160 183 0
160 182 0
162 185 0
155 178 0
159 181 0
158 180 0
164 188 0
153 175 0
158 181 0
163 186 0
158 180 0
156 178 0
161 184 0
157 179 0
155 178 0
154 177 0
160 182 0
153 176 0
156 179 0
156 178 0
158 181 0
155 179 0
161 183 0
160 181 0
155 177 0
151 173 0
160 182 0
154 175 0
159 182 0
157 181 0
159 181 0
157 180 0
161 183 0
158 180 0
152 175 0
161 184 0
158 179 0
157 179 0
157 180 0
155 177 0
154 176 0
152 175 0
154 176 0
157 179 0
159 181 0
157 180 0
158 181 0
160 182 0
150 172 0
147 169 0
160 182 0
153 175 0
151 172 0
159 181 0
158 179 0
150 173 0
156 178 0
151 173 0
157 181 0
151 174 0
147 170 0
149 171 0
158 181 0
160 182 0
153 176 0
153 174 0
153 175 0
151 174 0
156 178 0
154 175 0
149 171 0
155 177 0
153 174 0
150 173 0
153 174 0
158 180 0
156 179 0
157 178 0
151 173 0
154 175 0
149 169 0
144 165 0
152 174 0
151 172 0
144 165 0
157 178 0
157 180 0
150 170 0
155 177 0
155 175 0
151 172 0
155 176 0
148 170 0
150 171 0
155 175 0
153 174 0
147 167 0
153 173 0
153 174 0
151 171 0
155 176 0
155 177 0
152 173 0
147 168 0
146 166 0
150 172 0
149 169 0
145 165 0
151 173 0
157 177 0
147 170 0
145 165 0
152 174 0
150 171 0
153 174 0
147 168 0
147 168 0
149 169 0
148 167 0
156 178 0
158 178 0
160 180 0
150 171 0
158 179 0
159 179 0
151 172 0
149 170 0
146 166 0
155 175 0
150 171 0
154 175 0
154 176 0
147 168 0
145 165 0
157 176 0
149 171 0
154 176 0
153 175 0
150 169 0
160 181 0
150 171 0
152 173 0
149 170 0
150 173 0
152 172 0
155 176 0
152 173 0
153 174 0
145 164 0
152 174 0
152 173 0
148 167 0
154 176 0
149 170 0
156 178 0
149 169 0
150 170 0
159 180 0
155 175 0
149 168 0
153 172 0
150 169 0
150 170 0
156 177 0
156 177 0
155 175 0
155 174 0
158 180 0
152 173 0
153 173 0
158 177 0
154 173 0
146 166 0
148 169 0
155 175 0
151 170 0
155 176 0
157 174 0
162 181 0
149 168 0
153 173 0
150 169 0
152 171 0
160 179 0
153 172 0
157 178 0
153 173 0
146 165 0
145 165 0
155 175 0
144 161 0
155 175 0
152 172 0
162 181 0
152 172 0
156 173 0
149 168 0
152 169 0
157 177 0
158 177 0
157 178 0
148 168 0
149 168 0
159 177 0
158 176 0
154 175 0
152 169 0
153 170 0
153 169 0
154 174 0
147 166 0
155 174 0
149 165 0
157 174 0
150 167 0
148 165 0
152 169 0
157 175 0
148 165 0
157 174 0
155 171 0
146 161 0
159 176 0
157 174 0
150 166 0
149 165 0
155 172 0
157 176 0
158 175 0
153 170 0
147 160 0
152 169 0
154 171 0
154 170 0
155 171 0
160 177 0
151 166 0
154 171 0
147 163 0
157 172 0
156 174 0
152 166 0
152 168 0
155 169 0
150 166 0
157 172 0
155 170 0
156 172 0
156 171 0
158 174 0
149 161 0
153 167 0
154 167 0
154 169 0
146 161 0
158 173 0
154 170 0
155 171 0
154 170 0
159 177 0
157 172 0
157 174 0
156 172 0
151 165 0
157 173 0
159 175 0
153 166 0
152 163 0
154 169 0
155 168 0
158 173 0
152 166 0
146 161 0
148 161 0
156 171 0
152 166 0
154 171 0
155 167 0
155 168 0
159 175 0
167 190 0
169 192 0
167 189 0
165 188 0
169 192 0
165 187 0
169 192 0
170 192 0
166 189 0
169 192 0
168 190 0
164 186 0
167 189 0
167 189 0
164 186 0
162 186 0
167 189 0
160 184 0
165 188 0
168 190 0
167 189 0
171 193 0
165 188 0
166 190 0
168 191 0
162 185 0
167 190 0
171 193 0
165 188 0
159 182 0
167 189 0
167 189 0
170 192 0
164 187 0
165 188 0
165 187 0
164 187 0
159 182 0
167 189 0
163 186 0
165 188 0
165 187 0
163 186 0
164 187 0
160 182 0
163 186 0
164 187 0
161 185 0
169 191 0
165 187 0
164 187 0
170 192 0
166 189 0
171 193 0
163 186 0
166 189 0
164 187 0
159 182 0
164 187 0
163 186 0
167 190 0
163 186 0
162 185 0
164 187 0
156 179 0
166 189 0
155 177 0
159 183 0
160 183 0
160 183 0
162 185 0
163 186 0
160 183 0
160 182 0
157 179 0
160 182 0
164 187 0
160 183 0
163 185 0
160 182 0
164 188 0
163 186 0
162 186 0
161 185 0
157 181 0
161 183 0
166 188 0
161 183 0
158 181 0
162 185 0
162 185 0
165 188 0
160 183 0
157 180 0
161 184 0
156 179 0
159 182 0
162 185 0
161 183 0
164 187 0
160 182 0
159 182 0
157 179 0
149 172 0
157 180 0
156 179 0
162 185 0
164 187 0
162 185 0
158 181 0
150 173 0
162 185 0
153 176 0
156 178 0
159 181 0
160 182 0
155 178 0
154 176 0
160 183 0
156 179 0
154 177 0
158 181 0
156 179 0
152 175 0
159 182 0
156 179 0
165 187 0
158 181 0
154 176 0
151 174 0
162 185 0
153 176 0
159 182 0
157 180 0
156 179 0
150 172 0
154 177 0
154 177 0
161 184 0
153 175 0
163 186 0
155 179 0
148 170 0
154 176 0
149 172 0
158 180 0
160 182 0
152 174 0
153 176 0
160 182 0
152 174 0
155 177 0
158 179 0
158 181 0
155 177 0
156 178 0
146 168 0
152 173 0
155 178 0
159 183 0
150 173 0
155 177 0
157 180 0
154 176 0
154 176 0
156 178 0
156 179 0
147 168 0
153 176 0
159 183 0
157 179 0
149 171 0
156 178 0
156 177 0
157 178 0
160 183 0
155 178 0
150 173 0
157 181 0
154 177 0
152 176 0
151 173 0
150 173 0
154 176 0
149 171 0
160 184 0
152 174 0
156 177 0
150 173 0
154 177 0
155 178 0
158 180 0
154 176 0
152 174 0
146 167 0
155 178 0
148 170 0
154 176 0
150 172 0
155 177 0
154 176 0
142 163 0
158 179 0
149 170 0
153 174 0
154 176 0
153 177 0
157 179 0
146 169 0
149 171 0
160 181 0
161 183 0
144 165 0
146 168 0
152 173 0
153 175 0
152 173 0
145 165 0
150 171 0
147 169 0
156 177 0
155 177 0
151 172 0
143 166 0
151 172 0
153 174 0
154 175 0
151 174 0
150 171 0
148 167 0
154 176 0
152 174 0
150 172 0
147 168 0
150 172 0
151 173 0
148 170 0
155 176 0
154 175 0
148 168 0
148 168 0
153 174 0
152 172 0
146 166 0
149 171 0
146 166 0
154 175 0
153 174 0
145 166 0
158 179 0
152 175 0
154 174 0
146 166 0
158 180 0
139 159 0
151 172 0
158 179 0
153 173 0
152 173 0
158 178 0
151 170 0
144 166 0
150 172 0
153 173 0
151 172 0
145 164 0
148 169 0
148 169 0
155 175 0
149 170 0
152 172 0
154 175 0
153 172 0
154 174 0
147 166 0
149 169 0
158 178 0
155 175 0
149 168 0
149 168 0
147 168 0
146 166 0
146 166 0
152 172 0
153 173 0
155 174 0
151 170 0
152 175 0
155 175 0
149 168 0
154 174 0
150 168 0
155 174 0
147 166 0
150 171 0
158 178 0
147 164 0
155 175 0
152 172 0
149 168 0
146 167 0
157 176 0
153 174 0
157 176 0
153 174 0
154 172 0
162 181 0
157 178 0
153 173 0
151 170 0
155 175 0
155 174 0
155 174 0
158 178 0
151 168 0
154 174 0
147 164 0
153 172 0
151 166 0
150 168 0
153 171 0
154 172 0
149 167 0
155 173 0
153 169 0
158 177 0
154 170 0
151 168 0
148 167 0
155 175 0
149 167 0
150 167 0
149 165 0
160 177 0
155 175 0
154 173 0
151 168 0
151 169 0
153 172 0
149 164 0
155 172 0
156 174 0
159 177 0
156 173 0
154 170 0
155 173 0
147 164 0
153 171 0
156 172 0
155 172 0
154 171 0
153 168 0
153 171 0
149 166 0
152 168 0
154 169 0
155 173 0
158 176 0
160 178 0
156 173 0
156 175 0
152 169 0
145 160 0
157 174 0
158 175 0
157 173 0
153 170 0
151 166 0
151 168 0
153 170 0
155 170 0
155 172 0
155 173 0
151 164 0
155 172 0
153 168 0
154 169 0
158 176 0
150 164 0
155 169 0
158 171 0
160 176 0
154 169 0
151 164 0
149 165 0
158 173 0
161 180 0
154 167 0
159 175 0
151 166 0
164 178 0
155 170 0
157 171 0
153 168 0
156 172 0
156 173 0
155 171 0
159 175 0
158 173 0
157 173 0
164 186 0
166 188 0
169 191 0
167 190 0
165 188 0
168 190 0
168 191 0
164 187 0
171 194 0
167 190 0
167 190 0
164 187 0
163 185 0
167 190 0
166 188 0
171 193 0
166 189 0
166 189 0
164 186 0
164 188 0
168 191 0
163 186 0
162 184 0
166 188 0
166 189 0
163 186 0
167 190 0
160 183 0
166 188 0
167 189 0
165 188 0
167 191 0
163 186 0
165 189 0
170 193 0
161 184 0
162 184 0
170 194 0
165 188 0
168 190 0
162 185 0
167 190 0
165 187 0
169 191 0
165 189 0
165 187 0
165 187 0
168 190 0
168 191 0
163 186 0
165 187 0
163 186 0
164 186 0
159 181 0
163 186 0
162 184 0
161 184 0
161 184 0
162 185 0
164 187 0
162 185 0
163 185 0
165 187 0
161 183 0
160 183 0
162 185 0
159 183 0
158 181 0
162 185 0
167 190 0
160 182 0
159 181 0
164 187 0
157 179 0
165 189 0
158 182 0
165 189 0
163 187 0
159 182 0
159 182 0
163 186 0
159 181 0
163 186 0
153 177 0
156 178 0
158 182 0
162 185 0
157 179 0
161 184 0
165 188 0
156 179 0
168 191 0
164 186 0
160 183 0
163 186 0
160 183 0
164 187 0
168 191 0
157 180 0
160 183 0
160 184 0
150 173 0
157 181 0
157 180 0
157 180 0
161 185 0
159 182 0
163 186 0
162 185 0
164 187 0
158 181 0
159 181 0
156 179 0
158 180 0
156 178 0
160 183 0
157 179 0
153 176 0
159 182 0
151 174 0
157 180 0
151 174 0
161 184 0
157 179 0
159 182 0
153 174 0
160 183 0
161 183 0
151 174 0
157 179 0
151 173 0
161 184 0
158 180 0
160 182 0
152 175 0
154 177 0
159 182 0
158 181 0
156 178 0
156 179 0
157 179 0
151 173 0
155 178 0
156 179 0
163 186 0
159 182 0
158 182 0
155 178 0
161 184 0
150 174 0
157 181 0
149 172 0
161 184 0
155 178 0
146 168 0
155 178 0
156 179 0
152 174 0
156 179 0
152 175 0
161 184 0
153 174 0
152 174 0
156 179 0
149 170 0
150 172 0
162 185 0
158 180 0
152 173 0
154 176 0
160 182 0
157 179 0
147 169 0
161 184 0
154 176 0
154 176 0
156 178 0
155 177 0
145 166 0
152 175 0
154 177 0
154 177 0
154 177 0
158 180 0
164 186 0
158 180 0
150 171 0
156 178 0
148 170 0
152 174 0
151 173 0
156 178 0
150 172 0
146 167 0
158 181 0
150 172 0
149 172 0
147 169 0
153 175 0
155 179 0
146 167 0
150 172 0
152 174 0
148 170 0
153 175 0
156 177 0
149 170 0
151 173 0
155 177 0
150 170 0
156 179 0
155 176 0
155 177 0
153 176 0
153 175 0
154 177 0
152 173 0
158 180 0
158 180 0
149 170 0
144 164 0
150 171 0
151 172 0
143 164 0
152 176 0
155 178 0
150 170 0
157 177 0
156 179 0
151 172 0
149 169 0
151 172 0
156 179 0
156 179 0
157 178 0
149 170 0
146 168 0
156 177 0
145 166 0
150 171 0
156 176 0
148 170 0
153 175 0
154 176 0
149 170 0
146 167 0
147 168 0
162 184 0
154 175 0
153 173 0
157 178 0
157 179 0
155 175 0
156 178 0
149 169 0
153 173 0
148 169 0
150 171 0
155 175 0
150 171 0
161 182 0
159 181 0
155 178 0
145 166 0
153 173 0
152 171 0
140 161 0
149 171 0
156 179 0
154 175 0
153 173 0
155 175 0
142 162 0
156 176 0
156 177 0
149 170 0
153 173 0
156 176 0
156 175 0
155 175 0
146 164 0
153 173 0
155 174 0
160 181 0
154 174 0
158 177 0
150 171 0
154 174 0
148 168 0
151 171 0
152 172 0
152 173 0
157 177 0
154 173 0
160 180 0
157 179 0
155 175 0
155 174 0
157 178 0
154 173 0
155 174 0
152 172 0
158 177 0
154 174 0
152 171 0
153 172 0
156 175 0
156 173 0
152 171 0
151 170 0
148 167 0
157 176 0
143 163 0
156 173 0
149 167 0
156 176 0
161 180 0
155 172 0
151 171 0
155 174 0
154 175 0
148 167 0
155 174 0
158 176 0
148 166 0
154 173 0
152 170 0
156 174 0
154 174 0
152 169 0
147 165 0
152 170 0
156 173 0
146 163 0
151 168 0
152 172 0
151 170 0
153 170 0
155 171 0
160 178 0
155 171 0
147 162 0
150 168 0
149 165 0
156 171 0
159 177 0
149 166 0
158 176 0
155 172 0
148 164 0
146 162 0
147 163 0
149 166 0
153 170 0
155 172 0
150 167 0
148 164 0
156 171 0
151 169 0
156 172 0
152 168 0
157 172 0
150 168 0
156 171 0
155 172 0
154 171 0
156 173 0
155 172 0
150 168 0
155 173 0
153 169 0
153 168 0
157 174 0
155 172 0
157 172 0
157 174 0
150 165 0
163 177 0
153 170 0
151 166 0
154 172 0
154 171 0
151 167 0
160 178 0
157 173 0
150 164 0
159 175 0
153 168 0
160 174 0
155 169 0
157 170 0
160 177 0
148 161 0
157 172 0
160 172 0
158 173 0
156 171 0
153 168 0
157 171 0
156 172 0
